; generated by Slic3r 1.2.9 on 2018-05-06 at 13:30:33

; external perimeters extrusion width = 0.40mm
; perimeters extrusion width = 0.40mm
; infill extrusion width = 0.40mm
; solid infill extrusion width = 0.40mm
; top infill extrusion width = 0.40mm
; support material extrusion width = 0.40mm

M107
M83
T0
M116


G21 ; set units to millimeters
G90 ; use absolute coordinates
M83 ; use relative distances for extrusion
G1 E-3.20000 F3000.00000
G1 Z0.400 F15000.000
G1 X13.367 Y-15.650 F15000.000
G1 Z0.350 F15000.000
G1 E3.20000 F3000.00000
G1 X14.261 Y-14.846 E0.10932 F960.000
G1 X14.850 Y-14.256 E0.07586
G1 X15.383 Y-13.679 E0.07140
G1 X15.925 Y-13.046 E0.07575
G1 X16.411 Y-12.429 E0.07140
G1 X16.902 Y-11.753 E0.07602
G1 X17.338 Y-11.100 E0.07140
G1 X17.774 Y-10.389 E0.07588
G1 X18.158 Y-9.703 E0.07140
G1 X18.536 Y-8.962 E0.07567
G1 X18.865 Y-8.249 E0.07139
G1 X19.185 Y-7.476 E0.07607
G1 X19.456 Y-6.739 E0.07140
G1 X19.714 Y-5.948 E0.07568
G1 X19.927 Y-5.192 E0.07140
G1 X20.122 Y-4.380 E0.07592
G1 X20.275 Y-3.610 E0.07140
G1 X20.406 Y-2.785 E0.07601
G1 X20.498 Y-2.005 E0.07140
G1 X20.563 Y-1.175 E0.07564
G1 X20.594 Y-0.391 E0.07140
G1 X20.594 Y0.446 E0.07605
G1 X20.563 Y1.230 E0.07139
G1 X20.498 Y2.059 E0.07564
G1 X20.406 Y2.839 E0.07140
G1 X20.275 Y3.665 E0.07601
G1 X20.122 Y4.435 E0.07140
G1 X19.927 Y5.247 E0.07592
G1 X19.714 Y6.002 E0.07140
G1 X19.456 Y6.794 E0.07567
G1 X19.185 Y7.530 E0.07140
G1 X18.865 Y8.303 E0.07602
G1 X18.536 Y9.016 E0.07140
G1 X18.158 Y9.759 E0.07578
G1 X17.774 Y10.444 E0.07139
G1 X17.338 Y11.155 E0.07582
G1 X16.902 Y11.807 E0.07140
G1 X16.411 Y12.484 E0.07602
G1 X15.925 Y13.100 E0.07140
G1 X15.383 Y13.734 E0.07576
G1 X14.883 Y14.276 E0.06707
G1 X14.328 Y14.832 E0.07145
G1 X13.720 Y15.400 E0.07571
G1 X13.049 Y15.976 E0.08033
G1 X12.432 Y16.462 E0.07140
G1 X11.759 Y16.951 E0.07568
G1 X11.106 Y17.387 E0.07140
G1 X10.393 Y17.824 E0.07605
G1 X9.708 Y18.208 E0.07140
G1 X8.966 Y18.586 E0.07572
G1 X8.253 Y18.915 E0.07140
G1 X7.481 Y19.234 E0.07596
G1 X6.745 Y19.506 E0.07139
G1 X5.952 Y19.764 E0.07577
G1 X5.196 Y19.977 E0.07141
G1 X4.384 Y20.172 E0.07600
G1 X3.418 Y20.362 E0.08944
G1 X-33.410 Y26.971 E3.40232
G1 X-35.287 Y27.138 E0.17130
G1 X-42.277 Y27.139 E0.63559
G1 X-45.158 Y26.741 E0.26448
G1 X-47.823 Y25.576 E0.26448
G1 X-50.073 Y23.732 E0.26448
G1 X-51.947 Y20.917 E0.30755
G1 X-52.612 Y19.455 E0.14602
G1 X-53.444 Y16.668 E0.26448
G1 X-53.567 Y15.057 E0.14694
G1 X-53.580 Y-15.599 E2.78750
G1 X-53.183 Y-18.480 E0.26448
G1 X-52.454 Y-20.364 E0.18369
G1 X-52.024 Y-21.222 E0.08728
G1 X-50.377 Y-23.620 E0.26448
G1 X-48.142 Y-25.481 E0.26448
G1 X-45.486 Y-26.666 E0.26448
G1 X-42.526 Y-27.086 E0.27184
G1 X-35.536 Y-27.087 E0.63559
G1 X-33.670 Y-26.922 E0.17030
G1 X3.407 Y-20.310 E3.42460 F960.000
G1 X4.385 Y-20.117 E0.09059
G1 X5.196 Y-19.923 E0.07584
G1 X5.951 Y-19.709 E0.07140
G1 X6.745 Y-19.451 E0.07591
G1 X7.482 Y-19.180 E0.07139
G1 X8.252 Y-18.861 E0.07582
G1 X8.965 Y-18.532 E0.07140
G1 X9.709 Y-18.153 E0.07586
G1 X10.394 Y-17.769 E0.07140
G1 X11.106 Y-17.333 E0.07592
G1 X11.758 Y-16.897 E0.07139
G1 X12.433 Y-16.407 E0.07584
G1 X13.321 Y-15.689 E0.10382
G1 E-3.20000 F3000.00000
G1 Z0.750 F15000.000
G1 X-2.523 Y1.627 F15000.000
G1 Z0.350 F15000.000
G1 E3.20000 F3000.00000
G1 X-2.523 Y-2.473 E0.37283 F960.000
G1 X1.577 Y-2.473 E0.37278
G1 X1.577 Y-8.212 E0.52181
G1 X1.938 Y-8.140 E0.03349
G1 X2.573 Y-7.961 E0.05997
G1 X3.191 Y-7.732 E0.05996
G1 X3.790 Y-7.456 E0.05997
G1 X4.366 Y-7.134 E0.05996
G1 X4.914 Y-6.768 E0.05996
G1 X5.432 Y-6.359 E0.05997
G1 X5.916 Y-5.912 E0.05997
G1 X6.364 Y-5.427 E0.05998
G1 X6.772 Y-4.910 E0.05997
G1 X7.139 Y-4.361 E0.05995
G1 X7.461 Y-3.786 E0.05998
G1 X7.737 Y-3.187 E0.05996
G1 X7.965 Y-2.568 E0.05997
G1 X8.144 Y-1.933 E0.05998
G1 X8.216 Y-1.573 E0.03343
G1 X2.478 Y-1.573 E0.52180
G1 X2.478 Y2.528 E0.37284
G1 X-1.622 Y2.528 E0.37278
G1 X-1.622 Y8.264 E0.52165
G1 X-2.025 Y8.182 E0.03739
G1 X-2.618 Y8.015 E0.05603
G1 X-3.237 Y7.787 E0.05997
G1 X-3.836 Y7.511 E0.05996
G1 X-4.411 Y7.189 E0.05997
G1 X-4.959 Y6.822 E0.05997
G1 X-5.477 Y6.414 E0.05997
G1 X-5.929 Y5.996 E0.05597
G1 X-6.412 Y5.479 E0.06429
G1 X-6.818 Y4.964 E0.05963
G1 X-7.184 Y4.416 E0.05997
G1 X-7.506 Y3.840 E0.05996
G1 X-7.782 Y3.241 E0.05996
G1 X-8.011 Y2.623 E0.05997
G1 X-8.190 Y1.988 E0.05996
G1 X-8.261 Y1.627 E0.03344
G1 X-2.583 Y1.627 E0.51634
G1 X-2.623 Y-2.572 F15000.000
G1 X-8.009 Y-2.572 E0.48978 F600.000
G1 X-7.782 Y-3.187 E0.05957
G1 X-7.506 Y-3.786 E0.05996
G1 X-7.184 Y-4.361 E0.05997
G1 X-6.818 Y-4.910 E0.05997
G1 X-6.409 Y-5.427 E0.05996
G1 X-5.962 Y-5.912 E0.05997
G1 X-5.477 Y-6.359 E0.05997
G1 X-4.960 Y-6.768 E0.05996
G1 X-4.411 Y-7.134 E0.05997
G1 X-3.836 Y-7.456 E0.05997
G1 X-3.237 Y-7.732 E0.05996
G1 X-2.623 Y-7.959 E0.05952
G1 X-2.623 Y-2.632 E0.48435
G1 X2.577 Y2.627 F15000.000
G1 X7.964 Y2.627 E0.48977 F600.000
G1 X7.737 Y3.241 E0.05957
G1 X7.461 Y3.840 E0.05997
G1 X7.139 Y4.416 E0.05997
G1 X6.772 Y4.964 E0.05996
G1 X6.364 Y5.482 E0.05996
G1 X5.946 Y5.934 E0.05598
G1 X5.429 Y6.416 E0.06428
G1 X4.914 Y6.822 E0.05965
G1 X4.366 Y7.189 E0.05996
G1 X3.790 Y7.511 E0.05996
G1 X3.191 Y7.787 E0.05997
G1 X2.577 Y8.013 E0.05951
G1 X2.577 Y2.687 E0.48435
G1 X3.102 Y2.002 F15000.000
G1 X8.790 Y2.002 E0.51713 F960.000
G1 X8.560 Y2.816 E0.07691
G1 X8.315 Y3.481 E0.06443
G1 X8.018 Y4.124 E0.06443
G1 X7.672 Y4.742 E0.06443
G1 X7.278 Y5.332 E0.06443
G1 X6.839 Y5.888 E0.06443
G1 X6.389 Y6.375 E0.06031
G1 X5.836 Y6.891 E0.06874
G1 X5.282 Y7.328 E0.06424
G1 X4.693 Y7.722 E0.06443
G1 X4.074 Y8.068 E0.06443
G1 X3.431 Y8.365 E0.06444
G1 X2.766 Y8.610 E0.06442
G1 X1.953 Y8.839 E0.07686
G1 X1.953 Y3.152 E0.51712
G1 X-0.997 Y3.152 E0.26822
G1 X-0.997 Y8.992 E0.53101
G1 X-1.432 Y8.941 E0.03984
G1 X-2.172 Y8.790 E0.06867
G1 X-2.811 Y8.610 E0.06037
G1 X-3.476 Y8.365 E0.06443
G1 X-4.120 Y8.068 E0.06443
G1 X-4.738 Y7.722 E0.06443
G1 X-5.327 Y7.328 E0.06443
G1 X-5.884 Y6.889 E0.06443
G1 X-6.371 Y6.439 E0.06030
G1 X-6.886 Y5.886 E0.06875
G1 X-7.324 Y5.332 E0.06423
G1 X-7.717 Y4.742 E0.06444
G1 X-8.063 Y4.124 E0.06443
G1 X-8.360 Y3.481 E0.06443
G1 X-8.605 Y2.816 E0.06444
G1 X-8.798 Y2.134 E0.06443
G1 X-8.936 Y1.439 E0.06443
G1 X-8.988 Y1.002 E0.03997
G1 X-3.148 Y1.002 E0.53101
G1 X-3.148 Y-1.947 E0.26822
G1 X-8.835 Y-1.947 E0.51713
G1 X-8.605 Y-2.761 E0.07691
G1 X-8.360 Y-3.426 E0.06443
G1 X-8.063 Y-4.070 E0.06442
G1 X-7.717 Y-4.688 E0.06444
G1 X-7.324 Y-5.277 E0.06443
G1 X-6.885 Y-5.834 E0.06443
G1 X-6.404 Y-6.354 E0.06443
G1 X-5.884 Y-6.835 E0.06443
G1 X-5.327 Y-7.274 E0.06443
G1 X-4.738 Y-7.667 E0.06443
G1 X-4.120 Y-8.014 E0.06444
G1 X-3.476 Y-8.310 E0.06443
G1 X-2.811 Y-8.555 E0.06443
G1 X-1.998 Y-8.785 E0.07686
G1 X-1.998 Y-3.098 E0.51712
G1 X0.952 Y-3.098 E0.26822
G1 X0.952 Y-8.935 E0.53080
G1 X1.391 Y-8.886 E0.04022
G1 X2.084 Y-8.748 E0.06421
G1 X2.766 Y-8.555 E0.06444
G1 X3.431 Y-8.310 E0.06443
G1 X4.074 Y-8.014 E0.06444
G1 X4.693 Y-7.667 E0.06443
G1 X5.282 Y-7.274 E0.06443
G1 X5.838 Y-6.835 E0.06443
G1 X6.358 Y-6.354 E0.06443
G1 X6.839 Y-5.834 E0.06444
G1 X7.278 Y-5.277 E0.06443
G1 X7.672 Y-4.688 E0.06442
G1 X8.018 Y-4.070 E0.06444
G1 X8.315 Y-3.426 E0.06443
G1 X8.560 Y-2.761 E0.06443
G1 X8.752 Y-2.079 E0.06444
G1 X8.891 Y-1.385 E0.06442
G1 X8.942 Y-0.948 E0.03998
G1 X3.102 Y-0.948 E0.53101
G1 X3.102 Y1.942 E0.26277
G1 X3.727 Y1.377 F15000.000
G1 X9.540 Y1.377 E0.52855 F960.000
G1 X9.360 Y2.280 E0.08371
G1 X9.155 Y3.009 E0.06890
G1 X8.893 Y3.720 E0.06890
G1 X8.575 Y4.408 E0.06890
G1 X8.205 Y5.069 E0.06889
G1 X7.784 Y5.699 E0.06890
G1 X7.315 Y6.294 E0.06890
G1 X6.832 Y6.816 E0.06464
G1 X6.244 Y7.365 E0.07321
G1 X5.649 Y7.834 E0.06883
G1 X5.019 Y8.255 E0.06890
G1 X4.358 Y8.625 E0.06889
G1 X3.670 Y8.942 E0.06890
G1 X2.959 Y9.205 E0.06889
G1 X2.230 Y9.410 E0.06890
G1 X1.328 Y9.590 E0.08366
G1 X1.328 Y3.777 E0.52853
G1 X-0.372 Y3.777 E0.15458
G1 X-0.372 Y9.663 E0.53521
G1 X-0.780 Y9.647 E0.03707
G1 X-1.532 Y9.558 E0.06883
G1 X-2.320 Y9.398 E0.07314
G1 X-3.005 Y9.205 E0.06471
G1 X-3.716 Y8.942 E0.06890
G1 X-4.404 Y8.625 E0.06889
G1 X-5.065 Y8.255 E0.06890
G1 X-5.695 Y7.834 E0.06890
G1 X-6.290 Y7.365 E0.06890
G1 X-6.812 Y6.882 E0.06464
G1 X-7.361 Y6.294 E0.07322
G1 X-7.829 Y5.699 E0.06882
G1 X-8.250 Y5.069 E0.06890
G1 X-8.621 Y4.408 E0.06889
G1 X-8.938 Y3.720 E0.06890
G1 X-9.200 Y3.009 E0.06890
G1 X-9.406 Y2.280 E0.06889
G1 X-9.554 Y1.537 E0.06890
G1 X-9.643 Y0.784 E0.06890
G1 X-9.659 Y0.377 E0.03702
G1 X-3.773 Y0.377 E0.53521
G1 X-3.773 Y-1.323 E0.15458
G1 X-9.585 Y-1.323 E0.52855
G1 X-9.406 Y-2.225 E0.08371
G1 X-9.200 Y-2.955 E0.06889
G1 X-8.938 Y-3.666 E0.06890
G1 X-8.621 Y-4.354 E0.06889
G1 X-8.250 Y-5.015 E0.06890
G1 X-7.829 Y-5.645 E0.06890
G1 X-7.360 Y-6.240 E0.06889
G1 X-6.846 Y-6.796 E0.06890
G1 X-6.290 Y-7.310 E0.06890
G1 X-5.695 Y-7.780 E0.06889
G1 X-5.065 Y-8.201 E0.06890
G1 X-4.404 Y-8.571 E0.06890
G1 X-3.716 Y-8.888 E0.06889
G1 X-3.005 Y-9.150 E0.06890
G1 X-2.275 Y-9.356 E0.06889
G1 X-1.373 Y-9.535 E0.08367
G1 X-1.373 Y-3.723 E0.52854
G1 X0.327 Y-3.723 E0.15458
G1 X0.327 Y-9.609 E0.53521
G1 X0.682 Y-9.595 E0.03234
G1 X1.488 Y-9.504 E0.07370
G1 X2.230 Y-9.356 E0.06882
G1 X2.959 Y-9.150 E0.06890
G1 X3.670 Y-8.888 E0.06889
G1 X4.358 Y-8.571 E0.06890
G1 X5.019 Y-8.201 E0.06890
G1 X5.649 Y-7.780 E0.06889
G1 X6.244 Y-7.310 E0.06890
G1 X6.801 Y-6.796 E0.06890
G1 X7.315 Y-6.240 E0.06890
G1 X7.784 Y-5.645 E0.06890
G1 X8.205 Y-5.015 E0.06889
G1 X8.575 Y-4.354 E0.06890
G1 X8.893 Y-3.666 E0.06889
G1 X9.155 Y-2.955 E0.06890
G1 X9.360 Y-2.225 E0.06890
G1 X9.508 Y-1.482 E0.06889
G1 X9.597 Y-0.730 E0.06890
G1 X9.613 Y-0.323 E0.03702
G1 X3.727 Y-0.323 E0.53521
G1 X3.727 Y1.317 E0.14912
G1 X3.727 Y1.777 F15000.000
G1 X4.564 Y-1.936 F15000.000
G1 X1.940 Y-4.560 E0.43675 F960.000
G1 X1.940 Y-3.416 E0.13468
G1 X3.420 Y-1.936 E0.24629
G1 X2.276 Y-1.936 E0.13468
G1 X1.940 Y-2.272 E0.05583
G1 X2.113 Y-1.775 F15000.000
G1 X1.779 Y-2.109 E0.05562 F960.000
G1 X0.795 Y-2.109 E0.11590
G1 X2.113 Y-0.790 E0.21952
G1 X2.113 Y0.194 E0.11590
G1 X-0.190 Y-2.109 E0.38343
G1 X-1.174 Y-2.109 E0.11590
G1 X2.113 Y1.179 E0.54733
G1 X2.093 Y2.143 E0.11357
G1 X-2.139 Y-2.089 E0.70457
G1 X-2.159 Y-1.124 E0.11357
G1 X1.129 Y2.163 E0.54733
G1 X0.144 Y2.163 E0.11590
G1 X-2.159 Y-0.140 E0.38342
G1 X-2.159 Y0.845 E0.11590
G1 X-0.840 Y2.163 E0.21952
G1 X-1.825 Y2.163 E0.11590
G1 X-2.159 Y1.829 E0.05562
G1 X-2.001 Y2.311 F15000.000
G1 X-2.306 Y2.006 E0.05080 F960.000
G1 X-3.286 Y2.006 E0.11540
G1 X-2.001 Y3.291 E0.21399
G1 X-2.001 Y4.272 E0.11540
G1 X-4.266 Y2.006 E0.37719
G1 X-5.247 Y2.006 E0.11540
G1 X-2.001 Y5.252 E0.54039
G1 X-2.001 Y6.232 E0.11540
G1 X-6.227 Y2.006 E0.70358
G1 X-7.207 Y2.006 E0.11540
G1 X-2.001 Y7.212 E0.86678
G1 X-2.652 Y7.542 E0.08589
G1 X-7.537 Y2.657 E0.81324
G1 X-6.093 Y5.080 F15000.000
G1 X-5.062 Y6.112 E0.17175 F960.000
G1 X1.940 Y-5.704 F15000.000
G1 X5.708 Y-1.936 E0.62721 F960.000
G1 X6.852 Y-1.936 E0.13468
G1 X1.940 Y-6.848 E0.81767
G1 X2.336 Y-7.597 E0.09967
G1 X7.601 Y-2.331 E0.87656
G1 X6.048 Y-5.028 F15000.000
G1 X5.032 Y-6.044 E0.16911 F960.000
G1 E-3.20000 F3000.00000
G1 Z0.750 F15000.000
G1 X7.338 Y3.306 F15000.000
G1 Z0.350 F15000.000
G1 E3.20000 F3000.00000
G1 X7.038 Y3.005 E0.03963 F960.000
G1 X6.131 Y3.005 E0.08468
G1 X7.040 Y3.915 E0.12003
G1 X6.701 Y4.482 E0.06174
G1 X5.224 Y3.005 E0.19495
G1 X4.317 Y3.005 E0.08468
G1 X6.322 Y5.011 E0.26469
G1 X5.899 Y5.495 E0.06001
G1 X3.409 Y3.005 E0.32861
G1 X2.956 Y3.459 E0.05987
G1 X5.445 Y5.948 E0.32858
G1 X4.961 Y6.371 E0.06001
G1 X2.956 Y4.366 E0.26468
G1 X2.956 Y5.273 E0.08468
G1 X4.433 Y6.750 E0.19494
G1 X3.865 Y7.090 E0.06173
G1 X2.956 Y6.181 E0.12003
G1 X2.956 Y7.088 E0.08468
G1 X3.256 Y7.388 E0.03963
G1 E-3.20000 F3000.00000
G1 Z0.750 F15000.000
G1 X-7.083 Y-2.951 F15000.000
G1 Z0.350 F15000.000
G1 E3.20000 F3000.00000
G1 X-7.384 Y-3.251 E0.03963 F960.000
G1 X-7.086 Y-3.860 E0.06330
G1 X-6.176 Y-2.951 E0.12003
G1 X-5.269 Y-2.951 E0.08468
G1 X-6.746 Y-4.428 E0.19495
G1 X-6.367 Y-4.956 E0.06068
G1 X-4.362 Y-2.951 E0.26470
G1 X-3.455 Y-2.951 E0.08468
G1 X-5.945 Y-5.441 E0.32877
G1 X-5.492 Y-5.895 E0.05987
G1 X-3.001 Y-3.405 E0.32875
G1 X-3.001 Y-4.312 E0.08468
G1 X-5.006 Y-6.317 E0.26468
G1 X-4.478 Y-6.696 E0.06068
G1 X-3.001 Y-5.219 E0.19494
G1 X-3.001 Y-6.126 E0.08468
G1 X-3.911 Y-7.035 E0.12003
G1 X-3.302 Y-7.333 E0.06330
G1 X-3.001 Y-7.033 E0.03963
G1 E-3.20000 F3000.00000
G1 Z0.750 F15000.000
G1 X-33.485 Y1.761 F15000.000
G1 Z0.350 F15000.000
G1 E3.20000 F3000.00000
G1 X-33.919 Y2.628 E0.08818 F960.000
G1 E-3.20000 F3000.00000
G1 Z0.750 F15000.000
G1 X-35.287 Y16.513 F15000.000
G1 Z0.350 F15000.000
G1 E3.20000 F3000.00000
G1 X-35.017 Y15.975 E0.05475 F960.000
G1 X-36.685 Y16.514 E0.15935
G1 X-35.019 Y13.188 E0.33821
G1 X-35.020 Y10.401 E0.25341
G1 X-38.083 Y16.514 E0.62167
G1 X-39.481 Y16.514 E0.12712
G1 X-35.021 Y7.615 E0.90513
G1 X-35.022 Y4.828 E0.25341
G1 X-40.879 Y16.514 E1.18858
G1 X-42.277 Y16.514 E0.12712
G1 X-33.485 Y-1.028 E1.78415
G1 X-34.061 Y-2.669 E0.15812
G1 X-42.943 Y15.052 E1.80240
G1 X-42.944 Y12.265 E0.25341
G1 X-35.026 Y-3.531 E1.60670
G1 X-35.028 Y-6.317 E0.25334
G1 X-42.945 Y9.478 E1.60663
G1 X-42.946 Y6.692 E0.25341
G1 X-35.029 Y-9.104 E1.60655
G1 X-35.031 Y-11.890 E0.25334
G1 X-42.947 Y3.905 E1.60647
G1 X-42.948 Y1.118 E0.25341
G1 X-35.033 Y-14.676 E1.60640
G1 X-35.535 Y-16.462 E0.16870
G1 X-42.950 Y-1.669 E1.50458
G1 X-42.951 Y-4.456 E0.25341
G1 X-36.933 Y-16.462 E1.22112
G1 X-38.331 Y-16.462 E0.12712
G1 X-42.952 Y-7.243 E0.93766
G1 X-42.953 Y-10.030 E0.25341
G1 X-39.729 Y-16.462 E0.65420
G1 X-41.127 Y-16.462 E0.12712
G1 X-42.954 Y-12.817 E0.37074
G1 X-42.956 Y-15.603 E0.25341
G1 X-42.525 Y-16.462 E0.08728
G1 E-3.20000 F3000.00000
G1 Z0.750 F15000.000
G1 X3.163 Y1.941 F15000.000
G1 Z0.550 F15000.000
G1 E3.20000 F3000.00000
G1 X8.853 Y1.941 E0.16893 F2400.000
G1 X8.811 Y2.148 E0.00626
G1 X8.618 Y2.834 E0.02118
G1 X8.371 Y3.504 E0.02118
G1 X8.072 Y4.152 E0.02118
G1 X7.724 Y4.774 E0.02118
G1 X7.327 Y5.367 E0.02118
G1 X6.886 Y5.927 E0.02118
G1 X6.401 Y6.451 E0.02118
G1 X5.878 Y6.935 E0.02118
G1 X5.317 Y7.377 E0.02118
G1 X4.724 Y7.773 E0.02118
G1 X4.102 Y8.122 E0.02118
G1 X3.454 Y8.421 E0.02118
G1 X2.785 Y8.667 E0.02118
G1 X2.098 Y8.861 E0.02118
G1 X1.892 Y8.902 E0.00625
G1 X1.892 Y3.213 E0.16892
G1 X-0.937 Y3.213 E0.08398
G1 X-0.937 Y9.060 E0.17362
G1 X-1.439 Y9.001 E0.01502
G1 X-2.267 Y8.826 E0.02512
G1 X-2.830 Y8.667 E0.01738
G1 X-3.499 Y8.421 E0.02118
G1 X-4.147 Y8.122 E0.02118
G1 X-4.770 Y7.773 E0.02118
G1 X-5.363 Y7.377 E0.02118
G1 X-5.923 Y6.935 E0.02118
G1 X-6.352 Y6.538 E0.01736
G1 X-6.934 Y5.923 E0.02515
G1 X-7.373 Y5.367 E0.02102
G1 X-7.769 Y4.774 E0.02118
G1 X-8.118 Y4.152 E0.02118
G1 X-8.416 Y3.504 E0.02118
G1 X-8.663 Y2.834 E0.02118
G1 X-8.857 Y2.148 E0.02118
G1 X-8.996 Y1.448 E0.02118
G1 X-9.056 Y0.941 E0.01515
G1 X-3.209 Y0.941 E0.17362
G1 X-3.209 Y-1.887 E0.08398
G1 X-8.898 Y-1.887 E0.16893
G1 X-8.857 Y-2.094 E0.00627
G1 X-8.663 Y-2.780 E0.02118
G1 X-8.416 Y-3.450 E0.02118
G1 X-8.118 Y-4.098 E0.02118
G1 X-7.769 Y-4.720 E0.02118
G1 X-7.373 Y-5.313 E0.02118
G1 X-6.931 Y-5.873 E0.02118
G1 X-6.447 Y-6.397 E0.02118
G1 X-5.923 Y-6.881 E0.02118
G1 X-5.363 Y-7.323 E0.02118
G1 X-4.770 Y-7.719 E0.02118
G1 X-4.147 Y-8.068 E0.02118
G1 X-3.499 Y-8.367 E0.02118
G1 X-2.830 Y-8.614 E0.02118
G1 X-2.144 Y-8.807 E0.02118
G1 X-1.937 Y-8.848 E0.00625
G1 X-1.937 Y-3.159 E0.16893
G1 X0.891 Y-3.159 E0.08398
G1 X0.891 Y-8.998 E0.17337
G1 X1.405 Y-8.945 E0.01535
G1 X2.098 Y-8.807 E0.02098
G1 X2.785 Y-8.614 E0.02118
G1 X3.454 Y-8.367 E0.02118
G1 X4.102 Y-8.068 E0.02118
G1 X4.724 Y-7.719 E0.02118
G1 X5.317 Y-7.323 E0.02118
G1 X5.878 Y-6.881 E0.02118
G1 X6.401 Y-6.397 E0.02118
G1 X6.886 Y-5.873 E0.02118
G1 X7.327 Y-5.313 E0.02118
G1 X7.724 Y-4.720 E0.02118
G1 X8.072 Y-4.098 E0.02118
G1 X8.371 Y-3.450 E0.02118
G1 X8.618 Y-2.780 E0.02118
G1 X8.811 Y-2.094 E0.02118
G1 X8.951 Y-1.394 E0.02118
G1 X9.011 Y-0.887 E0.01515
G1 X3.163 Y-0.887 E0.17362
G1 X3.163 Y1.881 E0.08219
G1 X3.520 Y1.584 F15000.000
G1 X9.288 Y1.584 E0.17124 F2400.000
G1 X9.159 Y2.231 E0.01960
G1 X8.958 Y2.945 E0.02201
G1 X8.701 Y3.640 E0.02201
