; generated by Slic3r 1.2.9 on 2018-05-06 at 13:16:47

; external perimeters extrusion width = 0.40mm
; perimeters extrusion width = 0.40mm
; infill extrusion width = 0.40mm
; solid infill extrusion width = 0.40mm
; top infill extrusion width = 0.40mm
; support material extrusion width = 0.40mm

M107
M83
T0
M116


G21 ; set units to millimeters
G90 ; use absolute coordinates
M83 ; use relative distances for extrusion
G1 E-3.20000 F3000.00000
G1 Z0.400 F15000.000
G1 X20.258 Y0.000 F15000.000
G1 Z0.350 F15000.000
G1 E3.20000 F3000.00000
G1 X20.258 Y1.387 E0.12611 F960.000
G1 X19.927 Y3.904 E0.23082
G1 X19.209 Y6.583 E0.25220
G1 X18.237 Y8.928 E0.23082
G1 X16.851 Y11.330 E0.25221
G1 X15.305 Y13.344 E0.23082
G1 X13.344 Y15.305 E0.25221
G1 X11.330 Y16.851 E0.23082
G1 X8.928 Y18.237 E0.25221
G1 X6.583 Y19.209 E0.23082
G1 X3.904 Y19.927 E0.25221
G1 X1.387 Y20.258 E0.23082
G1 X-1.387 Y20.258 E0.25220
G1 X-3.904 Y19.927 E0.23082
G1 X-6.583 Y19.209 E0.25221
G1 X-8.928 Y18.237 E0.23082
G1 X-11.330 Y16.851 E0.25220
G1 X-13.344 Y15.305 E0.23082
G1 X-15.305 Y13.344 E0.25221
G1 X-16.851 Y11.330 E0.23082
G1 X-18.237 Y8.928 E0.25220
G1 X-19.209 Y6.583 E0.23083
G1 X-19.927 Y3.904 E0.25221
G1 X-20.258 Y1.387 E0.23082
G1 X-20.258 Y-1.387 E0.25220
G1 X-19.927 Y-3.904 E0.23082
G1 X-19.209 Y-6.583 E0.25221
G1 X-18.237 Y-8.928 E0.23082
G1 X-16.851 Y-11.330 E0.25221
G1 X-15.305 Y-13.344 E0.23082
G1 X-13.344 Y-15.305 E0.25221
G1 X-11.330 Y-16.851 E0.23082
G1 X-8.928 Y-18.237 E0.25221
G1 X-6.583 Y-19.209 E0.23082
G1 X-3.904 Y-19.927 E0.25220
G1 X-1.387 Y-20.258 E0.23082
G1 X1.387 Y-20.258 E0.25221
G1 X1.599 Y-20.230 E0.01942
G1 X3.904 Y-19.927 E0.21141 F960.000
G1 X6.583 Y-19.209 E0.25220
G1 X8.928 Y-18.237 E0.23082
G1 X11.330 Y-16.850 E0.25222
G1 X13.344 Y-15.305 E0.23082
G1 X15.305 Y-13.344 E0.25220
G1 X16.850 Y-11.330 E0.23082
G1 X18.237 Y-8.928 E0.25222
G1 X19.209 Y-6.583 E0.23082
G1 X19.927 Y-3.904 E0.25220
G1 X20.258 Y-1.387 E0.23082
G1 X20.258 Y-0.060 E0.12065
G1 E-3.20000 F3000.00000
G1 Z0.750 F15000.000
G1 X-1.581 Y4.831 F15000.000
G1 Z0.350 F15000.000
G1 E3.20000 F3000.00000
G1 X-1.581 Y5.007 E0.01599 F600.000
G1 X-1.352 Y5.032 E0.02091
G1 X-1.013 Y5.173 E0.03339
G1 X-0.724 Y5.394 E0.03307
G1 X-0.503 Y5.682 E0.03307
G1 X-0.364 Y6.018 E0.03307
G1 X-0.316 Y6.379 E0.03307
G1 X-0.364 Y6.740 E0.03307
G1 X-0.503 Y7.075 E0.03307
G1 X-0.724 Y7.364 E0.03307
G1 X-1.013 Y7.585 E0.03307
G1 X-1.349 Y7.725 E0.03307
G1 X-1.709 Y7.772 E0.03307
G1 X-2.070 Y7.725 E0.03307
G1 X-2.406 Y7.585 E0.03307
G1 X-2.694 Y7.364 E0.03307
G1 X-2.916 Y7.075 E0.03307
G1 X-3.055 Y6.740 E0.03307
G1 X-3.102 Y6.379 E0.03307
G1 X-3.055 Y6.018 E0.03307
G1 X-2.916 Y5.682 E0.03307
G1 X-2.694 Y5.394 E0.03307
G1 X-2.406 Y5.173 E0.03307
G1 X-1.636 Y4.854 E0.07576
G1 X-1.406 Y4.808 F15000.000
G1 X-5.676 Y-0.507 F15000.000
G1 X-6.018 Y-0.364 E0.03373 F600.000
G1 X-6.379 Y-0.316 E0.03307
G1 X-6.740 Y-0.364 E0.03307
G1 X-7.075 Y-0.503 E0.03307
G1 X-7.364 Y-0.724 E0.03307
G1 X-7.585 Y-1.013 E0.03307
G1 X-7.725 Y-1.349 E0.03307
G1 X-7.772 Y-1.709 E0.03307
G1 X-7.725 Y-2.070 E0.03307
G1 X-7.585 Y-2.406 E0.03307
G1 X-7.364 Y-2.694 E0.03307
G1 X-7.075 Y-2.916 E0.03307
G1 X-6.740 Y-3.055 E0.03307
G1 X-6.405 Y-3.099 E0.03066 F600.000
G1 X-6.022 Y-3.056 E0.03508
G1 X-5.682 Y-2.916 E0.03339
G1 X-5.394 Y-2.694 E0.03307
G1 X-5.173 Y-2.406 E0.03307
G1 X-5.033 Y-2.070 E0.03307
G1 X-4.986 Y-1.709 E0.03307
G1 X-5.033 Y-1.349 E0.03307
G1 X-5.173 Y-1.013 E0.03307
G1 X-5.394 Y-0.724 E0.03307
G1 X-5.629 Y-0.544 E0.02692
G1 X-5.691 Y-0.137 F15000.000
G1 X-2.231 Y-0.054 F15000.000
G1 X-2.161 Y-0.579 E0.04820 F600.000
G1 X-1.938 Y-1.119 E0.05311
G1 X-1.582 Y-1.582 E0.05312
G1 X-1.119 Y-1.938 E0.05311
G1 X-0.579 Y-2.161 E0.05311
G1 X-0.057 Y-2.230 E0.04786 F600.000
G1 X0.551 Y-2.173 E0.05555
G1 X1.119 Y-1.938 E0.05589
G1 X1.582 Y-1.582 E0.05312
G1 X1.938 Y-1.119 E0.05312
G1 X2.161 Y-0.579 E0.05311
G1 X2.238 Y-0.000 E0.05312
G1 X2.161 Y0.579 E0.05312
G1 X1.938 Y1.119 E0.05311
G1 X1.582 Y1.582 E0.05311
G1 X1.119 Y1.938 E0.05312
G1 X0.579 Y2.161 E0.05311
G1 X0.000 Y2.238 E0.05312
G1 X-0.579 Y2.161 E0.05312
G1 X-1.119 Y1.938 E0.05311
G1 X-1.606 Y1.564 E0.05590
G1 X-1.960 Y1.065 E0.05555
G1 X-2.161 Y0.579 E0.04785
G1 X-2.237 Y0.006 E0.05257
G1 X-1.607 Y-0.000 F15000.000
G1 X-1.553 Y-0.416 E0.03815 F600.000
G1 X-1.392 Y-0.804 E0.03815
G1 X-1.137 Y-1.137 E0.03816
G1 X-0.804 Y-1.392 E0.03815
G1 X-0.416 Y-1.553 E0.03815
G1 X-0.046 Y-1.601 E0.03398 F600.000
G1 X0.399 Y-1.560 E0.04058
G1 X0.804 Y-1.392 E0.03984
G1 X1.137 Y-1.137 E0.03815
G1 X1.392 Y-0.804 E0.03815
G1 X1.553 Y-0.416 E0.03815
G1 X1.607 Y-0.000 E0.03815
G1 X1.553 Y0.416 E0.03815
G1 X1.392 Y0.804 E0.03815
G1 X1.137 Y1.137 E0.03815
G1 X0.804 Y1.392 E0.03816
G1 X0.416 Y1.553 E0.03815
G1 X0.000 Y1.607 E0.03815
G1 X-0.416 Y1.553 E0.03815
G1 X-0.804 Y1.392 E0.03815
G1 X-1.151 Y1.125 E0.03985
G1 X-1.410 Y0.761 E0.04058
G1 X-1.553 Y0.416 E0.03397
G1 X-1.599 Y0.059 E0.03270
G1 X-0.977 Y-0.000 F15000.000
G1 X-0.944 Y-0.253 E0.02319 F600.000
G1 X-0.846 Y-0.488 E0.02319
G1 X-0.691 Y-0.691 E0.02319
G1 X-0.488 Y-0.846 E0.02319
G1 X-0.253 Y-0.944 E0.02319
G1 X-0.034 Y-0.973 E0.02009 F600.000
G1 X0.247 Y-0.946 E0.02561
G1 X0.488 Y-0.846 E0.02380
G1 X0.691 Y-0.691 E0.02319
G1 X0.846 Y-0.488 E0.02319
G1 X0.944 Y-0.253 E0.02319
G1 X0.977 Y-0.000 E0.02319
G1 X0.944 Y0.253 E0.02319
G1 X0.846 Y0.488 E0.02319
G1 X0.691 Y0.691 E0.02319
G1 X0.488 Y0.846 E0.02319
G1 X0.253 Y0.944 E0.02319
G1 X0.000 Y0.977 E0.02319
G1 X-0.253 Y0.944 E0.02319
G1 X-0.489 Y0.846 E0.02319
G1 X-0.696 Y0.687 E0.02380
G1 X-0.859 Y0.457 E0.02562
G1 X-0.944 Y0.253 E0.02009
G1 X-0.969 Y0.059 E0.01774
G1 X-1.192 Y-0.137 F15000.000
G1 X-0.331 Y2.960 F15000.000
G1 X-3.036 Y4.081 E0.26626 F960.000
G1 X-3.586 Y4.503 E0.06299
G1 X-4.007 Y5.052 E0.06299
G1 X-4.272 Y5.692 E0.06299
G1 X-4.363 Y6.379 E0.06299
G1 X-4.303 Y6.834 E0.04171
G1 X-5.735 Y5.735 E0.16413
G1 X-7.024 Y4.055 E0.19252
G1 X-7.834 Y2.099 E0.19252
G1 X-8.070 Y0.310 E0.16413
G1 X-7.706 Y0.589 E0.04171
G1 X-7.066 Y0.854 E0.06298
G1 X-6.379 Y0.944 E0.06299
G1 X-5.692 Y0.854 E0.06299
G1 X-5.052 Y0.589 E0.06298
G1 X-4.503 Y0.167 E0.06299
G1 X-4.081 Y-0.382 E0.06299
G1 X-3.816 Y-1.022 E0.06299
G1 X-3.725 Y-1.709 E0.06299
G1 X-3.816 Y-2.396 E0.06299
G1 X-4.081 Y-3.036 E0.06298
G1 X-4.503 Y-3.586 E0.06299
G1 X-5.052 Y-4.007 E0.06299
G1 X-5.707 Y-4.279 E0.06448
G1 X-6.762 Y-4.396 E0.09652
G1 X-5.735 Y-5.735 E0.15346
G1 X-4.055 Y-7.024 E0.19252
G1 X-2.099 Y-7.834 E0.19252
G1 X-0.310 Y-8.070 E0.16412
G1 X-0.589 Y-7.706 E0.04171
G1 X-0.839 Y-7.102 E0.05942
G1 X-0.946 Y-6.395 E0.06501
G1 X-0.854 Y-5.692 E0.06448
G1 X-0.589 Y-5.052 E0.06298
G1 X-0.167 Y-4.503 E0.06299
G1 X0.382 Y-4.081 E0.06299
G1 X1.022 Y-3.816 E0.06299
G1 X1.709 Y-3.725 E0.06299
G1 X2.396 Y-3.816 E0.06299
G1 X3.036 Y-4.081 E0.06299
G1 X3.586 Y-4.503 E0.06299
G1 X4.007 Y-5.052 E0.06299
G1 X4.272 Y-5.692 E0.06299
G1 X4.363 Y-6.379 E0.06299
G1 X4.303 Y-6.834 E0.04171
G1 X5.735 Y-5.735 E0.16412
G1 X7.024 Y-4.055 E0.19252
G1 X7.834 Y-2.099 E0.19252
G1 X8.070 Y-0.310 E0.16412
G1 X7.706 Y-0.589 E0.04171
G1 X7.051 Y-0.860 E0.06448
G1 X6.340 Y-0.939 E0.06500
G1 X5.692 Y-0.854 E0.05942
G1 X5.052 Y-0.589 E0.06299
G1 X4.503 Y-0.167 E0.06299
G1 X4.081 Y0.382 E0.06299
G1 X2.960 Y3.088 E0.26626
G1 X4.121 Y3.088 E0.10550
G1 X4.503 Y3.586 E0.05707
G1 X5.052 Y4.007 E0.06299
G1 X5.692 Y4.272 E0.06299
G1 X6.379 Y4.363 E0.06299
G1 X6.834 Y4.303 E0.04171
G1 X5.735 Y5.735 E0.16413
G1 X4.055 Y7.024 E0.19252
G1 X2.099 Y7.834 E0.19252
G1 X0.310 Y8.070 E0.16412
G1 X0.589 Y7.706 E0.04171
G1 X0.854 Y7.066 E0.06299
G1 X0.944 Y6.379 E0.06299
G1 X0.854 Y5.692 E0.06299
G1 X0.589 Y5.052 E0.06299
G1 X0.167 Y4.503 E0.06299
G1 X-0.331 Y4.121 E0.05706
G1 X-0.331 Y3.020 E0.10004
G1 X-0.956 Y3.896 F15000.000
G1 X-2.721 Y4.627 E0.17374 F960.000
G1 X-3.140 Y4.948 E0.04803
G1 X-3.461 Y5.367 E0.04803
G1 X-3.664 Y5.855 E0.04803
G1 X-3.733 Y6.379 E0.04803
G1 X-3.664 Y6.903 E0.04803
G1 X-3.461 Y7.391 E0.04803
G1 X-3.175 Y7.764 E0.04280
G1 X-3.350 Y7.992 E0.02616
G1 X-4.370 Y7.570 E0.10042
G1 X-6.181 Y6.181 E0.20748
G1 X-7.570 Y4.370 E0.20748
G1 X-8.443 Y2.262 E0.20748
G1 X-8.741 Y-0.000 E0.20748
G1 X-8.597 Y-1.095 E0.10041
G1 X-8.311 Y-1.132 E0.02616
G1 X-8.131 Y-0.698 E0.04280
G1 X-7.810 Y-0.279 E0.04803
G1 X-7.391 Y0.043 E0.04803
G1 X-6.903 Y0.245 E0.04802
G1 X-6.379 Y0.314 E0.04803
G1 X-5.855 Y0.245 E0.04803
G1 X-5.367 Y0.043 E0.04802
G1 X-4.948 Y-0.279 E0.04803
G1 X-4.627 Y-0.698 E0.04803
G1 X-4.425 Y-1.186 E0.04803
G1 X-4.356 Y-1.709 E0.04803
G1 X-4.425 Y-2.233 E0.04803
G1 X-4.627 Y-2.721 E0.04802
G1 X-4.948 Y-3.140 E0.04803
G1 X-5.367 Y-3.461 E0.04803
G1 X-5.865 Y-3.667 E0.04894
G1 X-6.412 Y-3.728 E0.05004
G1 X-6.903 Y-3.664 E0.04504
G1 X-7.391 Y-3.461 E0.04803
G1 X-7.764 Y-3.175 E0.04280
G1 X-7.992 Y-3.350 E0.02616
G1 X-7.570 Y-4.370 E0.10042
G1 X-6.181 Y-6.181 E0.20748
G1 X-4.370 Y-7.570 E0.20748
G1 X-2.262 Y-8.443 E0.20748
G1 X0.000 Y-8.741 E0.20748
G1 X1.095 Y-8.597 E0.10042
G1 X1.132 Y-8.311 E0.02616
G1 X0.698 Y-8.131 E0.04280
G1 X0.279 Y-7.810 E0.04803
G1 X-0.043 Y-7.391 E0.04803
G1 X-0.233 Y-6.933 E0.04504
G1 X-0.315 Y-6.389 E0.05004
G1 X-0.245 Y-5.855 E0.04894
G1 X-0.043 Y-5.367 E0.04802
G1 X0.279 Y-4.948 E0.04803
G1 X0.698 Y-4.627 E0.04803
G1 X1.186 Y-4.425 E0.04803
G1 X1.709 Y-4.356 E0.04803
G1 X2.233 Y-4.425 E0.04803
G1 X2.721 Y-4.627 E0.04803
G1 X3.140 Y-4.948 E0.04803
G1 X3.461 Y-5.367 E0.04803
G1 X3.664 Y-5.855 E0.04803
G1 X3.733 Y-6.379 E0.04803
G1 X3.664 Y-6.903 E0.04803
G1 X3.461 Y-7.391 E0.04803
G1 X3.175 Y-7.764 E0.04280
G1 X3.350 Y-7.992 E0.02616
G1 X4.370 Y-7.570 E0.10042
G1 X6.181 Y-6.181 E0.20748
G1 X7.570 Y-4.370 E0.20748
G1 X8.443 Y-2.262 E0.20748
G1 X8.741 Y-0.000 E0.20748
G1 X8.597 Y1.095 E0.10042
G1 X8.311 Y1.132 E0.02616
G1 X8.144 Y0.728 E0.03981
G1 X7.818 Y0.285 E0.05004
G1 X7.391 Y-0.043 E0.04894
G1 X6.893 Y-0.249 E0.04894
G1 X6.346 Y-0.310 E0.05004
G1 X5.855 Y-0.245 E0.04504
G1 X5.367 Y-0.043 E0.04803
G1 X4.948 Y0.279 E0.04803
G1 X4.627 Y0.698 E0.04803
G1 X3.896 Y2.463 E0.17374
G1 X4.520 Y2.463 E0.05677
G1 X4.627 Y2.721 E0.02540
G1 X4.948 Y3.140 E0.04803
G1 X5.367 Y3.461 E0.04803
G1 X5.855 Y3.664 E0.04803
G1 X6.379 Y3.733 E0.04803
G1 X6.903 Y3.664 E0.04803
G1 X7.391 Y3.461 E0.04803
G1 X7.764 Y3.175 E0.04280
G1 X7.992 Y3.350 E0.02616
G1 X7.570 Y4.370 E0.10041
G1 X6.181 Y6.181 E0.20748
G1 X4.370 Y7.570 E0.20748
G1 X2.262 Y8.443 E0.20748
G1 X-0.000 Y8.741 E0.20748
G1 X-1.095 Y8.597 E0.10042
G1 X-1.132 Y8.311 E0.02616
G1 X-0.698 Y8.131 E0.04280
G1 X-0.279 Y7.810 E0.04803
G1 X0.043 Y7.391 E0.04803
G1 X0.245 Y6.903 E0.04803
G1 X0.314 Y6.379 E0.04803
G1 X0.245 Y5.855 E0.04803
G1 X0.043 Y5.367 E0.04803
G1 X-0.279 Y4.948 E0.04803
G1 X-0.698 Y4.627 E0.04803
G1 X-0.956 Y4.520 E0.02540
G1 X-0.956 Y3.956 E0.05131
G1 E-3.20000 F3000.00000
G1 Z0.750 F15000.000
G1 X1.349 Y-5.033 F15000.000
G1 Z0.350 F15000.000
G1 E3.20000 F3000.00000
G1 X1.013 Y-5.173 E0.03307 F600.000
G1 X0.724 Y-5.394 E0.03307
G1 X0.503 Y-5.682 E0.03307
G1 X0.364 Y-6.018 E0.03307
G1 X0.316 Y-6.383 E0.03339
G1 X0.374 Y-6.764 E0.03508
G1 X0.503 Y-7.075 E0.03066
G1 X0.724 Y-7.364 E0.03307
G1 X1.013 Y-7.585 E0.03307
G1 X1.349 Y-7.725 E0.03307
G1 X1.683 Y-7.769 E0.03067 F600.000
G1 X2.066 Y-7.726 E0.03508
G1 X2.406 Y-7.585 E0.03339
G1 X2.694 Y-7.364 E0.03307
G1 X2.916 Y-7.075 E0.03307
G1 X3.055 Y-6.740 E0.03307
G1 X3.102 Y-6.379 E0.03307
G1 X3.055 Y-6.018 E0.03307
G1 X2.916 Y-5.682 E0.03307
G1 X2.694 Y-5.394 E0.03307
G1 X2.406 Y-5.173 E0.03307
G1 X2.070 Y-5.033 E0.03307
G1 X1.709 Y-4.986 E0.03307
G1 X1.408 Y-5.026 E0.02761
G1 X1.081 Y-4.788 F15000.000
G1 X4.831 Y1.838 F15000.000
G1 X5.173 Y1.013 E0.08122 F600.000
G1 X5.394 Y0.724 E0.03307
G1 X5.682 Y0.503 E0.03307
G1 X6.018 Y0.364 E0.03307
G1 X6.353 Y0.320 E0.03066
G1 X6.736 Y0.362 E0.03508
G1 X7.075 Y0.503 E0.03339
G1 X7.367 Y0.726 E0.03339
G1 X7.595 Y1.037 E0.03508
G1 X7.725 Y1.349 E0.03066
G1 X7.772 Y1.709 E0.03307
G1 X7.725 Y2.070 E0.03307
G1 X7.585 Y2.406 E0.03307
G1 X7.364 Y2.694 E0.03307
G1 X7.075 Y2.916 E0.03307
G1 X6.740 Y3.055 E0.03307
G1 X6.379 Y3.102 E0.03307
G1 X6.018 Y3.055 E0.03307
G1 X5.682 Y2.916 E0.03307
G1 X5.394 Y2.694 E0.03307
G1 X5.173 Y2.406 E0.03307
G1 X5.033 Y2.070 E0.03307
G1 X5.003 Y1.838 E0.02126
G1 X4.891 Y1.838 E0.01020
G1 X4.444 Y1.734 F15000.000
G1 E-3.20000 F3000.00000
G1 Z0.750 F15000.000
G1 X8.641 Y3.416 F15000.000
G1 Z0.350 F15000.000
G1 E3.20000 F3000.00000
G1 X8.116 Y4.685 E0.12492 F960.000
G1 X6.626 Y6.626 E0.22244
G1 X4.685 Y8.116 E0.22244
G1 X2.425 Y9.052 E0.22244
G1 X-0.000 Y9.371 E0.22244
G1 X-2.425 Y9.052 E0.22244
G1 X-4.685 Y8.116 E0.22244
G1 X-6.626 Y6.626 E0.22244
G1 X-8.116 Y4.685 E0.22244
G1 X-9.052 Y2.425 E0.22244
G1 X-9.371 Y-0.000 E0.22244
G1 X-9.052 Y-2.425 E0.22244
G1 X-8.116 Y-4.685 E0.22244
G1 X-6.626 Y-6.626 E0.22244
G1 X-4.685 Y-8.116 E0.22244
G1 X-2.425 Y-9.052 E0.22244
G1 X0.000 Y-9.371 E0.22244
G1 X0.166 Y-9.349 E0.01523
G1 X2.425 Y-9.052 E0.20721 F960.000
G1 X4.685 Y-8.116 E0.22244
G1 X6.626 Y-6.626 E0.22244
G1 X8.116 Y-4.685 E0.22244
G1 X9.052 Y-2.425 E0.22244
G1 X9.371 Y-0.000 E0.22244
G1 X9.052 Y2.425 E0.22244
G1 X8.664 Y3.361 E0.09207
G1 X8.245 Y3.469 F15000.000
G1 X8.070 Y3.016 F15000.000
G1 X8.387 Y2.247 E0.16027 F960.000
G1 X8.497 Y1.423 E0.16026
G1 X5.546 Y4.654 F15000.000
G1 X5.891 Y4.998 E0.04471 F960.000
G1 X4.493 Y6.278 F15000.000
G1 X0.694 Y2.479 E0.49343 F960.000
G1 X0.048 Y2.726 E0.06353
G1 X3.988 Y6.666 E0.51177
G1 X3.371 Y6.942 E0.06206
G1 X0.048 Y3.619 E0.43164
G1 X-0.787 Y2.784 F15000.000
G1 X-1.185 Y2.386 E0.05164 F960.000
G1 X-1.418 Y3.045 E0.06422
G1 X-4.181 Y0.282 E0.35887
G1 X-4.659 Y0.697 E0.05812
G1 X-2.050 Y3.307 E0.33896
G1 X-2.681 Y3.568 E0.06276
G1 X-5.223 Y1.025 E0.33027
G1 X-5.895 Y1.246 E0.06497
G1 X-3.282 Y3.860 E0.33947
G1 X-3.787 Y4.247 E0.05848
G1 X-6.736 Y1.298 E0.38313
G1 X-7.525 Y1.401 E0.07309
G1 X-4.182 Y4.745 E0.43435
G1 X-4.489 Y5.331 E0.06074
G1 X-7.103 Y2.717 E0.33954
G1 X-5.597 Y5.115 F15000.000
G1 X-5.115 Y5.597 E0.06257 F960.000
G1 X-2.386 Y1.185 F15000.000
G1 X-3.793 Y-0.223 E0.18281 F960.000
G1 X-3.523 Y-0.845 E0.06234
G1 X-2.612 Y0.066 E0.11841
G1 X-2.479 Y-0.694 E0.07089
G1 X-3.376 Y-1.590 E0.11639
G1 X-3.435 Y-2.542 E0.08759
G1 X-2.202 Y-1.309 E0.16014
G1 X-1.814 Y-1.814 E0.05848
G1 X-5.489 Y-5.489 E0.47731
G1 X-4.998 Y-5.891 E0.05827
G1 X-1.309 Y-2.202 E0.47916
G1 X-0.694 Y-2.479 E0.06198
G1 X-4.493 Y-6.278 E0.49343
G1 X-3.988 Y-6.666 E0.05848
G1 X0.066 Y-2.612 E0.52661
G1 X1.185 Y-2.386 E0.10478
G1 X-3.371 Y-6.942 E0.59174
G1 X-2.740 Y-7.203 E0.06276
G1 X-1.258 Y-5.722 E0.19242
G1 X-1.275 Y-6.631 E0.08354
G1 X-2.108 Y-7.464 E0.10826
G1 X-5.550 Y-4.658 F15000.000
G1 X-5.891 Y-4.998 E0.04418 F960.000
G1 X5.597 Y-5.115 F15000.000
G1 X5.115 Y-5.597 E0.06259 F960.000
G1 X4.489 Y-5.331 E0.06253
G1 X7.103 Y-2.717 E0.33955
G1 X7.525 Y-1.401 E0.12693
G1 X4.182 Y-4.745 E0.43435
G1 X3.787 Y-4.247 E0.05837
G1 X6.743 Y-1.291 E0.38402
G1 X5.895 Y-1.246 E0.07800
G1 X3.282 Y-3.860 E0.33947
G1 X2.681 Y-3.568 E0.06136
G1 X5.223 Y-1.025 E0.33026
G1 X4.659 Y-0.697 E0.05997
G1 X1.963 Y-3.393 E0.35022
G1 X1.052 Y-3.411 E0.08369
G1 X4.181 Y-0.282 E0.40646
G1 X3.793 Y0.223 E0.05848
G1 X2.386 Y-1.185 E0.18281
G1 X2.612 Y-0.066 E0.10479
G1 X3.523 Y0.845 E0.11841
G1 X3.262 Y1.477 E0.06276
G1 X2.479 Y0.694 E0.10164
G1 X2.202 Y1.309 E0.06198
G1 X3.000 Y2.108 E0.10375
G1 X2.739 Y2.739 E0.06276
G1 X1.814 Y1.814 E0.12013
G1 X1.309 Y2.202 E0.05848
G1 X4.998 Y5.891 E0.47916
G1 X5.489 Y5.489 E0.05827
G1 X3.466 Y3.466 E0.26270
G1 X1.258 Y5.722 F15000.000
G1 X2.740 Y7.203 E0.19242 F960.000
G1 X2.108 Y7.464 E0.06276
G1 X1.276 Y6.633 E0.10806
G1 X-1.423 Y8.497 F15000.000
G1 X-2.247 Y8.387 E0.16027 F960.000
G1 X-3.016 Y8.070 E0.16027
G1 X-8.497 Y-1.423 F15000.000
G1 X-8.387 Y-2.247 E0.16027 F960.000
G1 X-8.070 Y-3.016 E0.16026
G1 X1.424 Y-8.490 F15000.000
G1 X2.247 Y-8.387 E0.15992 F960.000
G1 X3.016 Y-8.070 E0.16027
G1 E-3.20000 F3000.00000
G1 Z0.750 F15000.000
G1 X0.186 Y5.871 F15000.000
G1 Z0.550 F15000.000
G1 E3.20000 F3000.00000
G1 X0.253 Y6.379 E0.01521 F2400.000
G1 X0.186 Y6.887 E0.01521
