; generated by Slic3r 1.2.9 on 2018-05-06 at 13:50:11

; external perimeters extrusion width = 0.40mm
; perimeters extrusion width = 0.40mm
; infill extrusion width = 0.40mm
; solid infill extrusion width = 0.40mm
; top infill extrusion width = 0.40mm
; support material extrusion width = 0.40mm

M107
M83
T0
M116


G21 ; set units to millimeters
G90 ; use absolute coordinates
M83 ; use relative distances for extrusion
G1 E-3.20000 F3000.00000
G1 Z0.400 F15000.000
G1 X29.125 Y0.000 F15000.000
G1 Z0.350 F15000.000
G1 E3.20000 F3000.00000
G1 X29.125 Y17.000 E1.54580 F960.000
G1 X29.092 Y17.834 E0.07586
G1 X29.043 Y18.459 E0.05707
G1 X28.782 Y20.106 E0.15159
G1 X28.636 Y20.716 E0.05707
G1 X28.120 Y22.302 E0.15161
G1 X27.880 Y22.882 E0.05707
G1 X27.123 Y24.368 E0.15161
G1 X26.795 Y24.903 E0.05707
G1 X25.815 Y26.251 E0.15159
G1 X25.408 Y26.729 E0.05707
G1 X24.229 Y27.908 E0.15161
G1 X23.751 Y28.315 E0.05707
G1 X22.403 Y29.295 E0.15159
G1 X21.868 Y29.623 E0.05707
G1 X20.382 Y30.380 E0.15161
G1 X19.802 Y30.620 E0.05707
G1 X18.216 Y31.136 E0.15160
G1 X17.606 Y31.282 E0.05707
G1 X15.959 Y31.543 E0.15160
G1 X15.334 Y31.592 E0.05707
G1 X14.500 Y31.625 E0.07586
G1 X-14.500 Y31.625 E2.63696
G1 X-15.334 Y31.592 E0.07586
G1 X-15.959 Y31.543 E0.05707
G1 X-17.606 Y31.282 E0.15160
G1 X-18.216 Y31.136 E0.05707
G1 X-19.802 Y30.620 E0.15160
G1 X-20.382 Y30.380 E0.05707
G1 X-21.868 Y29.623 E0.15162
G1 X-22.403 Y29.295 E0.05707
G1 X-23.751 Y28.315 E0.15158
G1 X-24.229 Y27.908 E0.05707
G1 X-25.408 Y26.729 E0.15161
G1 X-25.815 Y26.251 E0.05707
G1 X-26.795 Y24.903 E0.15159
G1 X-27.123 Y24.368 E0.05707
G1 X-27.880 Y22.882 E0.15161
G1 X-28.120 Y22.302 E0.05707
G1 X-28.636 Y20.716 E0.15160
G1 X-28.782 Y20.106 E0.05707
G1 X-29.043 Y18.459 E0.15160
G1 X-29.092 Y17.834 E0.05707
G1 X-29.125 Y17.000 E0.07586
G1 X-29.125 Y-17.000 E3.09161
G1 X-29.092 Y-17.834 E0.07586
G1 X-29.043 Y-18.459 E0.05707
G1 X-28.782 Y-20.106 E0.15160
G1 X-28.644 Y-20.681 E0.05375
G1 X-28.164 Y-22.182 E0.14329
G1 X-27.915 Y-22.797 E0.06036
G1 X-27.123 Y-24.367 E0.15991
G1 X-26.795 Y-24.903 E0.05707
G1 X-25.815 Y-26.251 E0.15159
G1 X-25.569 Y-26.540 E0.03445
G1 X-25.408 Y-26.729 E0.02263
G1 X-24.229 Y-27.908 E0.15158
G1 X-23.752 Y-28.315 E0.05707
G1 X-22.403 Y-29.295 E0.15161
G1 X-21.867 Y-29.623 E0.05707
G1 X-20.382 Y-30.380 E0.15161
G1 X-19.802 Y-30.620 E0.05707
G1 X-18.216 Y-31.136 E0.15160
G1 X-17.606 Y-31.282 E0.05707
G1 X-15.959 Y-31.543 E0.15160
G1 X-15.334 Y-31.592 E0.05707
G1 X-14.500 Y-31.625 E0.07586
G1 X-0.846 Y-31.625 E1.24157
G1 X14.500 Y-31.625 E1.39539 F960.000
G1 X15.334 Y-31.592 E0.07586
G1 X15.959 Y-31.543 E0.05707
G1 X17.606 Y-31.282 E0.15159
G1 X18.216 Y-31.136 E0.05707
G1 X19.802 Y-30.620 E0.15161
G1 X20.382 Y-30.380 E0.05707
G1 X21.867 Y-29.623 E0.15160
G1 X22.403 Y-29.295 E0.05707
G1 X23.752 Y-28.315 E0.15161
G1 X24.229 Y-27.908 E0.05707
G1 X25.408 Y-26.729 E0.15159
G1 X25.815 Y-26.251 E0.05707
G1 X26.795 Y-24.903 E0.15160
G1 X27.123 Y-24.368 E0.05707
G1 X27.880 Y-22.882 E0.15161
G1 X28.120 Y-22.302 E0.05707
G1 X28.636 Y-20.716 E0.15161
G1 X28.782 Y-20.106 E0.05707
G1 X29.043 Y-18.459 E0.15159
G1 X29.092 Y-17.834 E0.05707
G1 X29.125 Y-17.000 E0.07586
G1 X29.125 Y-0.060 E1.54035
G1 E-3.20000 F3000.00000
G1 Z0.750 F15000.000
G1 X14.301 Y14.657 F15000.000
G1 Z0.350 F15000.000
G1 E3.20000 F3000.00000
G1 X14.699 Y14.657 E0.03626 F600.000
G1 X15.092 Y14.725 E0.03626
G1 X15.448 Y14.850 E0.03431
G1 X15.815 Y15.051 E0.03804
G1 X16.127 Y15.302 E0.03641
G1 X16.390 Y15.602 E0.03626
G1 X16.599 Y15.941 E0.03626
G1 X16.748 Y16.311 E0.03626
G1 X16.832 Y16.701 E0.03626
G1 X16.849 Y17.100 E0.03626
G1 X16.798 Y17.495 E0.03626
G1 X16.682 Y17.877 E0.03626
G1 X16.502 Y18.233 E0.03626
G1 X16.265 Y18.553 E0.03626
G1 X15.977 Y18.829 E0.03626
G1 X15.647 Y19.053 E0.03626
G1 X15.283 Y19.217 E0.03626
G1 X14.897 Y19.317 E0.03626
G1 X14.500 Y19.351 E0.03626
G1 X14.103 Y19.317 E0.03626
G1 X13.717 Y19.217 E0.03626
G1 X13.373 Y19.062 E0.03431
G1 X13.024 Y18.831 E0.03804
G1 X12.735 Y18.553 E0.03641
G1 X12.498 Y18.233 E0.03626
G1 X12.318 Y17.877 E0.03626
G1 X12.202 Y17.495 E0.03626
G1 X12.151 Y17.100 E0.03626
G1 X12.168 Y16.701 E0.03626
G1 X12.252 Y16.311 E0.03626
G1 X12.400 Y15.941 E0.03626
G1 X12.610 Y15.602 E0.03626
G1 X12.859 Y15.319 E0.03431
G1 X13.182 Y15.053 E0.03804
G1 X13.532 Y14.857 E0.03641
G1 X13.908 Y14.725 E0.03626
G1 X14.241 Y14.667 E0.03081
G1 X14.480 Y14.301 F15000.000
G1 X14.500 Y10.351 F15000.000
G1 X14.103 Y10.317 E0.03626 F600.000
G1 X13.717 Y10.217 E0.03626
G1 X13.353 Y10.053 E0.03626
G1 X13.023 Y9.829 E0.03626
G1 X12.735 Y9.553 E0.03626
G1 X12.498 Y9.233 E0.03626
G1 X12.318 Y8.877 E0.03626
G1 X12.202 Y8.495 E0.03626
G1 X12.151 Y8.100 E0.03626
G1 X12.168 Y7.701 E0.03626
G1 X12.252 Y7.311 E0.03626
G1 X12.392 Y6.961 E0.03431
G1 X12.609 Y6.603 E0.03804
G1 X12.873 Y6.302 E0.03641
G1 X13.183 Y6.052 E0.03626
G1 X13.532 Y5.857 E0.03626
G1 X13.908 Y5.725 E0.03626
G1 X14.301 Y5.657 E0.03626
G1 X14.699 Y5.657 E0.03626 F600.000
G1 X15.092 Y5.725 E0.03626
G1 X15.468 Y5.857 E0.03626
G1 X15.817 Y6.052 E0.03626
G1 X16.127 Y6.302 E0.03626
G1 X16.390 Y6.602 E0.03626
G1 X16.599 Y6.941 E0.03626
G1 X16.740 Y7.292 E0.03431
G1 X16.832 Y7.700 E0.03804
G1 X16.849 Y8.100 E0.03641
G1 X16.798 Y8.495 E0.03626
G1 X16.682 Y8.877 E0.03626
G1 X16.502 Y9.233 E0.03626
G1 X16.265 Y9.553 E0.03626
G1 X15.977 Y9.829 E0.03626
G1 X15.647 Y10.053 E0.03626
G1 X15.303 Y10.208 E0.03431
G1 X14.899 Y10.317 E0.03804
G1 X14.560 Y10.346 E0.03096
G1 X14.291 Y10.691 F15000.000
G1 E-3.20000 F3000.00000
G1 Z0.750 F15000.000
G1 X14.500 Y-5.649 F15000.000
G1 Z0.350 F15000.000
G1 E3.20000 F3000.00000
G1 X14.103 Y-5.683 E0.03626 F600.000
G1 X13.717 Y-5.783 E0.03626
G1 X13.353 Y-5.947 E0.03626
G1 X13.023 Y-6.171 E0.03626
G1 X12.735 Y-6.447 E0.03626
G1 X12.498 Y-6.767 E0.03626
G1 X12.328 Y-7.104 E0.03431
G1 X12.202 Y-7.503 E0.03804
G1 X12.151 Y-7.900 E0.03641
G1 X12.168 Y-8.299 E0.03626
G1 X12.252 Y-8.688 E0.03626
G1 X12.406 Y-9.073 E0.03765
G1 X12.610 Y-9.399 E0.03501
G1 X12.859 Y-9.681 E0.03420
G1 X13.182 Y-9.947 E0.03804
G1 X13.532 Y-10.143 E0.03641
G1 X13.908 Y-10.275 E0.03626
G1 X14.301 Y-10.343 E0.03626
G1 X14.699 Y-10.343 E0.03626 F600.000
G1 X15.092 Y-10.275 E0.03626
G1 X15.448 Y-10.150 E0.03431
G1 X15.815 Y-9.949 E0.03804
G1 X16.127 Y-9.698 E0.03641
G1 X16.390 Y-9.398 E0.03626
G1 X16.600 Y-9.059 E0.03626
G1 X16.748 Y-8.688 E0.03626
G1 X16.832 Y-8.299 E0.03626
G1 X16.849 Y-7.900 E0.03626
G1 X16.798 Y-7.505 E0.03626
G1 X16.682 Y-7.123 E0.03626
G1 X16.502 Y-6.767 E0.03626
G1 X16.278 Y-6.464 E0.03431
G1 X15.978 Y-6.172 E0.03804
G1 X15.647 Y-5.947 E0.03641
G1 X15.225 Y-5.757 E0.04205
G1 X14.891 Y-5.682 E0.03112
G1 X14.560 Y-5.654 E0.03026
G1 X14.291 Y-5.309 F15000.000
G1 E-3.20000 F3000.00000
G1 Z0.750 F15000.000
G1 X14.500 Y-14.649 F15000.000
G1 Z0.350 F15000.000
G1 E3.20000 F3000.00000
G1 X14.103 Y-14.683 E0.03626 F600.000
G1 X13.717 Y-14.783 E0.03626
G1 X13.353 Y-14.947 E0.03626
G1 X13.023 Y-15.171 E0.03626
G1 X12.735 Y-15.447 E0.03626
G1 X12.498 Y-15.767 E0.03626
G1 X12.318 Y-16.123 E0.03626
G1 X12.202 Y-16.505 E0.03626
G1 X12.154 Y-16.879 E0.03432
G1 X12.167 Y-17.297 E0.03804
G1 X12.252 Y-17.688 E0.03641
G1 X12.400 Y-18.059 E0.03626
G1 X12.610 Y-18.398 E0.03626
G1 X12.873 Y-18.698 E0.03626
G1 X13.183 Y-18.948 E0.03626
G1 X13.532 Y-19.143 E0.03626
G1 X13.908 Y-19.275 E0.03626
G1 X14.301 Y-19.343 E0.03626
G1 X14.699 Y-19.343 E0.03626 F600.000
G1 X15.092 Y-19.275 E0.03626
G1 X15.468 Y-19.143 E0.03626
G1 X15.817 Y-18.948 E0.03626
G1 X16.127 Y-18.698 E0.03626
G1 X16.390 Y-18.398 E0.03626
G1 X16.600 Y-18.059 E0.03626
G1 X16.748 Y-17.688 E0.03626
G1 X16.832 Y-17.299 E0.03626
G1 X16.849 Y-16.900 E0.03626
G1 X16.798 Y-16.505 E0.03626
G1 X16.688 Y-16.144 E0.03431
G1 X16.503 Y-15.769 E0.03804
G1 X16.265 Y-15.447 E0.03641
G1 X15.977 Y-15.171 E0.03626
G1 X15.647 Y-14.947 E0.03626
G1 X15.283 Y-14.783 E0.03626
G1 X14.897 Y-14.683 E0.03626
G1 X14.560 Y-14.654 E0.03081
G1 X14.291 Y-14.309 F15000.000
G1 X16.900 Y-14.286 F15000.000
G1 X16.900 Y-10.679 E0.32795 F960.000
G1 X16.513 Y-10.992 E0.04523
G1 X15.959 Y-11.295 E0.05738
G1 X15.409 Y-11.489 E0.05313
G1 X14.806 Y-11.593 E0.05561
G1 X14.194 Y-11.593 E0.05561
G1 X13.591 Y-11.489 E0.05561
G1 X13.015 Y-11.285 E0.05561
G1 X12.474 Y-10.984 E0.05629
G1 X11.987 Y-10.583 E0.05738
G1 X11.605 Y-10.148 E0.05260
G1 X11.288 Y-9.642 E0.05436
G1 X11.052 Y-9.056 E0.05741
G1 X10.924 Y-8.458 E0.05561
G1 X10.898 Y-7.847 E0.05561
G1 X10.976 Y-7.233 E0.05629
G1 X11.167 Y-6.631 E0.05738
G1 X11.430 Y-6.110 E0.05313
G1 X11.793 Y-5.618 E0.05561
G1 X12.235 Y-5.195 E0.05561
G1 X12.742 Y-4.852 E0.05561
G1 X13.299 Y-4.600 E0.05561
G1 X13.891 Y-4.446 E0.05561
G1 X14.500 Y-4.394 E0.05561
G1 X15.082 Y-4.444 E0.05309
G1 X15.623 Y-4.565 E0.05048
G1 X16.258 Y-4.852 E0.06336
G1 X16.900 Y-5.286 E0.07044
G1 X16.900 Y5.321 E0.96446
G1 X16.519 Y5.013 E0.04455
G1 X15.985 Y4.715 E0.05561
G1 X15.409 Y4.511 E0.05561
G1 X14.806 Y4.407 E0.05561
G1 X14.194 Y4.407 E0.05561
G1 X13.591 Y4.511 E0.05561
G1 X13.015 Y4.715 E0.05561
G1 X12.481 Y5.013 E0.05561
G1 X12.005 Y5.397 E0.05561
G1 X11.596 Y5.862 E0.05629
G1 X11.270 Y6.402 E0.05738
G1 X11.052 Y6.944 E0.05313
G1 X10.924 Y7.542 E0.05561
G1 X10.898 Y8.153 E0.05561
G1 X10.975 Y8.760 E0.05561
G1 X11.154 Y9.344 E0.05561
G1 X11.430 Y9.890 E0.05561
G1 X11.793 Y10.382 E0.05561
G1 X12.235 Y10.805 E0.05561
G1 X12.742 Y11.148 E0.05561
G1 X13.299 Y11.400 E0.05561
G1 X13.891 Y11.554 E0.05561
G1 X14.500 Y11.606 E0.05561
G1 X15.117 Y11.553 E0.05629
G1 X15.726 Y11.388 E0.05738
G1 X16.258 Y11.148 E0.05312
G1 X16.900 Y10.714 E0.07044
G1 X16.900 Y14.321 E0.32795
G1 X16.513 Y14.008 E0.04523
G1 X15.959 Y13.705 E0.05738
G1 X15.409 Y13.511 E0.05313
G1 X14.806 Y13.407 E0.05561
G1 X14.194 Y13.407 E0.05561
G1 X13.591 Y13.511 E0.05561
G1 X13.015 Y13.715 E0.05561
G1 X12.474 Y14.016 E0.05629
G1 X11.987 Y14.417 E0.05738
G1 X11.601 Y14.856 E0.05312
G1 X11.280 Y15.377 E0.05561
G1 X11.052 Y15.944 E0.05561
G1 X10.924 Y16.542 E0.05561
G1 X10.898 Y17.153 E0.05561
G1 X10.975 Y17.760 E0.05561
G1 X11.154 Y18.344 E0.05561
G1 X11.430 Y18.890 E0.05561
G1 X11.807 Y19.400 E0.05766
G1 X-11.805 Y19.400 E2.14700
G1 X-11.417 Y18.866 E0.06000
G1 X-11.154 Y18.344 E0.05313
G1 X-10.975 Y17.760 E0.05561
G1 X-10.898 Y17.153 E0.05561
G1 X-10.924 Y16.542 E0.05561
G1 X-11.052 Y15.944 E0.05561
G1 X-11.280 Y15.377 E0.05561
G1 X-11.605 Y14.850 E0.05629
G1 X-12.026 Y14.380 E0.05738
G1 X-12.481 Y14.013 E0.05313
G1 X-13.015 Y13.714 E0.05561
G1 X-13.591 Y13.511 E0.05561
G1 X-14.194 Y13.407 E0.05561
G1 X-14.806 Y13.407 E0.05561
G1 X-15.409 Y13.511 E0.05561
G1 X-15.985 Y13.714 E0.05561
G1 X-16.526 Y14.016 E0.05629
G1 X-16.900 Y14.325 E0.04412
G1 X-16.900 Y10.714 E0.32833
G1 X-16.258 Y11.148 E0.07044
G1 X-15.701 Y11.400 E0.05561
G1 X-15.124 Y11.550 E0.05421
G1 X-14.550 Y11.610 E0.05252
G1 X-13.891 Y11.554 E0.06015
G1 X-13.299 Y11.400 E0.05561
G1 X-12.742 Y11.148 E0.05561
G1 X-12.235 Y10.805 E0.05561
G1 X-11.793 Y10.382 E0.05561
G1 X-11.430 Y9.890 E0.05561
G1 X-11.154 Y9.344 E0.05561
G1 X-10.975 Y8.760 E0.05561
G1 X-10.898 Y8.153 E0.05561
G1 X-10.924 Y7.542 E0.05561
G1 X-11.054 Y6.937 E0.05629
G1 X-11.295 Y6.354 E0.05738
G1 X-11.601 Y5.856 E0.05313
G1 X-12.005 Y5.397 E0.05561
G1 X-12.481 Y5.013 E0.05561
G1 X-13.015 Y4.715 E0.05561
G1 X-13.591 Y4.511 E0.05561
G1 X-14.194 Y4.407 E0.05561
G1 X-14.806 Y4.407 E0.05561
G1 X-15.409 Y4.511 E0.05561
G1 X-15.985 Y4.715 E0.05561
G1 X-16.519 Y5.013 E0.05561
G1 X-16.900 Y5.321 E0.04455
G1 X-16.900 Y-5.286 E0.96446
G1 X-16.258 Y-4.852 E0.07044
G1 X-15.701 Y-4.600 E0.05561
G1 X-15.109 Y-4.446 E0.05561
G1 X-14.500 Y-4.394 E0.05561
G1 X-13.891 Y-4.446 E0.05561
G1 X-13.299 Y-4.600 E0.05561
G1 X-12.742 Y-4.852 E0.05561
G1 X-12.235 Y-5.195 E0.05561
G1 X-11.793 Y-5.618 E0.05561
G1 X-11.430 Y-6.110 E0.05561
G1 X-11.151 Y-6.662 E0.05629
G1 X-10.972 Y-7.267 E0.05738
G1 X-10.898 Y-7.847 E0.05313
G1 X-10.924 Y-8.458 E0.05561
G1 X-11.052 Y-9.056 E0.05561
G1 X-11.280 Y-9.623 E0.05561
G1 X-11.605 Y-10.150 E0.05629
G1 X-12.026 Y-10.620 E0.05738
G1 X-12.481 Y-10.987 E0.05312
G1 X-13.015 Y-11.285 E0.05561
G1 X-13.591 Y-11.489 E0.05561
G1 X-14.194 Y-11.593 E0.05561
G1 X-14.806 Y-11.593 E0.05561
G1 X-15.377 Y-11.495 E0.05267
G1 X-15.900 Y-11.333 E0.04979
G1 X-16.519 Y-10.987 E0.06448
G1 X-16.900 Y-10.679 E0.04455
G1 X-16.900 Y-14.286 E0.32795
G1 X-16.258 Y-13.852 E0.07044
G1 X-15.701 Y-13.600 E0.05561
G1 X-15.124 Y-13.450 E0.05421
G1 X-14.550 Y-13.390 E0.05252
G1 X-13.891 Y-13.446 E0.06015
G1 X-13.299 Y-13.600 E0.05561
G1 X-12.742 Y-13.852 E0.05561
G1 X-12.235 Y-14.195 E0.05561
G1 X-11.793 Y-14.618 E0.05561
G1 X-11.430 Y-15.110 E0.05561
G1 X-11.154 Y-15.656 E0.05561
G1 X-10.975 Y-16.240 E0.05561
G1 X-10.898 Y-16.847 E0.05561
G1 X-10.924 Y-17.458 E0.05561
G1 X-11.052 Y-18.056 E0.05561
G1 X-11.280 Y-18.623 E0.05561
G1 X-11.759 Y-19.400 E0.08297
G1 X11.759 Y-19.400 E2.13846
G1 X11.280 Y-18.623 E0.08297
G1 X11.052 Y-18.056 E0.05561
G1 X10.922 Y-17.451 E0.05629
G1 X10.901 Y-16.820 E0.05738
G1 X10.975 Y-16.240 E0.05313
G1 X11.154 Y-15.656 E0.05561
G1 X11.430 Y-15.110 E0.05561
G1 X11.793 Y-14.618 E0.05561
G1 X12.235 Y-14.195 E0.05561
G1 X12.742 Y-13.852 E0.05561
G1 X13.299 Y-13.600 E0.05561
G1 X13.891 Y-13.446 E0.05561
G1 X14.500 Y-13.394 E0.05561
G1 X15.109 Y-13.446 E0.05561
G1 X15.701 Y-13.600 E0.05561
G1 X16.258 Y-13.852 E0.05561
G1 X16.851 Y-14.252 E0.06498
G1 X17.235 Y-15.841 F15000.000
G1 X17.525 Y-15.773 E0.02706 F960.000
G1 X17.525 Y-9.246 E0.59354
G1 X17.221 Y-9.187 E0.02813
G1 X17.159 Y-9.341 E0.01509
G1 X16.895 Y-9.771 E0.04594
G1 X16.561 Y-10.150 E0.04594
G1 X16.164 Y-10.471 E0.04635
G1 X15.704 Y-10.722 E0.04771
G1 X15.250 Y-10.882 E0.04372
G1 X14.753 Y-10.968 E0.04593
G1 X14.247 Y-10.968 E0.04594
G1 X13.750 Y-10.882 E0.04593
G1 X13.273 Y-10.714 E0.04594
G1 X12.828 Y-10.465 E0.04635
G1 X12.423 Y-10.132 E0.04771
G1 X12.108 Y-9.774 E0.04340
G1 X11.847 Y-9.357 E0.04469
G1 X11.652 Y-8.872 E0.04753
G1 X11.546 Y-8.378 E0.04593
G1 X11.524 Y-7.874 E0.04594
G1 X11.589 Y-7.368 E0.04635
G1 X11.747 Y-6.868 E0.04771
G1 X11.964 Y-6.438 E0.04372
G1 X12.264 Y-6.032 E0.04593
G1 X12.629 Y-5.683 E0.04594
G1 X13.047 Y-5.400 E0.04594
G1 X13.508 Y-5.192 E0.04593
G1 X13.997 Y-5.064 E0.04594
G1 X14.500 Y-5.022 E0.04594
G1 X14.987 Y-5.063 E0.04440
G1 X15.424 Y-5.161 E0.04080
G1 X15.953 Y-5.400 E0.05270
G1 X16.375 Y-5.685 E0.04635
G1 X16.750 Y-6.052 E0.04771
G1 X17.036 Y-6.438 E0.04372
G1 X17.237 Y-6.837 E0.04054
G1 X17.525 Y-6.768 E0.02693
G1 X17.525 Y6.754 E1.22958
G1 X17.221 Y6.813 E0.02813
G1 X17.159 Y6.659 E0.01509
G1 X16.895 Y6.229 E0.04593
G1 X16.561 Y5.850 E0.04594
G1 X16.168 Y5.532 E0.04593
G1 X15.727 Y5.286 E0.04594
G1 X15.250 Y5.118 E0.04594
G1 X14.753 Y5.032 E0.04594
G1 X14.247 Y5.032 E0.04594
G1 X13.749 Y5.118 E0.04594
G1 X13.273 Y5.286 E0.04594
G1 X12.832 Y5.532 E0.04593
G1 X12.439 Y5.850 E0.04594
G1 X12.102 Y6.232 E0.04635
G1 X11.831 Y6.682 E0.04771
G1 X11.652 Y7.128 E0.04372
G1 X11.546 Y7.622 E0.04593
G1 X11.524 Y8.126 E0.04594
G1 X11.588 Y8.627 E0.04594
G1 X11.736 Y9.111 E0.04594
G1 X11.964 Y9.562 E0.04593
G1 X12.264 Y9.968 E0.04594
G1 X12.629 Y10.317 E0.04594
G1 X13.047 Y10.600 E0.04593
G1 X13.508 Y10.808 E0.04593
G1 X13.997 Y10.936 E0.04594
G1 X14.500 Y10.978 E0.04594
G1 X15.008 Y10.935 E0.04635
G1 X15.514 Y10.798 E0.04771
G1 X15.953 Y10.600 E0.04372
G1 X16.371 Y10.317 E0.04594
G1 X16.736 Y9.968 E0.04594
G1 X17.036 Y9.562 E0.04593
G1 X17.237 Y9.163 E0.04054
G1 X17.525 Y9.232 E0.02693
G1 X17.525 Y15.754 E0.59307
G1 X17.221 Y15.813 E0.02813
G1 X17.159 Y15.659 E0.01509
G1 X16.895 Y15.229 E0.04594
G1 X16.561 Y14.850 E0.04594
G1 X16.164 Y14.529 E0.04635
G1 X15.704 Y14.278 E0.04771
G1 X15.250 Y14.118 E0.04372
G1 X14.753 Y14.032 E0.04593
G1 X14.247 Y14.032 E0.04594
G1 X13.749 Y14.118 E0.04594
G1 X13.273 Y14.286 E0.04593
G1 X12.828 Y14.535 E0.04635
G1 X12.423 Y14.868 E0.04771
G1 X12.105 Y15.229 E0.04372
G1 X11.840 Y15.659 E0.04594
G1 X11.652 Y16.128 E0.04593
G1 X11.546 Y16.622 E0.04594
G1 X11.524 Y17.126 E0.04594
G1 X11.588 Y17.627 E0.04594
G1 X11.736 Y18.111 E0.04593
G1 X11.964 Y18.562 E0.04594
