; generated by Slic3r 1.2.9 on 2018-05-07 at 12:41:28

; external perimeters extrusion width = 0.40mm
; perimeters extrusion width = 0.40mm
; infill extrusion width = 0.40mm
; solid infill extrusion width = 0.40mm
; top infill extrusion width = 0.40mm
; support material extrusion width = 0.40mm

M107
M83
T0
M116


G21 ; set units to millimeters
G90 ; use absolute coordinates
M83 ; use relative distances for extrusion
G1 E-3.20000 F3000.00000
G1 Z0.400 F15000.000
G1 X-11.825 Y1.519 F15000.000
G1 Z0.350 F15000.000
G1 E3.20000 F3000.00000
G1 X-20.514 Y-66.108 E6.19985 F960.000
G1 X-20.301 Y-67.527 E0.13051
G1 X-19.373 Y-68.622 E0.13051
G1 X-17.911 Y-69.067 E0.13900
G1 X14.107 Y-69.067 E2.91138
G1 X15.329 Y-68.765 E0.11441
G1 X19.133 Y-66.765 E0.39079 F960.000
G1 X20.172 Y-65.776 E0.13051
G1 X20.536 Y-64.429 E0.12680
G1 X19.980 Y51.491 E10.54069
G1 X19.630 Y55.581 E0.37326
G1 X19.545 Y56.049 E0.04331
G1 X18.549 Y59.658 E0.34043
G1 X18.356 Y60.156 E0.04855
G1 X16.770 Y63.255 E0.31655
G1 X16.415 Y63.780 E0.05764
G1 X14.349 Y66.159 E0.28651
G1 X13.752 Y66.668 E0.07134
G1 X11.346 Y68.162 E0.25752
G1 X10.469 Y68.507 E0.08565
G1 X7.885 Y69.017 E0.23949
G1 X6.868 Y69.017 E0.09247
G1 X4.286 Y68.507 E0.23932
G1 X3.410 Y68.162 E0.08562
G1 X1.004 Y66.668 E0.25752
G1 X0.407 Y66.159 E0.07134
G1 X-1.659 Y63.780 E0.28651
G1 X-2.014 Y63.255 E0.05764
G1 X-3.600 Y60.156 E0.31655
G1 X-3.793 Y59.660 E0.04843
G1 X-4.791 Y56.051 E0.34048
G1 X-4.865 Y55.686 E0.03386
G1 X-11.817 Y1.579 E4.96035
G1 E-3.20000 F3000.00000
G1 Z0.750 F15000.000
G1 X-0.815 Y-25.750 F15000.000
G1 Z0.350 F15000.000
G1 E3.20000 F3000.00000
G1 X15.705 Y-25.750 E1.50216 F960.000
G1 X15.705 Y51.493 E7.02372
G1 X15.431 Y54.609 E0.28444
G1 X14.623 Y57.537 E0.27612
G1 X13.331 Y60.063 E0.25803
G1 X11.631 Y62.022 E0.23590
G1 X9.623 Y63.269 E0.21484
G1 X7.445 Y63.700 E0.20192
G1 X5.266 Y63.269 E0.20192
G1 X3.259 Y62.022 E0.21484
G1 X1.559 Y60.063 E0.23590
G1 X0.267 Y57.537 E0.25802
G1 X-0.543 Y54.609 E0.27617
G1 X-0.815 Y51.493 E0.28443
G1 X-0.815 Y-25.690 E7.01825
G1 X-0.815 Y-26.150 F15000.000
G1 X-1.490 Y-27.000 F15000.000
G1 X-5.089 Y-36.646 E0.93619 F960.000
G1 X2.178 Y-36.646 E0.66077
G1 X3.665 Y-32.486 E0.40173
G1 X4.244 Y-31.608 E0.09561
G1 X5.315 Y-31.218 E0.10365
G1 X7.862 Y-31.332 E0.23180
G1 X8.504 Y-31.585 E0.06278
G1 X9.043 Y-32.038 E0.06400
G1 X9.398 Y-32.652 E0.06452
G1 X9.515 Y-33.239 E0.05443
G1 X9.630 Y-36.646 E0.30999
G1 X15.916 Y-36.646 E0.57160
G1 X15.778 Y-27.000 E0.87724
G1 X-1.430 Y-27.000 E1.56474
G1 X-1.440 Y-26.375 F15000.000
G1 X-1.440 Y-25.959 E0.03782 F960.000
G1 X-1.748 Y-25.903 E0.02849
G1 X-5.989 Y-37.271 E1.10325
G1 X2.618 Y-37.271 E0.78264
G1 X4.229 Y-32.767 E0.43492
G1 X4.652 Y-32.125 E0.07000
G1 X5.412 Y-31.847 E0.07352
G1 X7.729 Y-31.951 E0.21094
G1 X8.180 Y-32.129 E0.04406
G1 X8.557 Y-32.446 E0.04475
G1 X8.805 Y-32.876 E0.04514
G1 X8.893 Y-33.311 E0.04041
G1 X9.026 Y-37.271 E0.36027
G1 X16.550 Y-37.271 E0.68419
G1 X16.394 Y-26.375 E0.99089
G1 X-1.380 Y-26.375 E1.61617
G1 E-3.20000 F3000.00000
G1 Z0.750 F15000.000
G1 X-0.132 Y58.130 F15000.000
G1 Z0.350 F15000.000
G1 E3.20000 F3000.00000
G1 X1.037 Y60.415 E0.23343 F600.000
G1 X2.849 Y62.503 E0.25141
G1 X5.034 Y63.860 E0.23379
G1 X7.445 Y64.337 E0.22352
G1 X9.856 Y63.860 E0.22352
G1 X12.041 Y62.503 E0.23379
G1 X13.745 Y60.540 E0.23641
G1 X14.020 Y60.726 E0.03020
G1 X13.619 Y61.509 E0.08002
G1 X11.727 Y63.688 E0.26233
G1 X9.598 Y65.010 E0.22796
G1 X7.377 Y65.448 E0.20582
G1 X5.158 Y65.010 E0.20565
G1 X3.028 Y63.688 E0.22796
G1 X1.137 Y61.509 E0.26233
G1 X-0.350 Y58.604 E0.29673
G1 X-0.447 Y58.253 E0.03320
G1 X-0.187 Y58.151 E0.02534
G1 E-3.20000 F3000.00000
G1 Z0.750 F15000.000
G1 X3.058 Y-37.896 F15000.000
G1 Z0.350 F15000.000
G1 E3.20000 F3000.00000
G1 X4.792 Y-33.049 E0.46811 F960.000
G1 X5.060 Y-32.641 E0.04440
G1 X5.509 Y-32.477 E0.04340
G1 X7.597 Y-32.571 E0.19008
G1 X7.856 Y-32.673 E0.02534
G1 X8.071 Y-32.854 E0.02550
G1 X8.213 Y-33.099 E0.02576
G1 X8.270 Y-33.384 E0.02640
G1 X8.421 Y-37.896 E0.41055
G1 X17.184 Y-37.896 E0.79677
G1 X17.005 Y-25.403 E1.13614
G1 X17.005 Y51.463 E6.98933
G1 X16.669 Y55.289 E0.34923
G1 X15.691 Y58.832 E0.33428
G1 X14.141 Y61.862 E0.30943
G1 X12.137 Y64.169 E0.27783
G1 X9.831 Y65.601 E0.24691
G1 X7.377 Y66.085 E0.22741
G1 X4.925 Y65.601 E0.22723
G1 X2.619 Y64.169 E0.24691
G1 X0.615 Y61.862 E0.27783
G1 X-0.935 Y58.832 E0.30943
G1 X-1.915 Y55.289 E0.33433
G1 X-2.251 Y51.463 E0.34922
G1 X-2.251 Y-25.463 E6.99485
G1 X-6.889 Y-37.896 E1.20661
G1 X2.998 Y-37.896 E0.89905
G1 X2.942 Y-37.513 F15000.000
G1 X0.892 Y-36.268 F15000.000
G1 X2.392 Y-34.767 E0.19562 F960.000
G1 X2.891 Y-33.373 F15000.000
G1 X-0.004 Y-36.268 E0.37738 F960.000
G1 X-0.900 Y-36.268 E0.08257
G1 X7.989 Y-27.378 E1.15876
G1 X8.885 Y-27.378 E0.08257
G1 X5.415 Y-30.849 E0.45239
G1 X6.272 Y-30.887 E0.07910
G1 X9.781 Y-27.378 E0.45741
G1 X10.677 Y-27.378 E0.08257
G1 X7.129 Y-30.926 E0.46242
G1 X7.949 Y-31.002 E0.07590
G1 X11.573 Y-27.378 E0.47232
G1 X12.468 Y-27.378 E0.08257
G1 X8.591 Y-31.255 E0.50537
G1 X9.089 Y-31.653 E0.05875
G1 X13.364 Y-27.378 E0.55722
G1 X14.260 Y-27.378 E0.08257
G1 X9.489 Y-32.149 E0.62193
G1 X9.781 Y-32.754 E0.06184
G1 X15.156 Y-27.378 E0.70069
G1 X15.416 Y-28.014 E0.06332
G1 X9.900 Y-33.530 E0.71905
G1 X9.929 Y-34.397 E0.07993
G1 X15.428 Y-28.897 E0.71690
G1 X15.441 Y-29.781 E0.08141
G1 X9.958 Y-35.264 E0.71475
G1 X9.987 Y-36.131 E0.07993
G1 X15.454 Y-30.664 E0.71261
G1 X15.466 Y-31.547 E0.08141
G1 X10.746 Y-36.268 E0.61536
G1 X11.641 Y-36.268 E0.08257
G1 X15.479 Y-32.430 E0.50024
G1 X15.492 Y-33.313 E0.08141
G1 X12.537 Y-36.268 E0.38511
G1 X13.433 Y-36.268 E0.08257
G1 X15.504 Y-34.197 E0.26999
G1 X15.517 Y-35.080 E0.08141
G1 X14.329 Y-36.268 E0.15486
G1 X15.225 Y-36.268 E0.08257
G1 X15.530 Y-35.963 E0.03974
G1 E-3.20000 F3000.00000
G1 Z0.750 F15000.000
G1 X-1.796 Y-36.268 F15000.000
G1 Z0.350 F15000.000
G1 E3.20000 F3000.00000
G1 X7.093 Y-27.378 E1.15876 F960.000
G1 X6.198 Y-27.378 E0.08257
G1 X-2.692 Y-36.268 E1.15876
G1 X-3.588 Y-36.268 E0.08257
G1 X5.302 Y-27.378 E1.15876
G1 X4.406 Y-27.378 E0.08257
G1 X-4.460 Y-36.244 E1.15569
G1 X-3.953 Y-34.842 F15000.000
G1 X3.510 Y-27.378 E0.97287 F960.000
G1 X2.614 Y-27.378 E0.08257
G1 X-3.420 Y-33.413 E0.78661
G1 X-2.887 Y-31.984 F15000.000
G1 X1.718 Y-27.378 E0.60036 F960.000
G1 X0.823 Y-27.378 E0.08257
G1 X-2.354 Y-30.555 E0.41411
G1 X-1.821 Y-29.126 F15000.000
G1 X-0.073 Y-27.378 E0.22785 F960.000
G1 X-0.969 Y-27.378 E0.08257
G1 X-1.288 Y-27.698 E0.04160
G1 X16.360 Y-26.063 F15000.000
G1 X16.355 Y51.434 E14.94048 F960.000
G1 X16.072 Y54.694 E0.63089
G1 X15.990 Y55.166 E0.09232
G1 X15.253 Y57.823 E0.53152
G1 X14.969 Y58.552 E0.15075
G1 X14.042 Y60.364 E0.39246
G1 X11.911 Y62.973 F15000.000
G1 X11.452 Y63.364 E0.05482 F960.000
G1 X10.030 Y64.247 E0.15221
G1 X9.678 Y64.389 E0.03448
G1 X9.678 Y64.389 F15000.000
G1 X9.397 Y64.500 E0.05831 F960.000
G1 X7.377 Y64.886 E0.39644
G1 X5.364 Y64.488 E0.39561
G1 X5.015 Y64.350 E0.07231
G1 X5.004 Y64.378 F15000.000
G1 X3.327 Y63.337 E0.17948 F960.000
G1 X2.688 Y62.792 E0.07633
G1 X-0.412 Y57.903 F15000.000
G1 X-1.172 Y55.154 E0.54988 F960.000
G1 X-1.241 Y54.773 E0.07473
G1 X-1.533 Y51.431 E0.64670
G1 X-1.533 Y-25.625 E14.85550
G1 E-3.20000 F3000.00000
G1 Z0.750 F15000.000
G1 X-0.039 Y-42.846 F15000.000
G1 Z0.350 F15000.000
G1 E3.20000 F3000.00000
G1 X-7.400 Y-42.846 E0.66940 F960.000
G1 X-12.013 Y-55.206 E1.19962
G1 X-2.199 Y-55.206 E0.89234
G1 X7.402 Y-51.790 E0.92663
G1 X8.116 Y-51.728 E0.06519
G1 X8.880 Y-51.978 E0.07310
G1 X9.448 Y-52.510 E0.07073
G1 X9.718 Y-53.245 E0.07115
G1 X9.780 Y-55.206 E0.17846
G1 X16.180 Y-55.206 E0.58193
G1 X16.004 Y-42.846 E1.12404
G1 X9.839 Y-42.846 E0.56058
G1 X9.845 Y-43.019 E0.01578
G1 X9.501 Y-43.913 E0.08707
G1 X8.788 Y-44.557 E0.08740
G1 X1.788 Y-46.953 E0.67273
G1 X1.025 Y-46.944 E0.06942
G1 X0.161 Y-46.573 E0.08546
G1 X-0.383 Y-45.913 E0.07777
G1 X-0.631 Y-45.229 E0.06612
G1 X-0.631 Y-44.500 E0.06625
G1 X-0.059 Y-42.902 E0.15434
G1 X0.849 Y-42.221 F15000.000
G1 X-7.834 Y-42.221 E0.78953 F960.000
G1 X-12.913 Y-55.831 E1.32092
G1 X-2.091 Y-55.831 E0.98399
G1 X7.536 Y-52.406 E0.92916
G1 X8.043 Y-52.362 E0.04629
G1 X8.554 Y-52.529 E0.04888
G1 X8.912 Y-52.865 E0.04466
G1 X9.096 Y-53.366 E0.04850
G1 X9.175 Y-55.831 E0.22432
G1 X16.814 Y-55.831 E0.69460
G1 X16.620 Y-42.221 E1.23770
G1 X9.193 Y-42.221 E0.67534
G1 X9.216 Y-42.913 E0.06300
G1 X8.971 Y-43.549 E0.06197
G1 X8.464 Y-44.008 E0.06216
G1 X1.688 Y-46.327 E0.65127
G1 X1.157 Y-46.321 E0.04827
G1 X0.547 Y-46.058 E0.06035
G1 X0.168 Y-45.598 E0.05421
G1 X-0.006 Y-45.119 E0.04634
G1 X-0.006 Y-44.609 E0.04641
G1 X0.828 Y-42.277 E0.22516
G1 E-3.20000 F3000.00000
G1 Z0.750 F15000.000
G1 X7.970 Y-52.995 F15000.000
G1 Z0.350 F15000.000
G1 E3.20000 F3000.00000
G1 X8.228 Y-53.080 E0.02466 F960.000
G1 X8.377 Y-53.219 E0.01859
G1 X8.475 Y-53.486 E0.02586
G1 X8.570 Y-56.456 E0.27017
G1 X17.448 Y-56.456 E0.80727
G1 X17.236 Y-41.596 E1.35135
G1 X8.547 Y-41.596 E0.79010
G1 X8.587 Y-42.807 E0.11021
G1 X8.442 Y-43.186 E0.03686
G1 X8.140 Y-43.458 E0.03693
G1 X1.587 Y-45.701 E0.62980
G1 X1.289 Y-45.697 E0.02712
G1 X0.933 Y-45.544 E0.03524
G1 X0.719 Y-45.284 E0.03064
G1 X0.619 Y-45.010 E0.02656
G1 X0.619 Y-44.717 E0.02657
G1 X1.736 Y-41.596 E0.30144
G1 X-8.268 Y-41.596 E0.90966
G1 X-13.813 Y-56.456 E1.44221
G1 X-1.983 Y-56.456 E1.07565
G1 X7.670 Y-53.021 E0.93168
G1 X7.910 Y-53.000 E0.02193
G1 X8.146 Y-52.789 F15000.000
G1 X5.952 Y-51.849 F15000.000
G1 X14.576 Y-43.224 E1.12194 F960.000
G1 X15.470 Y-43.224 E0.08223
G1 X7.287 Y-51.408 E1.06458
G1 X8.196 Y-51.392 E0.08369
G1 X15.643 Y-43.946 E0.96867
G1 X15.655 Y-44.827 E0.08108
G1 X8.870 Y-51.613 E0.88271
G1 X9.377 Y-52.000 E0.05867
G1 X15.668 Y-45.709 E0.81840
G1 X15.681 Y-46.590 E0.08108
G1 X9.797 Y-52.473 E0.76531
G1 X10.038 Y-53.127 E0.06406
G1 X15.693 Y-47.472 E0.73569
G1 X15.706 Y-48.353 E0.08108
G1 X10.115 Y-53.944 E0.72732
G1 X10.142 Y-54.810 E0.07973
G1 X15.718 Y-49.234 E0.72535
G1 X15.731 Y-50.116 E0.08108
G1 X11.019 Y-54.828 E0.61295
G1 X11.913 Y-54.828 E0.08223
G1 X15.743 Y-50.997 E0.49829
G1 X15.756 Y-51.879 E0.08108
G1 X12.807 Y-54.828 E0.38363
G1 X13.701 Y-54.828 E0.08223
G1 X15.769 Y-52.760 E0.26897
G1 X15.781 Y-53.641 E0.08108
G1 X14.595 Y-54.828 E0.15431
G1 X15.489 Y-54.828 E0.08223
G1 X15.794 Y-54.523 E0.03966
G1 X4.564 Y-52.343 F15000.000
G1 X13.682 Y-43.224 E1.18620 F960.000
G1 X12.788 Y-43.224 E0.08223
G1 X3.176 Y-52.837 E1.25046
G1 X1.788 Y-53.331 F15000.000
G1 X11.894 Y-43.224 E1.31472 F960.000
G1 X11.000 Y-43.224 E0.08223
G1 X0.400 Y-53.825 E1.37895
G1 X-0.987 Y-54.318 F15000.000
G1 X8.077 Y-45.253 E1.17920 F960.000
G1 X6.718 Y-45.719 F15000.000
G1 X-2.375 Y-54.812 E1.18288 F960.000
G1 X-3.285 Y-54.828 E0.08372
G1 X5.359 Y-46.184 E1.12445
G1 X4.000 Y-46.649 F15000.000
G1 X-4.179 Y-54.828 E1.06394 F960.000
G1 X-5.073 Y-54.828 E0.08223
G1 X2.641 Y-47.114 E1.00343
G1 X1.534 Y-47.327 E0.10368
G1 X-5.967 Y-54.828 E0.97573
G1 X-6.861 Y-54.828 E0.08223
G1 X0.767 Y-47.200 E0.99226
G1 X0.142 Y-46.931 E0.06260
G1 X-7.755 Y-54.828 E1.02722
G1 X-8.649 Y-54.828 E0.08223
G1 X-0.320 Y-46.499 E1.08343
G1 X-0.715 Y-46.000 E0.05855
G1 X-9.543 Y-54.828 E1.14841
G1 X-10.437 Y-54.828 E0.08223
G1 X-0.952 Y-45.343 E1.23377
G1 X-1.009 Y-44.506 E0.07717
G1 X-11.331 Y-54.828 E1.34265
G1 X-10.923 Y-53.526 E0.12543
G1 X-0.638 Y-43.241 E1.33800
G1 X-1.515 Y-43.224 E0.08073
G1 X-10.391 Y-52.100 E1.15463
G1 X-9.859 Y-50.674 F15000.000
G1 X-2.409 Y-43.224 E0.96911 F960.000
G1 X-3.303 Y-43.224 E0.08223
G1 X-9.327 Y-49.248 E0.78359
G1 X-8.795 Y-47.822 F15000.000
G1 X-4.197 Y-43.224 E0.59807 F960.000
G1 X-5.091 Y-43.224 E0.08223
G1 X-8.263 Y-46.396 E0.41255
G1 X-7.730 Y-44.970 F15000.000
G1 X-5.985 Y-43.224 E0.22703 F960.000
G1 X-6.879 Y-43.224 E0.08223
G1 X-7.198 Y-43.544 E0.04152
G1 E-3.20000 F3000.00000
G1 Z0.750 F15000.000
G1 X10.041 Y-63.324 F15000.000
G1 Z0.350 F15000.000
G1 E3.20000 F3000.00000
G1 X-7.860 Y-63.324 E1.62770 F960.000
G1 X-6.720 Y-60.406 E0.28486
G1 X-13.952 Y-60.406 E0.65767
G1 X-15.607 Y-64.842 E0.43055
G1 X13.396 Y-64.842 E2.63718
G1 X15.200 Y-62.842 E0.24491
G1 X16.288 Y-62.842 E0.09900
G1 X16.254 Y-60.406 E0.22157
G1 X9.947 Y-60.406 E0.57346
G1 X10.039 Y-63.264 E0.26001
G1 X9.396 Y-62.699 F15000.000
G1 X-6.945 Y-62.699 E1.48582 F960.000
G1 X-5.805 Y-59.781 E0.28486
G1 X-14.386 Y-59.781 E0.78032
G1 X-16.507 Y-65.467 E0.55184
G1 X13.673 Y-65.467 E2.74429
G1 X15.477 Y-63.467 E0.24491
G1 X16.922 Y-63.467 E0.13137
G1 X16.870 Y-59.781 E0.33522
G1 X9.302 Y-59.781 E0.68816
G1 X9.394 Y-62.639 E0.26001
G1 X8.750 Y-62.074 F15000.000
G1 X-6.030 Y-62.074 E1.34393 F960.000
G1 X-4.890 Y-59.156 E0.28486
G1 X-14.820 Y-59.156 E0.90298
G1 X-17.407 Y-66.092 E0.67313
G1 X13.951 Y-66.092 E2.85139
G1 X15.755 Y-64.092 E0.24491
G1 X17.556 Y-64.092 E0.16373
G1 X17.486 Y-59.156 E0.44887
G1 X8.656 Y-59.156 E0.80286
G1 X8.749 Y-62.014 E0.26001
G1 X8.755 Y-62.474 F15000.000
G1 X10.344 Y-61.089 F15000.000
G1 X10.648 Y-60.784 E0.04196 F960.000
G1 X11.595 Y-60.784 E0.09225
G1 X10.373 Y-62.006 E0.16835
G1 X10.403 Y-62.924 E0.08942
G1 X12.542 Y-60.784 E0.29474
G1 X13.489 Y-60.784 E0.09225
G1 X10.757 Y-63.517 E0.37643
G1 X10.777 Y-64.444 E0.09034
G1 X14.436 Y-60.784 E0.50417
G1 X15.383 Y-60.784 E0.09225
G1 X11.703 Y-64.464 E0.50694
G1 X12.650 Y-64.464 E0.09225
G1 X15.889 Y-61.225 E0.44621
G1 X15.597 Y-62.464 E0.12396
G1 X15.902 Y-62.159 E0.04200
G1 X10.378 Y-64.083 F15000.000
G1 X-8.492 Y-64.083 E3.63787 F960.000
G1 X-8.870 Y-64.159 F15000.000
G1 X-9.175 Y-64.464 E0.04404 F960.000
G1 X-10.167 Y-64.464 E0.10123
G1 X-7.879 Y-62.175 E0.33027
G1 X-7.480 Y-60.784 F15000.000
G1 X-11.159 Y-64.464 E0.53103 F960.000
G1 X-12.151 Y-64.464 E0.10123
G1 X-8.472 Y-60.784 E0.53103
G1 X-9.463 Y-60.784 E0.10123
G1 X-13.143 Y-64.464 E0.53103
G1 X-14.135 Y-64.464 E0.10123
G1 X-10.455 Y-60.784 E0.53103
G1 X-11.447 Y-60.784 E0.10123
G1 X-14.930 Y-64.267 E0.50268
G1 X-14.340 Y-62.685 F15000.000
G1 X-12.439 Y-60.784 E0.27437 F960.000
G1 X-13.431 Y-60.784 E0.10123
G1 X-13.750 Y-61.104 E0.04606
G1 E-3.20000 F3000.00000
G1 Z0.750 F15000.000
G1 X-13.144 Y-58.394 F15000.000
G1 Z0.350 F15000.000
G1 E3.20000 F3000.00000
G1 X-13.733 Y-57.218 E0.11953 F960.000
G1 X-12.335 Y-57.218 E0.12712
G1 X-11.746 Y-58.394 E0.11953
G1 X-10.348 Y-58.394 E0.12712
G1 X-10.937 Y-57.218 E0.11953
G1 E-3.20000 F3000.00000
G1 Z0.750 F15000.000
G1 X-8.141 Y-57.218 F15000.000
G1 Z0.350 F15000.000
G1 E3.20000 F3000.00000
G1 X-7.552 Y-58.394 E0.11953 F960.000
G1 X-6.154 Y-58.394 E0.12712
G1 X-6.743 Y-57.218 E0.11953
G1 X-5.345 Y-57.218 E0.12712
G1 X-4.756 Y-58.394 E0.11953
G1 X-3.496 Y-58.117 E0.11724
G1 X-3.947 Y-57.218 E0.09140
G1 E-3.20000 F3000.00000
G1 Z0.750 F15000.000
G1 X9.224 Y-58.394 F15000.000
G1 Z0.350 F15000.000
G1 E3.20000 F3000.00000
G1 X8.635 Y-57.218 E0.11953 F960.000
G1 X10.033 Y-57.218 E0.12712
G1 X10.622 Y-58.394 E0.11953
G1 X11.718 Y-57.792 E0.11372
G1 X11.431 Y-57.218 E0.05833
G1 X12.829 Y-57.218 F15000.000
G1 X13.418 Y-58.394 E0.11953 F960.000
G1 X14.816 Y-58.394 E0.12712
G1 X14.227 Y-57.218 E0.11953
G1 X15.625 Y-57.218 E0.12712
G1 X16.214 Y-58.394 E0.11953
G1 X17.382 Y-57.935 E0.11411
G1 X17.023 Y-57.218 E0.07287
G1 E-3.20000 F3000.00000
G1 Z0.750 F15000.000
G1 X8.811 Y-40.834 F15000.000
G1 Z0.350 F15000.000
G1 E3.20000 F3000.00000
G1 X7.720 Y-38.658 E0.22124 F960.000
G1 X9.118 Y-38.658 E0.12712
G1 X10.209 Y-40.834 E0.22124
G1 X11.607 Y-40.834 E0.12712
G1 X10.516 Y-38.658 E0.22124
G1 X11.914 Y-38.658 E0.12712
G1 X13.005 Y-40.834 E0.22124
G1 X14.403 Y-40.834 E0.12712
G1 X13.312 Y-38.658 E0.22124
G1 X14.710 Y-38.658 E0.12712
G1 X15.800 Y-40.834 E0.22124
G1 X17.136 Y-40.709 E0.12198
G1 X16.108 Y-38.658 E0.20860
G1 E-3.20000 F3000.00000
G1 Z0.750 F15000.000
G1 X2.129 Y-38.658 F15000.000
G1 Z0.350 F15000.000
G1 E3.20000 F3000.00000
G1 X3.111 Y-40.619 E0.19937 F960.000
G1 X1.821 Y-40.834 E0.11893
G1 X0.731 Y-38.658 E0.22124
G1 X-0.667 Y-38.658 E0.12712
G1 X0.423 Y-40.834 E0.22124
G1 X-0.975 Y-40.834 E0.12712
G1 X-1.617 Y-39.553 E0.13030
G1 E-3.20000 F3000.00000
G1 Z0.750 F15000.000
