; generated by Slic3r 1.2.9 on 2018-05-16 at 20:44:27

; external perimeters extrusion width = 0.40mm
; perimeters extrusion width = 0.40mm
; infill extrusion width = 0.40mm
; solid infill extrusion width = 0.40mm
; top infill extrusion width = 0.40mm
; support material extrusion width = 0.40mm

M107
M83
T0
M116


G21 ; set units to millimeters
G90 ; use absolute coordinates
M83 ; use relative distances for extrusion
G1 E-3.20000 F3000.00000
G1 Z0.400 F15000.000
G1 X-12.404 Y1.594 F15000.000
G1 Z0.350 F15000.000
G1 E3.20000 F3000.00000
G1 X-21.103 Y-66.108 E6.20667 F960.000
G1 X-20.890 Y-67.527 E0.13051
G1 X-19.962 Y-68.622 E0.13051
G1 X-18.500 Y-69.067 E0.13900
G1 X13.518 Y-69.067 E2.91138
G1 X14.496 Y-68.878 E0.09056
G1 X19.478 Y-66.878 E0.48815 F960.000
G1 X20.613 Y-66.000 E0.13051
G1 X21.125 Y-64.403 E0.15246
G1 X19.391 Y51.517 E10.54175
G1 X19.041 Y55.581 E0.37084
G1 X18.956 Y56.049 E0.04331
G1 X17.960 Y59.658 E0.34043
G1 X17.767 Y60.156 E0.04855
G1 X16.181 Y63.255 E0.31655
G1 X15.826 Y63.780 E0.05764
G1 X13.760 Y66.159 E0.28651
G1 X13.163 Y66.668 E0.07134
G1 X10.757 Y68.162 E0.25752
G1 X9.880 Y68.507 E0.08566
G1 X7.296 Y69.017 E0.23949
G1 X6.279 Y69.017 E0.09246
G1 X3.697 Y68.507 E0.23932
G1 X2.821 Y68.162 E0.08562
G1 X0.415 Y66.668 E0.25752
G1 X-0.182 Y66.159 E0.07134
G1 X-2.248 Y63.780 E0.28651
G1 X-2.603 Y63.255 E0.05764
G1 X-4.189 Y60.156 E0.31655
G1 X-4.382 Y59.660 E0.04843
G1 X-5.380 Y56.051 E0.34048
G1 X-5.454 Y55.686 E0.03386
G1 X-12.396 Y1.653 E4.95352
G1 E-3.20000 F3000.00000
G1 Z0.750 F15000.000
G1 X-1.404 Y-25.750 F15000.000
G1 Z0.350 F15000.000
G1 E3.20000 F3000.00000
G1 X15.116 Y-25.750 E1.50216 F960.000
G1 X15.116 Y51.493 E7.02372
G1 X14.842 Y54.609 E0.28444
G1 X14.034 Y57.537 E0.27612
G1 X12.742 Y60.063 E0.25803
G1 X11.042 Y62.022 E0.23590
G1 X9.034 Y63.269 E0.21484
G1 X6.856 Y63.700 E0.20192
G1 X4.677 Y63.269 E0.20192
G1 X2.670 Y62.022 E0.21484
G1 X0.970 Y60.063 E0.23590
G1 X-0.322 Y57.537 E0.25802
G1 X-1.132 Y54.609 E0.27617
G1 X-1.404 Y51.493 E0.28443
G1 X-1.404 Y-25.690 E7.01825
G1 X-1.404 Y-26.150 F15000.000
G1 X-2.079 Y-27.000 F15000.000
G1 X-5.678 Y-36.646 E0.93619 F960.000
G1 X1.589 Y-36.646 E0.66077
G1 X3.076 Y-32.486 E0.40173
G1 X3.655 Y-31.608 E0.09561
G1 X4.726 Y-31.218 E0.10365
G1 X7.273 Y-31.332 E0.23180
G1 X7.915 Y-31.585 E0.06278
G1 X8.454 Y-32.038 E0.06400
G1 X8.809 Y-32.652 E0.06452
G1 X8.926 Y-33.239 E0.05443
G1 X9.041 Y-36.646 E0.30999
G1 X15.327 Y-36.646 E0.57160
G1 X15.189 Y-27.000 E0.87724
G1 X-2.019 Y-27.000 E1.56474
G1 X-2.029 Y-26.375 F15000.000
G1 X-2.029 Y-25.959 E0.03782 F960.000
G1 X-2.337 Y-25.903 E0.02849
G1 X-6.578 Y-37.271 E1.10325
G1 X2.029 Y-37.271 E0.78264
G1 X3.640 Y-32.767 E0.43492
G1 X4.063 Y-32.125 E0.07000
G1 X4.823 Y-31.847 E0.07352
G1 X7.140 Y-31.951 E0.21094
G1 X7.591 Y-32.129 E0.04406
G1 X7.968 Y-32.446 E0.04475
G1 X8.216 Y-32.876 E0.04514
G1 X8.304 Y-33.311 E0.04042
G1 X8.437 Y-37.271 E0.36027
G1 X15.961 Y-37.271 E0.68419
G1 X15.805 Y-26.375 E0.99089
G1 X-1.969 Y-26.375 E1.61617
G1 E-3.20000 F3000.00000
G1 Z0.750 F15000.000
G1 X-0.721 Y58.130 F15000.000
G1 Z0.350 F15000.000
G1 E3.20000 F3000.00000
G1 X0.448 Y60.415 E0.23343 F600.000
G1 X2.260 Y62.503 E0.25141
G1 X4.445 Y63.860 E0.23379
G1 X6.856 Y64.337 E0.22352
G1 X9.267 Y63.860 E0.22352
G1 X11.452 Y62.503 E0.23379
G1 X13.156 Y60.540 E0.23640
G1 X13.431 Y60.726 E0.03020
G1 X13.030 Y61.509 E0.08002
G1 X11.138 Y63.688 E0.26233
G1 X9.009 Y65.010 E0.22796
G1 X6.788 Y65.448 E0.20582
G1 X4.569 Y65.010 E0.20565
G1 X2.439 Y63.688 E0.22796
G1 X0.548 Y61.509 E0.26233
G1 X-0.939 Y58.604 E0.29673
G1 X-1.036 Y58.253 E0.03320
G1 X-0.776 Y58.151 E0.02534
G1 E-3.20000 F3000.00000
G1 Z0.750 F15000.000
G1 X2.469 Y-37.896 F15000.000
G1 Z0.350 F15000.000
G1 E3.20000 F3000.00000
G1 X4.203 Y-33.049 E0.46811 F960.000
G1 X4.471 Y-32.641 E0.04440
G1 X4.920 Y-32.477 E0.04340
G1 X7.008 Y-32.571 E0.19008
G1 X7.267 Y-32.673 E0.02534
G1 X7.482 Y-32.854 E0.02550
G1 X7.624 Y-33.099 E0.02576
G1 X7.681 Y-33.384 E0.02640
G1 X7.832 Y-37.896 E0.41055
G1 X16.595 Y-37.896 E0.79677
G1 X16.416 Y-25.403 E1.13614
G1 X16.416 Y51.463 E6.98933
G1 X16.080 Y55.289 E0.34923
G1 X15.102 Y58.832 E0.33428
G1 X13.552 Y61.862 E0.30943
G1 X11.548 Y64.169 E0.27783
G1 X9.242 Y65.601 E0.24691
G1 X6.788 Y66.085 E0.22741
G1 X4.336 Y65.601 E0.22723
G1 X2.030 Y64.169 E0.24691
G1 X0.026 Y61.862 E0.27783
G1 X-1.524 Y58.832 E0.30943
G1 X-2.504 Y55.289 E0.33433
G1 X-2.840 Y51.463 E0.34922
G1 X-2.840 Y-25.463 E6.99485
G1 X-7.478 Y-37.896 E1.20661
G1 X2.409 Y-37.896 E0.89905
G1 X2.353 Y-37.513 F15000.000
G1 X0.303 Y-36.268 F15000.000
G1 X1.803 Y-34.767 E0.19562 F960.000
G1 X2.302 Y-33.373 F15000.000
G1 X-0.593 Y-36.268 E0.37738 F960.000
G1 X-1.489 Y-36.268 E0.08257
G1 X7.400 Y-27.378 E1.15876
G1 X8.296 Y-27.378 E0.08257
G1 X4.826 Y-30.849 E0.45239
G1 X5.683 Y-30.887 E0.07910
G1 X9.192 Y-27.378 E0.45741
G1 X10.088 Y-27.378 E0.08257
G1 X6.540 Y-30.926 E0.46242
G1 X7.360 Y-31.002 E0.07590
G1 X10.984 Y-27.378 E0.47232
G1 X11.879 Y-27.378 E0.08257
G1 X8.002 Y-31.255 E0.50537
G1 X8.500 Y-31.653 E0.05875
G1 X12.775 Y-27.378 E0.55722
G1 X13.671 Y-27.378 E0.08257
G1 X8.900 Y-32.149 E0.62193
G1 X9.192 Y-32.754 E0.06184
G1 X14.567 Y-27.378 E0.70069
G1 X14.827 Y-28.014 E0.06332
G1 X9.311 Y-33.530 E0.71905
G1 X9.340 Y-34.397 E0.07993
G1 X14.839 Y-28.897 E0.71690
G1 X14.852 Y-29.781 E0.08141
G1 X9.369 Y-35.264 E0.71475
G1 X9.398 Y-36.131 E0.07993
G1 X14.865 Y-30.664 E0.71261
G1 X14.877 Y-31.547 E0.08141
G1 X10.157 Y-36.268 E0.61536
G1 X11.052 Y-36.268 E0.08257
G1 X14.890 Y-32.430 E0.50024
G1 X14.903 Y-33.313 E0.08141
G1 X11.948 Y-36.268 E0.38511
G1 X12.844 Y-36.268 E0.08257
G1 X14.915 Y-34.197 E0.26999
G1 X14.928 Y-35.080 E0.08141
G1 X13.740 Y-36.268 E0.15486
G1 X14.636 Y-36.268 E0.08257
G1 X14.941 Y-35.963 E0.03974
G1 E-3.20000 F3000.00000
G1 Z0.750 F15000.000
G1 X-2.385 Y-36.268 F15000.000
G1 Z0.350 F15000.000
G1 E3.20000 F3000.00000
G1 X6.504 Y-27.378 E1.15876 F960.000
G1 X5.609 Y-27.378 E0.08257
G1 X-3.281 Y-36.268 E1.15876
G1 X-4.177 Y-36.268 E0.08257
G1 X4.713 Y-27.378 E1.15876
G1 X3.817 Y-27.378 E0.08257
G1 X-5.049 Y-36.244 E1.15569
G1 X-4.542 Y-34.842 F15000.000
G1 X2.921 Y-27.378 E0.97287 F960.000
G1 X2.025 Y-27.378 E0.08257
G1 X-4.009 Y-33.413 E0.78661
G1 X-3.476 Y-31.984 F15000.000
G1 X1.129 Y-27.378 E0.60036 F960.000
G1 X0.234 Y-27.378 E0.08257
G1 X-2.943 Y-30.555 E0.41411
G1 X-2.410 Y-29.126 F15000.000
G1 X-0.662 Y-27.378 E0.22785 F960.000
G1 X-1.558 Y-27.378 E0.08257
G1 X-1.877 Y-27.698 E0.04160
G1 X15.771 Y-26.063 F15000.000
G1 X15.766 Y51.434 E14.94048 F960.000
G1 X15.483 Y54.694 E0.63089
G1 X15.401 Y55.166 E0.09232
G1 X14.664 Y57.823 E0.53152
G1 X14.380 Y58.552 E0.15074
G1 X13.453 Y60.364 E0.39246
G1 X11.322 Y62.973 F15000.000
G1 X10.863 Y63.364 E0.05482 F960.000
G1 X9.441 Y64.247 E0.15221
G1 X9.089 Y64.389 E0.03448
G1 X8.808 Y64.500 E0.05832 F960.000
G1 X6.788 Y64.886 E0.39644
G1 X4.775 Y64.488 E0.39561
G1 X4.426 Y64.350 E0.07232
G1 X4.415 Y64.378 F15000.000
G1 X2.738 Y63.337 E0.17948 F960.000
G1 X2.099 Y62.792 E0.07633
G1 X-1.001 Y57.903 F15000.000
G1 X-1.761 Y55.154 E0.54988 F960.000
G1 X-1.830 Y54.773 E0.07473
G1 X-2.122 Y51.431 E0.64670
G1 X-2.122 Y-25.625 E14.85551
G1 E-3.20000 F3000.00000
G1 Z0.750 F15000.000
G1 X-0.628 Y-42.846 F15000.000
G1 Z0.350 F15000.000
G1 E3.20000 F3000.00000
G1 X-7.989 Y-42.846 E0.66940 F960.000
G1 X-12.602 Y-55.206 E1.19962
G1 X-2.788 Y-55.206 E0.89234
G1 X6.813 Y-51.790 E0.92663
G1 X7.527 Y-51.728 E0.06519
G1 X8.291 Y-51.978 E0.07310
G1 X8.859 Y-52.510 E0.07073
G1 X9.129 Y-53.245 E0.07115
G1 X9.191 Y-55.206 E0.17846
G1 X16.296 Y-55.206 E0.64605
G1 X15.493 Y-42.846 E1.12630
G1 X9.250 Y-42.846 E0.56767
G1 X9.256 Y-43.019 E0.01578
G1 X8.912 Y-43.913 E0.08707
G1 X8.199 Y-44.557 E0.08740
G1 X1.199 Y-46.953 E0.67273
G1 X0.436 Y-46.944 E0.06942
G1 X-0.428 Y-46.573 E0.08547
G1 X-0.972 Y-45.913 E0.07777
G1 X-1.220 Y-45.229 E0.06612
G1 X-1.220 Y-44.500 E0.06626
G1 X-0.648 Y-42.902 E0.15434
G1 X0.260 Y-42.221 F15000.000
G1 X-8.423 Y-42.221 E0.78953 F960.000
G1 X-13.502 Y-55.831 E1.32092
G1 X-2.680 Y-55.831 E0.98399
G1 X6.947 Y-52.406 E0.92916
G1 X7.454 Y-52.362 E0.04629
G1 X7.965 Y-52.529 E0.04888
G1 X8.323 Y-52.865 E0.04466
G1 X8.507 Y-53.365 E0.04850
G1 X8.586 Y-55.831 E0.22432
G1 X16.963 Y-55.831 E0.76172
G1 X16.078 Y-42.221 E1.24018
G1 X8.604 Y-42.221 E0.67966
G1 X8.627 Y-42.913 E0.06300
G1 X8.382 Y-43.549 E0.06197
G1 X7.875 Y-44.008 E0.06216
G1 X1.099 Y-46.327 E0.65126
G1 X0.568 Y-46.321 E0.04827
G1 X-0.042 Y-46.058 E0.06036
G1 X-0.421 Y-45.598 E0.05421
G1 X-0.595 Y-45.119 E0.04634
G1 X-0.595 Y-44.609 E0.04641
G1 X0.239 Y-42.277 E0.22516
G1 E-3.20000 F3000.00000
G1 Z0.750 F15000.000
G1 X7.381 Y-52.995 F15000.000
G1 Z0.350 F15000.000
G1 E3.20000 F3000.00000
G1 X7.639 Y-53.080 E0.02466 F960.000
G1 X7.788 Y-53.219 E0.01859
G1 X7.886 Y-53.486 E0.02586
G1 X7.981 Y-56.456 E0.27017
G1 X17.630 Y-56.456 E0.87739
G1 X16.664 Y-41.596 E1.35407
G1 X7.958 Y-41.596 E0.79165
G1 X7.998 Y-42.807 E0.11021
G1 X7.853 Y-43.186 E0.03686
G1 X7.551 Y-43.458 E0.03693
G1 X0.998 Y-45.701 E0.62980
G1 X0.700 Y-45.697 E0.02712
G1 X0.344 Y-45.544 E0.03525
G1 X0.130 Y-45.284 E0.03064
G1 X0.030 Y-45.010 E0.02656
G1 X0.030 Y-44.717 E0.02657
G1 X1.147 Y-41.596 E0.30144
G1 X-8.857 Y-41.596 E0.90966
G1 X-14.402 Y-56.456 E1.44221
G1 X-2.572 Y-56.456 E1.07565
G1 X7.081 Y-53.021 E0.93168
G1 X7.321 Y-53.000 E0.02193
G1 X7.557 Y-52.789 F15000.000
G1 X6.535 Y-51.432 F15000.000
G1 X14.742 Y-43.224 E1.06103 F960.000
G1 X15.176 Y-43.679 E0.05744
G1 X7.499 Y-51.357 E0.99252
G1 X8.168 Y-51.576 E0.06437
G1 X15.230 Y-44.513 E0.91301
G1 X15.284 Y-45.348 E0.07642
G1 X8.707 Y-51.925 E0.85026
G1 X9.165 Y-52.355 E0.05745
G1 X15.339 Y-46.182 E0.79810
G1 X15.393 Y-47.016 E0.07642
G1 X9.404 Y-53.005 E0.77424
G1 X9.520 Y-53.777 E0.07137
G1 X15.447 Y-47.850 E0.76620
G1 X15.501 Y-48.684 E0.07642
G1 X9.548 Y-54.638 E0.76966
G1 X10.247 Y-54.828 E0.06618
G1 X15.556 Y-49.519 E0.68634
G1 X15.610 Y-50.353 E0.07642
G1 X11.135 Y-54.828 E0.57850
G1 X12.023 Y-54.828 E0.08121
G1 X15.664 Y-51.187 E0.47066
G1 X15.718 Y-52.021 E0.07642
G1 X12.912 Y-54.828 E0.36282
G1 X13.800 Y-54.828 E0.08121
G1 X15.773 Y-52.855 E0.25498
G1 X15.827 Y-53.690 E0.07642
G1 X14.689 Y-54.828 E0.14713
G1 X15.577 Y-54.828 E0.08121
G1 X15.881 Y-54.524 E0.03929
G1 X5.156 Y-51.923 F15000.000
G1 X13.854 Y-43.224 E1.12450 F960.000
G1 X12.966 Y-43.224 E0.08121
G1 X3.776 Y-52.414 E1.18796
G1 X2.397 Y-52.905 F15000.000
G1 X12.077 Y-43.224 E1.25142 F960.000
G1 X11.189 Y-43.224 E0.08121
G1 X1.018 Y-53.395 E1.31488
G1 X-0.361 Y-53.886 F15000.000
G1 X10.300 Y-43.224 E1.37831 F960.000
G1 X7.328 Y-45.308 F15000.000
G1 X-1.740 Y-54.377 E1.17230 F960.000
G1 X-3.080 Y-54.828 F15000.000
G1 X5.977 Y-45.771 E1.17087 F960.000
G1 X4.626 Y-46.233 F15000.000
G1 X-3.968 Y-54.828 E1.11110 F960.000
G1 X-4.857 Y-54.828 E0.08121
G1 X3.276 Y-46.695 E1.05134
G1 X1.925 Y-47.158 F15000.000
G1 X-5.745 Y-54.828 E0.99158 F960.000
G1 X-6.634 Y-54.828 E0.08121
G1 X0.868 Y-47.326 E0.96978
G1 X0.127 Y-47.178 E0.06904
G1 X-7.522 Y-54.828 E0.98889
G1 X-8.410 Y-54.828 E0.08121
G1 X-0.494 Y-46.911 E1.02343
G1 X-0.937 Y-46.466 E0.05743
G1 X-9.299 Y-54.828 E1.08102
G1 X-10.187 Y-54.828 E0.08121
G1 X-1.318 Y-45.959 E1.14655
G1 X-1.555 Y-45.307 E0.06340
G1 X-11.076 Y-54.828 E1.23084
G1 X-11.957 Y-54.820 E0.08053
G1 X-1.598 Y-44.462 E1.33908
G1 X-1.249 Y-43.224 E0.11755
G1 X-11.489 Y-53.464 E1.32379
G1 X-10.960 Y-52.047 F15000.000
G1 X-2.138 Y-43.224 E1.14057 F960.000
G1 X-3.026 Y-43.224 E0.08121
G1 X-10.431 Y-50.630 E0.95735
G1 X-9.903 Y-49.213 F15000.000
G1 X-3.914 Y-43.224 E0.77413 F960.000
G1 X-4.803 Y-43.224 E0.08121
G1 X-9.374 Y-47.795 E0.59091
G1 X-8.845 Y-46.378 F15000.000
G1 X-5.691 Y-43.224 E0.40769 F960.000
G1 X-6.580 Y-43.224 E0.08121
G1 X-8.316 Y-44.961 E0.22448
G1 X-7.787 Y-43.544 F15000.000
G1 X-7.468 Y-43.224 E0.04126 F960.000
G1 E-3.20000 F3000.00000
G1 Z0.750 F15000.000
G1 X9.452 Y-63.324 F15000.000
G1 Z0.350 F15000.000
G1 E3.20000 F3000.00000
G1 X-8.449 Y-63.324 E1.62770 F960.000
G1 X-7.309 Y-60.406 E0.28486
G1 X-14.541 Y-60.406 E0.65767
G1 X-16.196 Y-64.842 E0.43055
G1 X12.807 Y-64.842 E2.63718
G1 X14.611 Y-62.842 E0.24491
G1 X16.793 Y-62.842 E0.19843
G1 X16.634 Y-60.406 E0.22201
G1 X9.358 Y-60.406 E0.66163
G1 X9.450 Y-63.264 E0.26001
G1 X8.807 Y-62.699 F15000.000
G1 X-7.534 Y-62.699 E1.48582 F960.000
G1 X-6.394 Y-59.781 E0.28486
G1 X-14.975 Y-59.781 E0.78032
G1 X-17.096 Y-65.467 E0.55184
G1 X13.084 Y-65.467 E2.74429
G1 X14.888 Y-63.467 E0.24491
G1 X17.460 Y-63.467 E0.23380
G1 X17.220 Y-59.781 E0.33589
G1 X8.713 Y-59.781 E0.77356
G1 X8.805 Y-62.639 E0.26001
G1 X8.161 Y-62.074 F15000.000
G1 X-6.619 Y-62.074 E1.34393 F960.000
G1 X-5.479 Y-59.156 E0.28486
G1 X-15.409 Y-59.156 E0.90298
G1 X-17.996 Y-66.092 E0.67313
G1 X13.362 Y-66.092 E2.85139
G1 X15.166 Y-64.092 E0.24491
G1 X18.127 Y-64.092 E0.26917
G1 X17.806 Y-59.156 E0.44978
G1 X8.067 Y-59.156 E0.88549
G1 X8.160 Y-62.014 E0.26001
G1 X8.166 Y-62.474 F15000.000
G1 X9.755 Y-61.089 F15000.000
G1 X10.059 Y-60.784 E0.04261 F960.000
G1 X11.021 Y-60.784 E0.09516
G1 X9.785 Y-62.021 E0.17299
G1 X9.815 Y-62.952 E0.09224
G1 X11.983 Y-60.784 E0.30337
G1 X12.944 Y-60.784 E0.09516
G1 X10.168 Y-63.561 E0.38855
G1 X10.227 Y-64.464 E0.08952
G1 X13.906 Y-60.784 E0.51488
G1 X14.868 Y-60.784 E0.09516
G1 X11.188 Y-64.464 E0.51488
G1 X12.150 Y-64.464 E0.09516
G1 X15.829 Y-60.784 E0.51488
G1 X16.319 Y-61.257 E0.06730
G1 X15.112 Y-62.464 E0.16890
G1 X16.073 Y-62.464 E0.09516
G1 X16.377 Y-62.160 E0.04253
G1 X9.789 Y-64.083 F15000.000
G1 X-9.081 Y-64.083 E3.63787 F960.000
G1 X-9.459 Y-64.159 F15000.000
G1 X-9.764 Y-64.464 E0.04404 F960.000
G1 X-10.756 Y-64.464 E0.10123
G1 X-8.468 Y-62.175 E0.33027
G1 X-8.069 Y-60.784 F15000.000
G1 X-11.748 Y-64.464 E0.53103 F960.000
G1 X-12.740 Y-64.464 E0.10123
G1 X-9.061 Y-60.784 E0.53103
G1 X-10.052 Y-60.784 E0.10123
G1 X-13.732 Y-64.464 E0.53103
G1 X-14.724 Y-64.464 E0.10123
G1 X-11.044 Y-60.784 E0.53103
G1 X-12.036 Y-60.784 E0.10123
G1 X-15.519 Y-64.267 E0.50268
G1 X-14.929 Y-62.685 F15000.000
G1 X-13.028 Y-60.784 E0.27437 F960.000
G1 X-14.020 Y-60.784 E0.10123
G1 X-14.339 Y-61.104 E0.04606
G1 E-3.20000 F3000.00000
G1 Z0.750 F15000.000
G1 X-8.045 Y-40.834 F15000.000
G1 Z0.350 F15000.000
G1 E3.20000 F3000.00000
G1 X-8.329 Y-40.268 E0.05753 F960.000
G1 X-7.732 Y-38.670 E0.15515
G1 X-6.647 Y-40.834 E0.22012
G1 X-5.249 Y-40.834 E0.12712
G1 X-6.340 Y-38.658 E0.22124
G1 X-4.942 Y-38.658 E0.12712
G1 X-3.851 Y-40.834 E0.22124
G1 X-2.996 Y-39.750 E0.12549
G1 X-3.544 Y-38.658 E0.11106
G1 X-1.994 Y-38.960 F15000.000
G1 X-1.055 Y-40.834 E0.19055 F960.000
G1 X0.343 Y-40.834 E0.12712
G1 X-0.748 Y-38.658 E0.22124
G1 X0.650 Y-38.658 E0.12712
G1 X1.741 Y-40.834 E0.22124
G1 X2.734 Y-40.026 E0.11640
G1 X2.048 Y-38.658 E0.13912
G1 E-3.20000 F3000.00000
G1 Z0.750 F15000.000
G1 X7.000 Y-40.170 F15000.000
G1 Z0.350 F15000.000
G1 E3.20000 F3000.00000
G1 X7.332 Y-40.834 E0.06752 F960.000
G1 X8.730 Y-40.834 E0.12712
G1 X7.640 Y-38.658 E0.22124
G1 X9.038 Y-38.658 E0.12712
G1 X10.128 Y-40.834 E0.22124
G1 X11.526 Y-40.834 E0.12712
G1 X10.436 Y-38.658 E0.22124
G1 X11.834 Y-38.658 E0.12712
G1 X12.924 Y-40.834 E0.22124
G1 X14.322 Y-40.834 E0.12712
G1 X13.232 Y-38.658 E0.22124
G1 X14.630 Y-38.658 E0.12712
G1 X15.720 Y-40.834 E0.22124
G1 X16.533 Y-39.665 E0.12939
G1 X16.028 Y-38.658 E0.10241
G1 E-3.20000 F3000.00000
G1 Z0.750 F15000.000
G1 X15.323 Y-25.957 F15000.000
G1 Z0.550 F15000.000
G1 E3.20000 F3000.00000
G1 X15.323 Y51.503 E2.29988 F4800.000
G1 X15.046 Y54.646 E0.09371
G1 X14.228 Y57.612 E0.09135
G1 X12.915 Y60.180 E0.08563
G1 X11.177 Y62.182 E0.07871
G1 X9.112 Y63.465 E0.07220
G1 X6.856 Y63.911 E0.06827
G1 X4.600 Y63.465 E0.06827
G1 X2.534 Y62.182 E0.07220
G1 X0.797 Y60.180 E0.07871
G1 X-0.516 Y57.612 E0.08563
G1 X-1.337 Y54.646 E0.09137
G1 X-1.611 Y51.502 E0.09371
G1 X-1.611 Y-25.957 E2.29987
G1 X15.263 Y-25.957 E0.50102
G1 X14.966 Y-25.600 F15000.000
G1 X14.966 Y51.487 E2.28881 F4800.000
G1 X14.694 Y54.583 E0.09228
G1 X13.893 Y57.482 E0.08930
G1 X12.617 Y59.979 E0.08326
G1 X10.943 Y61.907 E0.07581
