; generated by Slic3r 1.2.9 on 2018-05-06 at 13:48:16

; external perimeters extrusion width = 0.40mm
; perimeters extrusion width = 0.40mm
; infill extrusion width = 0.40mm
; solid infill extrusion width = 0.40mm
; top infill extrusion width = 0.40mm
; support material extrusion width = 0.40mm

M107
M83
T0
M116


G21 ; set units to millimeters
G90 ; use absolute coordinates
M83 ; use relative distances for extrusion
G1 E-3.20000 F3000.00000
G1 Z0.400 F15000.000
G1 X0.000 Y19.625 F15000.000
G1 Z0.350 F15000.000
G1 E3.20000 F3000.00000
G1 X-39.304 Y19.625 E3.57391 F960.000
G1 X-42.185 Y19.227 E0.26448
G1 X-44.851 Y18.062 E0.26448
G1 X-47.100 Y16.219 E0.26448
G1 X-48.766 Y13.834 E0.26448
G1 X-49.722 Y11.087 E0.26448
G1 X-49.929 Y9.000 E0.19071
G1 X-49.929 Y-9.000 E1.63673
G1 X-49.531 Y-11.881 E0.26448
G1 X-48.366 Y-14.547 E0.26448
G1 X-46.523 Y-16.796 E0.26448
G1 X-44.138 Y-18.462 E0.26448
G1 X-41.391 Y-19.418 E0.26448
G1 X-39.304 Y-19.625 E0.19071
G1 X39.304 Y-19.625 E7.14783
G1 X42.185 Y-19.227 E0.26448
G1 X44.851 Y-18.062 E0.26448 F960.000
G1 X47.100 Y-16.219 E0.26448
G1 X48.766 Y-13.834 E0.26448
G1 X49.722 Y-11.087 E0.26448
G1 X49.929 Y-9.000 E0.19071
G1 X49.929 Y9.000 E1.63673
G1 X49.531 Y11.881 E0.26448
G1 X48.366 Y14.547 E0.26448
G1 X46.523 Y16.796 E0.26448
G1 X44.138 Y18.462 E0.26448
G1 X41.391 Y19.418 E0.26448
G1 X39.304 Y19.625 E0.19071
G1 X0.060 Y19.625 E3.56846
G1 E-3.20000 F3000.00000
G1 Z0.750 F15000.000
G1 X-28.855 Y2.519 F15000.000
G1 Z0.350 F15000.000
G1 E3.20000 F3000.00000
G1 X-29.217 Y1.850 E0.06916 F960.000
G1 X-29.464 Y1.131 E0.06916
G1 X-29.590 Y0.380 E0.06916
G1 X-29.590 Y-0.380 E0.06916
G1 X-29.464 Y-1.131 E0.06916
G1 X-29.217 Y-1.850 E0.06916
G1 X-28.855 Y-2.519 E0.06916
G1 X-28.388 Y-3.119 E0.06916
G1 X-27.829 Y-3.634 E0.06916
G1 X-27.192 Y-4.050 E0.06916
G1 X-26.495 Y-4.356 E0.06916
G1 X-25.714 Y-4.554 E0.07328
G1 X-25.056 Y-4.600 E0.05997
G1 X25.066 Y-4.600 E4.55760 F960.000
G1 X25.758 Y-4.542 E0.06312
G1 X26.495 Y-4.356 E0.06916
G1 X27.192 Y-4.050 E0.06916
G1 X27.829 Y-3.634 E0.06916
G1 X28.388 Y-3.119 E0.06916
G1 X28.855 Y-2.519 E0.06916
G1 X29.200 Y-1.882 E0.06587
G1 X29.463 Y-1.138 E0.07175
G1 X29.590 Y-0.380 E0.06983
G1 X29.590 Y0.380 E0.06916
G1 X29.464 Y1.131 E0.06916
G1 X29.217 Y1.850 E0.06916
G1 X28.855 Y2.519 E0.06916
G1 X28.388 Y3.119 E0.06916
G1 X27.829 Y3.634 E0.06916
G1 X27.192 Y4.050 E0.06916
G1 X26.495 Y4.356 E0.06916
G1 X25.758 Y4.542 E0.06916
G1 X25.066 Y4.600 E0.06312
G1 X-25.066 Y4.600 E4.55851
G1 X-25.758 Y4.542 E0.06312
G1 X-26.495 Y4.356 E0.06916
G1 X-27.192 Y4.050 E0.06916
G1 X-27.829 Y3.634 E0.06916
G1 X-28.388 Y3.119 E0.06916
G1 X-28.819 Y2.566 E0.06370
G1 X-28.330 Y2.176 F15000.000
G1 X-28.643 Y1.598 E0.05974 F960.000
G1 X-28.856 Y0.977 E0.05974
G1 X-28.965 Y0.329 E0.05974
G1 X-28.965 Y-0.329 E0.05975
G1 X-28.856 Y-0.977 E0.05974
G1 X-28.643 Y-1.598 E0.05974
G1 X-28.330 Y-2.176 E0.05974
G1 X-27.927 Y-2.694 E0.05974
G1 X-27.443 Y-3.139 E0.05974
G1 X-26.893 Y-3.499 E0.05974
G1 X-26.292 Y-3.763 E0.05974
G1 X-25.615 Y-3.934 E0.06351
G1 X-25.034 Y-3.975 E0.05291
G1 X25.040 Y-3.975 E4.55325 F960.000
G1 X25.655 Y-3.924 E0.05607
G1 X26.292 Y-3.763 E0.05974
G1 X26.893 Y-3.499 E0.05974
G1 X27.443 Y-3.139 E0.05974
G1 X27.927 Y-2.694 E0.05975
G1 X28.330 Y-2.176 E0.05974
G1 X28.627 Y-1.627 E0.05671
G1 X28.856 Y-0.981 E0.06234
G1 X28.965 Y-0.329 E0.06015
G1 X28.965 Y0.329 E0.05975
G1 X28.856 Y0.977 E0.05974
G1 X28.643 Y1.598 E0.05974
G1 X28.330 Y2.176 E0.05974
G1 X27.927 Y2.694 E0.05974
G1 X27.443 Y3.139 E0.05975
G1 X26.893 Y3.499 E0.05974
G1 X26.292 Y3.763 E0.05974
G1 X25.655 Y3.924 E0.05974
G1 X25.040 Y3.975 E0.05607
G1 X-25.040 Y3.975 E4.55381
G1 X-25.655 Y3.924 E0.05607
G1 X-26.292 Y3.763 E0.05974
G1 X-26.893 Y3.499 E0.05974
G1 X-27.443 Y3.139 E0.05974
G1 X-27.927 Y2.694 E0.05974
G1 X-28.294 Y2.223 E0.05429
G1 X-27.806 Y1.833 F15000.000
G1 X-28.069 Y1.346 E0.05033 F960.000
G1 X-28.249 Y0.823 E0.05033
G1 X-28.340 Y0.277 E0.05033
G1 X-28.340 Y-0.277 E0.05033
G1 X-28.249 Y-0.823 E0.05033
G1 X-28.069 Y-1.346 E0.05033
G1 X-27.806 Y-1.833 E0.05033
G1 X-27.466 Y-2.270 E0.05033
G1 X-27.058 Y-2.645 E0.05033
G1 X-26.595 Y-2.947 E0.05033
G1 X-26.088 Y-3.170 E0.05033
G1 X-25.515 Y-3.315 E0.05373
G1 X-25.012 Y-3.350 E0.04585
G1 X25.014 Y-3.350 E4.54891 F960.000
G1 X25.552 Y-3.305 E0.04901
G1 X26.088 Y-3.170 E0.05033
G1 X26.595 Y-2.947 E0.05033
G1 X27.058 Y-2.645 E0.05033
G1 X27.466 Y-2.270 E0.05033
G1 X27.806 Y-1.833 E0.05033
G1 X28.054 Y-1.373 E0.04755
G1 X28.248 Y-0.824 E0.05292
G1 X28.340 Y-0.277 E0.05047
G1 X28.340 Y0.277 E0.05033
G1 X28.249 Y0.823 E0.05033
G1 X28.069 Y1.346 E0.05033
G1 X27.806 Y1.833 E0.05033
G1 X27.466 Y2.270 E0.05033
G1 X27.058 Y2.645 E0.05033
G1 X26.595 Y2.947 E0.05033
G1 X26.088 Y3.170 E0.05033
G1 X25.552 Y3.305 E0.05033
G1 X25.014 Y3.350 E0.04901
G1 X-25.014 Y3.350 E4.54911
G1 X-25.552 Y3.305 E0.04901
G1 X-26.088 Y3.170 E0.05033
G1 X-26.595 Y2.947 E0.05033
G1 X-27.058 Y2.645 E0.05033
G1 X-27.466 Y2.270 E0.05033
G1 X-27.769 Y1.880 E0.04487
G1 X-28.205 Y1.844 F15000.000
G1 X-37.704 Y7.400 F15000.000
G1 X-37.704 Y-7.400 E1.34580 F960.000
G1 X37.704 Y-7.400 E6.85689
G1 X37.704 Y7.400 E1.34580
G1 X-37.644 Y7.400 E6.85144
G1 X-38.329 Y8.025 F15000.000
G1 X-38.329 Y-8.025 E1.45944 F960.000
G1 X38.329 Y-8.025 E6.97054
G1 X38.329 Y8.025 E1.45944
G1 X-38.269 Y8.025 E6.96508
G1 X-38.954 Y8.650 F15000.000
G1 X-38.954 Y-8.650 E1.57308 F960.000
G1 X38.954 Y-8.650 E7.08418
G1 X38.954 Y8.650 E1.57308
G1 X-38.894 Y8.650 E7.07872
G1 X-38.754 Y8.304 F15000.000
G1 X-37.326 Y6.717 F15000.000
G1 X-37.021 Y7.022 E0.03950 F960.000
G1 X-36.131 Y7.022 E0.08146
G1 X-37.326 Y5.827 E0.15469
G1 X-37.326 Y4.937 E0.08146
G1 X-35.241 Y7.022 E0.26989
G1 X-34.352 Y7.022 E0.08146
G1 X-37.326 Y4.047 E0.38508
G1 X-37.326 Y3.158 E0.08146
G1 X-33.462 Y7.022 E0.50028
G1 X-32.572 Y7.022 E0.08146
G1 X-37.326 Y2.268 E0.61547
G1 X-37.326 Y1.378 E0.08146
G1 X-31.682 Y7.022 E0.73067
G1 X-30.793 Y7.022 E0.08146
G1 X-37.326 Y0.488 E0.84586
G1 X-37.326 Y-0.401 E0.08146
G1 X-29.903 Y7.022 E0.96106
G1 X-29.013 Y7.022 E0.08146
G1 X-37.326 Y-1.291 E1.07625
G1 X-37.326 Y-2.181 E0.08146
G1 X-28.123 Y7.022 E1.19145
G1 X-27.234 Y7.022 E0.08146
G1 X-37.326 Y-3.071 E1.30664
G1 X-37.326 Y-3.960 E0.08146
G1 X-26.344 Y7.022 E1.42184
G1 E-3.20000 F3000.00000
G1 Z0.750 F15000.000
G1 X24.564 Y-7.022 F15000.000
G1 Z0.350 F15000.000
G1 E3.20000 F3000.00000
G1 X26.943 Y-4.643 E0.30793 F960.000
G1 X25.763 Y-4.933 E0.11123
G1 X23.675 Y-7.022 E0.27037
G1 X22.785 Y-7.022 E0.08146
G1 X24.828 Y-4.978 E0.26454
G1 X23.938 Y-4.978 E0.08146
G1 X21.895 Y-7.022 E0.26454
G1 X21.005 Y-7.022 E0.08146
G1 X23.049 Y-4.978 E0.26454
G1 X22.159 Y-4.978 E0.08146
G1 X20.116 Y-7.022 E0.26454
G1 X19.226 Y-7.022 E0.08146
G1 X21.269 Y-4.978 E0.26454
G1 X20.379 Y-4.978 E0.08146
G1 X18.336 Y-7.022 E0.26454
G1 X17.446 Y-7.022 E0.08146
G1 X19.490 Y-4.978 E0.26454
G1 X18.600 Y-4.978 E0.08146
G1 X16.557 Y-7.022 E0.26454
G1 X15.667 Y-7.022 E0.08146
G1 X17.710 Y-4.978 E0.26454
G1 X16.820 Y-4.978 E0.08146
G1 X14.777 Y-7.022 E0.26454
G1 X13.887 Y-7.022 E0.08146
G1 X15.931 Y-4.978 E0.26454
G1 X15.041 Y-4.978 E0.08146
G1 X12.998 Y-7.022 E0.26454
G1 X12.108 Y-7.022 E0.08146
G1 X14.151 Y-4.978 E0.26454
G1 X13.261 Y-4.978 E0.08146
G1 X11.218 Y-7.022 E0.26454
G1 X10.328 Y-7.022 E0.08146
G1 X12.372 Y-4.978 E0.26454
G1 X11.482 Y-4.978 E0.08146
G1 X9.439 Y-7.022 E0.26454
G1 X8.549 Y-7.022 E0.08146
G1 X10.592 Y-4.978 E0.26454
G1 X9.702 Y-4.978 E0.08146
G1 X7.659 Y-7.022 E0.26454
G1 X6.769 Y-7.022 E0.08146
G1 X8.813 Y-4.978 E0.26454
G1 X7.923 Y-4.978 E0.08146
G1 X5.880 Y-7.022 E0.26454
G1 X4.990 Y-7.022 E0.08146
G1 X7.033 Y-4.978 E0.26454
G1 X6.143 Y-4.978 E0.08146
G1 X4.100 Y-7.022 E0.26454
G1 X3.210 Y-7.022 E0.08146
G1 X5.254 Y-4.978 E0.26454
G1 X4.364 Y-4.978 E0.08146
G1 X2.321 Y-7.022 E0.26454
G1 X1.431 Y-7.022 E0.08146
G1 X3.474 Y-4.978 E0.26454
G1 X2.584 Y-4.978 E0.08146
G1 X0.541 Y-7.022 E0.26454
G1 X-0.349 Y-7.022 E0.08146
G1 X1.695 Y-4.978 E0.26454
G1 X0.805 Y-4.978 E0.08146
G1 X-1.238 Y-7.022 E0.26454
G1 X-2.128 Y-7.022 E0.08146
G1 X-0.085 Y-4.978 E0.26454
G1 X-0.975 Y-4.978 E0.08146
G1 X-3.018 Y-7.022 E0.26454
G1 X-3.908 Y-7.022 E0.08146
G1 X-1.864 Y-4.978 E0.26454
G1 X-2.754 Y-4.978 E0.08146
G1 X-4.797 Y-7.022 E0.26454
G1 X-5.687 Y-7.022 E0.08146
G1 X-3.644 Y-4.978 E0.26454
G1 X-4.534 Y-4.978 E0.08146
G1 X-6.577 Y-7.022 E0.26454
G1 X-7.467 Y-7.022 E0.08146
G1 X-5.423 Y-4.978 E0.26454
G1 X-6.313 Y-4.978 E0.08146
G1 X-8.356 Y-7.022 E0.26454
G1 X-9.246 Y-7.022 E0.08146
G1 X-7.203 Y-4.978 E0.26454
G1 X-8.092 Y-4.978 E0.08146
G1 X-10.136 Y-7.022 E0.26454
G1 X-11.026 Y-7.022 E0.08146
G1 X-8.982 Y-4.978 E0.26454
G1 X-9.872 Y-4.978 E0.08146
G1 X-11.915 Y-7.022 E0.26454
G1 X-12.805 Y-7.022 E0.08146
G1 X-10.762 Y-4.978 E0.26454
G1 X-11.651 Y-4.978 E0.08146
G1 X-13.695 Y-7.022 E0.26454
G1 X-14.585 Y-7.022 E0.08146
G1 X-12.541 Y-4.978 E0.26454
G1 X-13.431 Y-4.978 E0.08146
G1 X-15.474 Y-7.022 E0.26454
G1 X-16.364 Y-7.022 E0.08146
G1 X-14.321 Y-4.978 E0.26454
G1 X-15.210 Y-4.978 E0.08146
G1 X-17.254 Y-7.022 E0.26454
G1 X-18.143 Y-7.022 E0.08146
G1 X-16.100 Y-4.978 E0.26454
G1 X-16.990 Y-4.978 E0.08146
G1 X-19.033 Y-7.022 E0.26454
G1 X-19.923 Y-7.022 E0.08146
G1 X-17.880 Y-4.978 E0.26454
G1 X-18.769 Y-4.978 E0.08146
G1 X-20.813 Y-7.022 E0.26454
G1 X-21.702 Y-7.022 E0.08146
G1 X-19.659 Y-4.978 E0.26454
G1 X-20.549 Y-4.978 E0.08146
G1 X-22.592 Y-7.022 E0.26454
G1 X-23.482 Y-7.022 E0.08146
G1 X-21.439 Y-4.978 E0.26454
G1 X-22.328 Y-4.978 E0.08146
G1 X-24.372 Y-7.022 E0.26454
G1 X-25.261 Y-7.022 E0.08146
G1 X-23.218 Y-4.978 E0.26454
G1 X-24.108 Y-4.978 E0.08146
G1 X-26.151 Y-7.022 E0.26454
G1 X-27.041 Y-7.022 E0.08146
G1 X-24.994 Y-4.975 E0.26502
G1 X-25.802 Y-4.893 E0.07432
G1 X-27.931 Y-7.022 E0.27565
G1 X-28.820 Y-7.022 E0.08146
G1 X-26.512 Y-4.713 E0.29893
G1 X-27.132 Y-4.444 E0.06194
G1 X-29.710 Y-7.022 E0.33376
G1 X-30.600 Y-7.022 E0.08146
G1 X-27.693 Y-4.114 E0.37640
G1 X-28.200 Y-3.732 E0.05817
G1 X-31.490 Y-7.022 E0.42588
G1 X-32.379 Y-7.022 E0.08146
G1 X-28.659 Y-3.301 E0.48172
G1 X-29.048 Y-2.801 E0.05804
G1 X-33.269 Y-7.022 E0.54650
G1 X-34.159 Y-7.022 E0.08146
G1 X-29.381 Y-2.244 E0.61858
G1 X-29.656 Y-1.629 E0.06167
G1 X-35.049 Y-7.022 E0.69823
G1 X-35.938 Y-7.022 E0.08146
G1 X-29.859 Y-0.942 E0.78707
G1 X-29.968 Y-0.162 E0.07218
G1 X-36.828 Y-7.022 E0.88816
G1 X-37.326 Y-6.630 E0.05800
G1 X-29.933 Y0.763 E0.95709
G1 X-29.637 Y1.949 E0.11198
G1 X-37.326 Y-5.740 E0.99552
G1 X-37.326 Y-4.850 E0.08146
G1 X-25.454 Y7.022 E1.53703
G1 X-24.564 Y7.022 E0.08146
G1 X-26.943 Y4.643 E0.30794
G1 X-25.763 Y4.933 E0.11124
G1 X-23.675 Y7.022 E0.27037
G1 X-22.785 Y7.022 E0.08146
G1 X-24.828 Y4.978 E0.26454
G1 X-23.938 Y4.978 E0.08146
G1 X-21.895 Y7.022 E0.26454
G1 X-21.005 Y7.022 E0.08146
G1 X-23.049 Y4.978 E0.26454
G1 X-22.159 Y4.978 E0.08146
G1 X-20.116 Y7.022 E0.26454
G1 X-19.226 Y7.022 E0.08146
G1 X-21.269 Y4.978 E0.26454
G1 X-20.379 Y4.978 E0.08146
G1 X-18.336 Y7.022 E0.26454
G1 X-17.446 Y7.022 E0.08146
G1 X-19.490 Y4.978 E0.26454
G1 X-18.600 Y4.978 E0.08146
G1 X-16.557 Y7.022 E0.26454
G1 X-15.667 Y7.022 E0.08146
G1 X-17.710 Y4.978 E0.26454
G1 X-16.820 Y4.978 E0.08146
G1 X-14.777 Y7.022 E0.26454
G1 X-13.887 Y7.022 E0.08146
G1 X-15.931 Y4.978 E0.26454
G1 X-15.041 Y4.978 E0.08146
G1 X-12.998 Y7.022 E0.26454
G1 X-12.108 Y7.022 E0.08146
G1 X-14.151 Y4.978 E0.26454
G1 X-13.261 Y4.978 E0.08146
G1 X-11.218 Y7.022 E0.26454
G1 X-10.328 Y7.022 E0.08146
G1 X-12.372 Y4.978 E0.26454
G1 X-11.482 Y4.978 E0.08146
G1 X-9.439 Y7.022 E0.26454
G1 X-8.549 Y7.022 E0.08146
G1 X-10.592 Y4.978 E0.26454
G1 X-9.702 Y4.978 E0.08146
G1 X-7.659 Y7.022 E0.26454
G1 X-6.769 Y7.022 E0.08146
G1 X-8.813 Y4.978 E0.26454
G1 X-7.923 Y4.978 E0.08146
G1 X-5.880 Y7.022 E0.26454
G1 X-4.990 Y7.022 E0.08146
G1 X-7.033 Y4.978 E0.26454
G1 X-6.143 Y4.978 E0.08146
G1 X-4.100 Y7.022 E0.26454
G1 X-3.210 Y7.022 E0.08146
G1 X-5.254 Y4.978 E0.26454
G1 X-4.364 Y4.978 E0.08146
G1 X-2.321 Y7.022 E0.26454
G1 X-1.431 Y7.022 E0.08146
G1 X-3.474 Y4.978 E0.26454
G1 X-2.585 Y4.978 E0.08146
G1 X-0.541 Y7.022 E0.26454
G1 X0.349 Y7.022 E0.08146
G1 X-1.695 Y4.978 E0.26454
G1 X-0.805 Y4.978 E0.08146
G1 X1.238 Y7.022 E0.26454
G1 X2.128 Y7.022 E0.08146
G1 X0.085 Y4.978 E0.26454
G1 X0.974 Y4.978 E0.08146
G1 X3.018 Y7.022 E0.26454
G1 X3.908 Y7.022 E0.08146
G1 X1.864 Y4.978 E0.26454
G1 X2.754 Y4.978 E0.08146
G1 X4.797 Y7.022 E0.26454
G1 X5.687 Y7.022 E0.08146
G1 X3.644 Y4.978 E0.26454
G1 X4.533 Y4.978 E0.08146
G1 X6.577 Y7.022 E0.26454
G1 X7.466 Y7.022 E0.08146
G1 X5.423 Y4.978 E0.26454
G1 X6.313 Y4.978 E0.08146
G1 X8.356 Y7.022 E0.26454
G1 X9.246 Y7.022 E0.08146
G1 X7.203 Y4.978 E0.26454
G1 X8.092 Y4.978 E0.08146
G1 X10.136 Y7.022 E0.26454
G1 X11.025 Y7.022 E0.08146
G1 X8.982 Y4.978 E0.26454
G1 X9.872 Y4.978 E0.08146
G1 X11.915 Y7.022 E0.26454
G1 X12.805 Y7.022 E0.08146
G1 X10.762 Y4.978 E0.26454
G1 X11.651 Y4.978 E0.08146
G1 X13.695 Y7.022 E0.26454
G1 X14.584 Y7.022 E0.08146
G1 X12.541 Y4.978 E0.26454
G1 X13.431 Y4.978 E0.08146
G1 X15.474 Y7.022 E0.26454
G1 X16.364 Y7.022 E0.08146
G1 X14.321 Y4.978 E0.26454
G1 X15.210 Y4.978 E0.08146
G1 X17.254 Y7.022 E0.26454
G1 X18.143 Y7.022 E0.08146
G1 X16.100 Y4.978 E0.26454
G1 X16.990 Y4.978 E0.08146
G1 X19.033 Y7.022 E0.26454
G1 X19.923 Y7.022 E0.08146
G1 X17.880 Y4.978 E0.26454
G1 X18.769 Y4.978 E0.08146
G1 X20.813 Y7.022 E0.26454
G1 X21.702 Y7.022 E0.08146
G1 X19.659 Y4.978 E0.26454
G1 X20.549 Y4.978 E0.08146
G1 X22.592 Y7.022 E0.26454
G1 X23.482 Y7.022 E0.08146
G1 X21.439 Y4.978 E0.26454
G1 X22.328 Y4.978 E0.08146
G1 X24.372 Y7.022 E0.26454
G1 X25.261 Y7.022 E0.08146
G1 X23.218 Y4.978 E0.26454
G1 X24.108 Y4.978 E0.08146
G1 X26.151 Y7.022 E0.26454
G1 X27.041 Y7.022 E0.08146
G1 X24.994 Y4.975 E0.26497
G1 X25.802 Y4.893 E0.07429
G1 X27.931 Y7.022 E0.27565
G1 X28.820 Y7.022 E0.08146
G1 X26.512 Y4.713 E0.29893
G1 X27.132 Y4.444 E0.06194
G1 X29.710 Y7.022 E0.33375
G1 X30.600 Y7.022 E0.08146
G1 X27.693 Y4.114 E0.37640
G1 X28.200 Y3.732 E0.05817
G1 X31.490 Y7.022 E0.42588
G1 X32.379 Y7.022 E0.08146
G1 X28.659 Y3.301 E0.48172
G1 X29.048 Y2.801 E0.05804
G1 X33.269 Y7.022 E0.54650
G1 X34.159 Y7.022 E0.08146
G1 X29.381 Y2.244 E0.61858
G1 X29.656 Y1.629 E0.06167
G1 X35.049 Y7.022 E0.69822
G1 X35.938 Y7.022 E0.08146
G1 X29.859 Y0.943 E0.78706
G1 X29.968 Y0.162 E0.07218
G1 X36.828 Y7.022 E0.88816
G1 X37.326 Y6.630 E0.05800
G1 X29.933 Y-0.763 E0.95709
G1 X29.631 Y-1.955 E0.11266
G1 X37.326 Y5.740 E0.99631
G1 X37.326 Y4.850 E0.08146
G1 X25.454 Y-7.022 E1.53704
G1 X26.344 Y-7.022 E0.08146
G1 X37.326 Y3.960 E1.42184
G1 X37.326 Y3.071 E0.08146
G1 X27.234 Y-7.022 E1.30665
G1 X28.123 Y-7.022 E0.08146
G1 X37.326 Y2.181 E1.19145
G1 X37.326 Y1.291 E0.08146
G1 X29.013 Y-7.022 E1.07626
G1 X29.903 Y-7.022 E0.08146
G1 X37.326 Y0.401 E0.96106
G1 X37.326 Y-0.488 E0.08146
G1 X30.793 Y-7.022 E0.84587
G1 X31.682 Y-7.022 E0.08146
G1 X37.326 Y-1.378 E0.73067
G1 X37.326 Y-2.268 E0.08146
G1 X32.572 Y-7.022 E0.61548
G1 X33.462 Y-7.022 E0.08146
G1 X37.326 Y-3.158 E0.50028
G1 X37.326 Y-4.047 E0.08146
G1 X34.351 Y-7.022 E0.38509
G1 X35.241 Y-7.022 E0.08146
G1 X37.326 Y-4.937 E0.26989
G1 X37.326 Y-5.827 E0.08146
G1 X36.131 Y-7.022 E0.15470
G1 X37.021 Y-7.022 E0.08146
G1 X37.326 Y-6.717 E0.03950
G1 E-3.20000 F3000.00000
G1 Z0.750 F15000.000
G1 X-28.279 Y2.143 F15000.000
G1 Z0.550 F15000.000
G1 E3.20000 F3000.00000
G1 X-28.587 Y1.574 E0.01921 F4800.000
G1 X-28.797 Y0.962 E0.01921
G1 X-28.904 Y0.323 E0.01921
G1 X-28.904 Y-0.323 E0.01921
G1 X-28.797 Y-0.962 E0.01921
G1 X-28.587 Y-1.574 E0.01921
G1 X-28.279 Y-2.143 E0.01921
G1 X-27.882 Y-2.653 E0.01921
G1 X-27.406 Y-3.091 E0.01921
G1 X-26.864 Y-3.445 E0.01921
G1 X-26.272 Y-3.705 E0.01921
G1 X-25.645 Y-3.864 E0.01921
G1 X-25.038 Y-3.914 E0.01808
G1 X25.038 Y-3.914 E1.48681 F4800.000
G1 X25.645 Y-3.864 E0.01808
G1 X26.272 Y-3.705 E0.01921
G1 X26.864 Y-3.445 E0.01921
G1 X27.336 Y-3.137 E0.01671
G1 X27.876 Y-2.661 E0.02139
G1 X28.279 Y-2.143 E0.01950
G1 X28.587 Y-1.574 E0.01921
G1 X28.770 Y-1.041 E0.01671
G1 X28.904 Y-0.333 E0.02139
G1 X28.904 Y0.323 E0.01950
