; generated by Slic3r 1.2.9 on 2018-05-06 at 13:49:23

; external perimeters extrusion width = 0.40mm
; perimeters extrusion width = 0.40mm
; infill extrusion width = 0.40mm
; solid infill extrusion width = 0.40mm
; top infill extrusion width = 0.40mm
; support material extrusion width = 0.40mm

M107
M83
T0
M116


G21 ; set units to millimeters
G90 ; use absolute coordinates
M83 ; use relative distances for extrusion
G1 E-3.20000 F3000.00000
G1 Z0.400 F15000.000
G1 X0.000 Y-19.625 F15000.000
G1 Z0.350 F15000.000
G1 E3.20000 F3000.00000
G1 X44.304 Y-19.625 E4.02856 F960.000
G1 X47.185 Y-19.227 E0.26448
G1 X49.851 Y-18.062 E0.26448 F960.000
G1 X52.100 Y-16.219 E0.26448
G1 X53.766 Y-13.834 E0.26448
G1 X54.722 Y-11.087 E0.26448
G1 X54.929 Y-9.000 E0.19071
G1 X54.929 Y9.000 E1.63673
G1 X54.531 Y11.881 E0.26448
G1 X53.366 Y14.547 E0.26448
G1 X51.523 Y16.796 E0.26448
G1 X49.138 Y18.462 E0.26448
G1 X46.391 Y19.418 E0.26448
G1 X44.304 Y19.625 E0.19071
G1 X-44.304 Y19.625 E8.05712
G1 X-47.185 Y19.227 E0.26448
G1 X-49.851 Y18.062 E0.26448
G1 X-52.100 Y16.219 E0.26448
G1 X-53.766 Y13.834 E0.26448
G1 X-54.722 Y11.087 E0.26448
G1 X-54.929 Y9.000 E0.19071
G1 X-54.929 Y-9.000 E1.63673
G1 X-54.531 Y-11.881 E0.26448
G1 X-53.366 Y-14.547 E0.26448
G1 X-51.523 Y-16.796 E0.26448
G1 X-49.138 Y-18.462 E0.26448
G1 X-46.391 Y-19.418 E0.26448
G1 X-44.304 Y-19.625 E0.19071
G1 X-0.060 Y-19.625 E4.02311
G1 E-3.20000 F3000.00000
G1 Z0.750 F15000.000
G1 X-3.703 Y-2.739 F15000.000
G1 Z0.350 F15000.000
G1 E3.20000 F3000.00000
G1 X-3.187 Y-3.325 E0.07103 F600.000
G1 X-2.579 Y-3.816 E0.07103
G1 X-1.897 Y-4.197 E0.07103
G1 X-1.160 Y-4.457 E0.07103
G1 X-0.391 Y-4.589 E0.07103
G1 X0.391 Y-4.589 E0.07103 F600.000
G1 X1.160 Y-4.457 E0.07103
G1 X1.855 Y-4.212 E0.06698
G1 X2.572 Y-3.821 E0.07423
G1 X3.187 Y-3.325 E0.07184
G1 X3.703 Y-2.739 E0.07103
G1 X4.112 Y-2.073 E0.07103
G1 X4.404 Y-1.349 E0.07103
G1 X4.568 Y-0.585 E0.07103
G1 X4.601 Y0.195 E0.07103
G1 X4.502 Y0.970 E0.07103
G1 X4.273 Y1.717 E0.07103
G1 X3.925 Y2.409 E0.07047
G1 X3.458 Y3.042 E0.07147
G1 X2.893 Y3.583 E0.07115
G1 X2.246 Y4.021 E0.07103
G1 X1.485 Y4.365 E0.07593
G1 X0.766 Y4.540 E0.06730
G1 X0.000 Y4.606 E0.06993
G1 X-0.778 Y4.539 E0.07103
G1 X-1.534 Y4.342 E0.07103
G1 X-2.246 Y4.021 E0.07103
G1 X-2.893 Y3.583 E0.07103
G1 X-3.457 Y3.043 E0.07103
G1 X-3.922 Y2.415 E0.07103
G1 X-4.273 Y1.717 E0.07103
G1 X-4.489 Y1.013 E0.06698
G1 X-4.602 Y0.204 E0.07423
G1 X-4.568 Y-0.585 E0.07184
G1 X-4.404 Y-1.349 E0.07103
G1 X-4.112 Y-2.073 E0.07103
G1 X-3.734 Y-2.688 E0.06558
G1 X-3.199 Y-2.366 F15000.000
G1 X-2.753 Y-2.872 E0.06136 F600.000
G1 X-2.228 Y-3.296 E0.06136
G1 X-1.639 Y-3.625 E0.06136
G1 X-1.002 Y-3.850 E0.06136
G1 X-0.337 Y-3.964 E0.06136
G1 X0.337 Y-3.964 E0.06136 F600.000
G1 X1.002 Y-3.850 E0.06136
G1 X1.600 Y-3.639 E0.05763
G1 X2.224 Y-3.300 E0.06455
G1 X2.753 Y-2.872 E0.06185
G1 X3.199 Y-2.366 E0.06136
G1 X3.552 Y-1.791 E0.06136
G1 X3.804 Y-1.165 E0.06136
G1 X3.946 Y-0.505 E0.06136
G1 X3.975 Y0.169 E0.06136
G1 X3.889 Y0.838 E0.06136
G1 X3.692 Y1.483 E0.06136
G1 X3.390 Y2.081 E0.06084
G1 X2.987 Y2.628 E0.06180
G1 X2.499 Y3.095 E0.06143
G1 X1.940 Y3.473 E0.06136
G1 X1.281 Y3.771 E0.06582
G1 X0.665 Y3.922 E0.05763
G1 X0.000 Y3.978 E0.06069
G1 X-0.672 Y3.921 E0.06136
G1 X-1.325 Y3.751 E0.06136
G1 X-1.940 Y3.473 E0.06136
G1 X-2.499 Y3.095 E0.06136
G1 X-2.986 Y2.628 E0.06136
G1 X-3.388 Y2.086 E0.06136
G1 X-3.692 Y1.483 E0.06136
G1 X-3.877 Y0.877 E0.05763
G1 X-3.975 Y0.174 E0.06455
G1 X-3.946 Y-0.505 E0.06185
G1 X-3.804 Y-1.165 E0.06136
G1 X-3.552 Y-1.791 E0.06136
G1 X-3.230 Y-2.315 E0.05590
G1 X-2.694 Y-1.993 F15000.000
G1 X-2.319 Y-2.419 E0.05169 F600.000
G1 X-1.877 Y-2.777 E0.05169
G1 X-1.380 Y-3.054 E0.05169
G1 X-0.844 Y-3.243 E0.05169
G1 X-0.284 Y-3.339 E0.05169
G1 X0.284 Y-3.339 E0.05169 F600.000
G1 X0.844 Y-3.243 E0.05169
G1 X1.345 Y-3.066 E0.04827
G1 X1.875 Y-2.778 E0.05488
G1 X2.319 Y-2.419 E0.05186
G1 X2.694 Y-1.993 E0.05169
G1 X2.992 Y-1.509 E0.05169
G1 X3.204 Y-0.981 E0.05169
G1 X3.324 Y-0.426 E0.05169
G1 X3.348 Y0.142 E0.05169
G1 X3.276 Y0.706 E0.05169
G1 X3.110 Y1.250 E0.05169
G1 X2.856 Y1.752 E0.05121
G1 X2.516 Y2.214 E0.05212
G1 X2.105 Y2.607 E0.05171
G1 X1.634 Y2.926 E0.05169
G1 X1.076 Y3.178 E0.05572
G1 X0.564 Y3.303 E0.04795
G1 X0.000 Y3.351 E0.05144
G1 X-0.566 Y3.303 E0.05169
G1 X-1.116 Y3.160 E0.05169
G1 X-1.634 Y2.926 E0.05169
G1 X-2.105 Y2.607 E0.05169
G1 X-2.516 Y2.214 E0.05169
G1 X-2.854 Y1.757 E0.05169
G1 X-3.110 Y1.250 E0.05169
G1 X-3.265 Y0.742 E0.04827
G1 X-3.348 Y0.144 E0.05488
G1 X-3.324 Y-0.426 E0.05186
G1 X-3.204 Y-0.981 E0.05169
G1 X-2.992 Y-1.509 E0.05169
G1 X-2.726 Y-1.942 E0.04623
G1 X-2.844 Y-2.364 F15000.000
G1 X-42.704 Y-7.400 F15000.000
G1 X42.704 Y-7.400 E7.76619 F960.000
G1 X42.704 Y7.400 E1.34580
G1 X-42.704 Y7.400 E7.76619
G1 X-42.704 Y-7.340 E1.34034
G1 X-43.329 Y-8.025 F15000.000
G1 X43.329 Y-8.025 E7.87983 F960.000
G1 X43.329 Y8.025 E1.45944
G1 X-43.329 Y8.025 E7.87983
G1 X-43.329 Y-7.965 E1.45398
G1 X-43.954 Y-8.650 F15000.000
G1 X43.954 Y-8.650 E7.99347 F960.000
G1 X43.954 Y8.650 E1.57308
G1 X-43.954 Y8.650 E7.99347
G1 X-43.954 Y-8.590 E1.56763
G1 X-43.608 Y-8.450 F15000.000
G1 X-42.021 Y7.022 F15000.000
G1 X-42.326 Y6.717 E0.03958 F960.000
G1 X-42.326 Y5.825 E0.08181
G1 X-41.129 Y7.022 E0.15528
G1 X-40.237 Y7.022 E0.08181
G1 X-42.326 Y4.933 E0.27097
G1 X-42.326 Y4.042 E0.08181
G1 X-39.346 Y7.022 E0.38667
G1 X-38.454 Y7.022 E0.08181
G1 X-42.326 Y3.150 E0.50237
G1 X-42.326 Y2.258 E0.08181
G1 X-37.562 Y7.022 E0.61806
G1 X-36.671 Y7.022 E0.08181
G1 X-42.326 Y1.367 E0.73376
G1 X-42.326 Y0.475 E0.08181
G1 X-35.779 Y7.022 E0.84946
G1 X-34.887 Y7.022 E0.08181
G1 X-42.326 Y-0.417 E0.96515
G1 X-42.326 Y-1.309 E0.08181
G1 X-33.996 Y7.022 E1.08085
G1 X-33.104 Y7.022 E0.08181
G1 X-42.326 Y-2.200 E1.19655
G1 X-42.326 Y-3.092 E0.08181
G1 X-32.212 Y7.022 E1.31224
G1 X-31.321 Y7.022 E0.08181
G1 X-42.326 Y-3.984 E1.42794
G1 X-42.326 Y-4.875 E0.08181
G1 X-30.429 Y7.022 E1.54364
G1 X-29.537 Y7.022 E0.08181
G1 X-42.326 Y-5.767 E1.65933
G1 X-42.326 Y-6.659 E0.08181
G1 X-28.646 Y7.022 E1.77503
G1 X-27.754 Y7.022 E0.08181
G1 X-41.797 Y-7.022 E1.82213
G1 X-40.906 Y-7.022 E0.08181
G1 X-26.862 Y7.022 E1.82213
G1 X-25.971 Y7.022 E0.08181
G1 X-40.014 Y-7.022 E1.82213
G1 X-39.122 Y-7.022 E0.08181
G1 X-25.079 Y7.022 E1.82213
G1 X-24.187 Y7.022 E0.08181
G1 X-38.230 Y-7.022 E1.82213
G1 X-37.339 Y-7.022 E0.08181
G1 X-23.296 Y7.022 E1.82213
G1 X-22.404 Y7.022 E0.08181
G1 X-36.447 Y-7.022 E1.82213
G1 X-35.555 Y-7.022 E0.08181
G1 X-21.512 Y7.022 E1.82213
G1 X-20.620 Y7.022 E0.08181
G1 X-34.664 Y-7.022 E1.82213
G1 X-33.772 Y-7.022 E0.08181
G1 X-19.729 Y7.022 E1.82213
G1 X-18.837 Y7.022 E0.08181
G1 X-32.880 Y-7.022 E1.82213
G1 X-31.989 Y-7.022 E0.08181
G1 X-17.945 Y7.022 E1.82213
G1 X-17.054 Y7.022 E0.08181
G1 X-31.097 Y-7.022 E1.82213
G1 X-30.205 Y-7.022 E0.08181
G1 X-16.162 Y7.022 E1.82213
G1 X-15.270 Y7.022 E0.08181
G1 X-29.314 Y-7.022 E1.82213
G1 X-28.422 Y-7.022 E0.08181
G1 X-14.379 Y7.022 E1.82213
G1 X-13.487 Y7.022 E0.08181
G1 X-27.530 Y-7.022 E1.82213
G1 X-26.639 Y-7.022 E0.08181
G1 X-12.595 Y7.022 E1.82213
G1 X-11.704 Y7.022 E0.08181
G1 X-25.747 Y-7.022 E1.82213
G1 X-24.855 Y-7.022 E0.08181
G1 X-10.812 Y7.022 E1.82213
G1 X-9.920 Y7.022 E0.08181
G1 X-23.964 Y-7.022 E1.82213
G1 X-23.072 Y-7.022 E0.08181
G1 X-9.029 Y7.022 E1.82213
G1 X-8.137 Y7.022 E0.08181
G1 X-22.180 Y-7.022 E1.82213
G1 X-21.289 Y-7.022 E0.08181
G1 X-7.245 Y7.022 E1.82213
G1 X-6.354 Y7.022 E0.08181
G1 X-20.397 Y-7.022 E1.82213
G1 X-19.505 Y-7.022 E0.08181
G1 X-5.462 Y7.022 E1.82213
G1 X-4.570 Y7.022 E0.08181
G1 X-18.614 Y-7.022 E1.82213
G1 X-17.722 Y-7.022 E0.08181
G1 X-3.679 Y7.022 E1.82213
G1 X-2.787 Y7.022 E0.08181
G1 X-16.830 Y-7.022 E1.82213
G1 X-15.938 Y-7.022 E0.08181
G1 X-1.895 Y7.022 E1.82213
G1 X-1.446 Y4.796 F15000.000
G1 X0.780 Y7.022 E0.28884 F960.000
G1 X1.672 Y7.022 E0.08181
G1 X-0.386 Y4.964 E0.26692
G1 X0.476 Y4.934 E0.07908
G1 X2.563 Y7.022 E0.27085
G1 X3.455 Y7.022 E0.08181
G1 X1.223 Y4.790 E0.28957
G1 X1.880 Y4.555 E0.06398
G1 X4.347 Y7.022 E0.32008
G1 X5.238 Y7.022 E0.08181
G1 X2.476 Y4.260 E0.35835
G1 X3.009 Y3.900 E0.05892
G1 X6.130 Y7.022 E0.40501
G1 X7.022 Y7.022 E0.08181
G1 X3.475 Y3.475 E0.46023
G1 X3.893 Y3.001 E0.05796
G1 X7.913 Y7.022 E0.52165
G1 X8.805 Y7.022 E0.08181
G1 X4.262 Y2.479 E0.58941
G1 X4.561 Y1.886 E0.06091
G1 X9.697 Y7.022 E0.66632
G1 X10.588 Y7.022 E0.08181
G1 X4.787 Y1.220 E0.75273
G1 X4.932 Y0.473 E0.06982
G1 X11.480 Y7.022 E0.84966
G1 X12.372 Y7.022 E0.08181
G1 X4.961 Y-0.389 E0.96151
G1 X4.803 Y-1.439 E0.09740
G1 X13.263 Y7.022 E1.09772
G1 X14.155 Y7.022 E0.08181
G1 X4.024 Y-3.110 E1.31456
G1 X3.136 Y-3.998 F15000.000
G1 X0.112 Y-7.022 E0.39238 F960.000
G1 X1.003 Y-7.022 E0.08181
G1 X15.047 Y7.022 E1.82213
G1 X15.938 Y7.022 E0.08181
G1 X1.895 Y-7.022 E1.82213
G1 X2.787 Y-7.022 E0.08181
G1 X16.830 Y7.022 E1.82213
G1 X17.722 Y7.022 E0.08181
G1 X3.678 Y-7.022 E1.82213
G1 X4.570 Y-7.022 E0.08181
G1 X18.613 Y7.022 E1.82213
G1 X19.505 Y7.022 E0.08181
G1 X5.462 Y-7.022 E1.82213
G1 X6.354 Y-7.022 E0.08181
G1 X20.397 Y7.022 E1.82213
G1 X21.288 Y7.022 E0.08181
G1 X7.245 Y-7.022 E1.82213
G1 X8.137 Y-7.022 E0.08181
G1 X22.180 Y7.022 E1.82213
G1 X23.072 Y7.022 E0.08181
G1 X9.029 Y-7.022 E1.82213
G1 X9.920 Y-7.022 E0.08181
G1 X23.964 Y7.022 E1.82213
G1 X24.855 Y7.022 E0.08181
G1 X10.812 Y-7.022 E1.82213
G1 X11.704 Y-7.022 E0.08181
G1 X25.747 Y7.022 E1.82213
G1 X26.639 Y7.022 E0.08181
G1 X12.595 Y-7.022 E1.82213
G1 X13.487 Y-7.022 E0.08181
G1 X27.530 Y7.022 E1.82213
G1 X28.422 Y7.022 E0.08181
G1 X14.379 Y-7.022 E1.82213
G1 X15.270 Y-7.022 E0.08181
G1 X29.314 Y7.022 E1.82213
G1 X30.205 Y7.022 E0.08181
G1 X16.162 Y-7.022 E1.82213
G1 X17.054 Y-7.022 E0.08181
G1 X31.097 Y7.022 E1.82213
G1 X31.989 Y7.022 E0.08181
G1 X17.945 Y-7.022 E1.82213
G1 X18.837 Y-7.022 E0.08181
G1 X32.880 Y7.022 E1.82213
G1 X33.772 Y7.022 E0.08181
G1 X19.729 Y-7.022 E1.82213
G1 X20.620 Y-7.022 E0.08181
G1 X34.664 Y7.022 E1.82213
G1 X35.555 Y7.022 E0.08181
G1 X21.512 Y-7.022 E1.82213
G1 X22.404 Y-7.022 E0.08181
G1 X36.447 Y7.022 E1.82213
G1 X37.339 Y7.022 E0.08181
G1 X23.295 Y-7.022 E1.82213
G1 X24.187 Y-7.022 E0.08181
G1 X38.230 Y7.022 E1.82213
G1 X39.122 Y7.022 E0.08181
G1 X25.079 Y-7.022 E1.82213
G1 X25.970 Y-7.022 E0.08181
G1 X40.014 Y7.022 E1.82213
G1 X40.905 Y7.022 E0.08181
G1 X26.862 Y-7.022 E1.82213
G1 X27.754 Y-7.022 E0.08181
G1 X41.797 Y7.022 E1.82213
G1 X42.326 Y6.659 E0.05884
G1 X28.646 Y-7.022 E1.77504
G1 X29.537 Y-7.022 E0.08181
G1 X42.326 Y5.767 E1.65934
G1 X42.326 Y4.875 E0.08181
G1 X30.429 Y-7.022 E1.54364
G1 X31.321 Y-7.022 E0.08181
G1 X42.326 Y3.984 E1.42795
G1 X42.326 Y3.092 E0.08181
G1 X32.212 Y-7.022 E1.31225
G1 X33.104 Y-7.022 E0.08181
G1 X42.326 Y2.200 E1.19655
G1 X42.326 Y1.309 E0.08181
G1 X33.996 Y-7.022 E1.08086
G1 X34.887 Y-7.022 E0.08181
G1 X42.326 Y0.417 E0.96516
G1 X42.326 Y-0.475 E0.08181
G1 X35.779 Y-7.022 E0.84946
G1 X36.671 Y-7.022 E0.08181
G1 X42.326 Y-1.366 E0.73377
G1 X42.326 Y-2.258 E0.08181
G1 X37.562 Y-7.022 E0.61807
G1 X38.454 Y-7.022 E0.08181
G1 X42.326 Y-3.150 E0.50238
G1 X42.326 Y-4.041 E0.08181
G1 X39.346 Y-7.022 E0.38668
G1 X40.237 Y-7.022 E0.08181
G1 X42.326 Y-4.933 E0.27098
G1 X42.326 Y-5.825 E0.08181
G1 X41.129 Y-7.022 E0.15529
G1 X42.021 Y-7.022 E0.08181
G1 X42.326 Y-6.717 E0.03959
G1 X-0.780 Y-7.022 F15000.000
G1 X1.421 Y-4.821 E0.28552 F960.000
G1 X0.383 Y-4.968 E0.09619
G1 X-1.672 Y-7.022 E0.26652
G1 X-2.563 Y-7.022 E0.08181
G1 X-0.479 Y-4.937 E0.27047
G1 X-1.229 Y-4.796 E0.07003
G1 X-3.455 Y-7.022 E0.28884
G1 X-4.347 Y-7.022 E0.08181
G1 X-1.888 Y-4.563 E0.31905
G1 X-2.471 Y-4.255 E0.06055
G1 X-5.238 Y-7.022 E0.35901
G1 X-6.130 Y-7.022 E0.08181
G1 X-3.001 Y-3.892 E0.40601
G1 X-3.481 Y-3.481 E0.05802
G1 X-7.022 Y-7.022 E0.45939
G1 X-7.913 Y-7.022 E0.08181
G1 X-3.899 Y-3.007 E0.52093
G1 X-4.254 Y-2.471 E0.05902
G1 X-8.805 Y-7.022 E0.59050
G1 X-9.697 Y-7.022 E0.08181
G1 X-4.555 Y-1.880 E0.66712
G1 X-4.792 Y-1.225 E0.06389
G1 X-10.588 Y-7.022 E0.75209
G1 X-11.480 Y-7.022 E0.08181
G1 X-4.946 Y-0.487 E0.84783
G1 X-4.981 Y0.369 E0.07867
G1 X-12.372 Y-7.022 E0.95898
G1 X-13.263 Y-7.022 E0.08181
G1 X-4.801 Y1.441 E1.09806
G1 X-3.967 Y3.166 F15000.000
G1 X-14.155 Y-7.022 E1.32191 F960.000
G1 X-15.047 Y-7.022 E0.08181
G1 X-1.004 Y7.022 E1.82213
G1 X-0.112 Y7.022 E0.08181
G1 X-3.149 Y3.984 E0.39409
G1 E-3.20000 F3000.00000
G1 Z0.750 F15000.000
G1 X-3.886 Y-0.498 F15000.000
G1 Z0.550 F15000.000
G1 E3.20000 F3000.00000
G1 X-3.746 Y-1.147 E0.01973 F3000.000
G1 X-3.498 Y-1.764 E0.01973
G1 X-3.150 Y-2.329 E0.01973
G1 X-2.711 Y-2.828 E0.01973
G1 X-2.194 Y-3.246 E0.01973
G1 X-1.614 Y-3.570 E0.01973
G1 X-0.987 Y-3.791 E0.01973
G1 X-0.332 Y-3.903 E0.01973
G1 X0.332 Y-3.903 E0.01973 F3000.000
G1 X0.987 Y-3.791 E0.01973
G1 X1.614 Y-3.570 E0.01973
G1 X2.194 Y-3.246 E0.01973
G1 X2.711 Y-2.828 E0.01973
G1 X3.150 Y-2.329 E0.01973
G1 X3.498 Y-1.764 E0.01973
G1 X3.746 Y-1.147 E0.01973
G1 X3.886 Y-0.498 E0.01973
G1 X3.914 Y0.166 E0.01973
G1 X3.830 Y0.825 E0.01973
G1 X3.635 Y1.461 E0.01973
G1 X3.336 Y2.054 E0.01973
G1 X2.941 Y2.588 E0.01973
G1 X2.461 Y3.048 E0.01973
G1 X1.911 Y3.420 E0.01973
G1 X1.305 Y3.694 E0.01973
G1 X0.662 Y3.861 E0.01973
G1 X0.000 Y3.917 E0.01973
G1 X-0.662 Y3.861 E0.01973
G1 X-1.305 Y3.694 E0.01973
G1 X-1.911 Y3.420 E0.01973
G1 X-2.461 Y3.048 E0.01973
G1 X-2.941 Y2.588 E0.01973
G1 X-3.336 Y2.054 E0.01973
G1 X-3.635 Y1.461 E0.01973
G1 X-3.830 Y0.825 E0.01973
G1 X-3.914 Y0.166 E0.01973
G1 X-3.888 Y-0.438 E0.01795
G1 X-3.530 Y-0.452 F15000.000
G1 X-3.403 Y-1.042 E0.01792 F3000.000
G1 X-3.178 Y-1.602 E0.01792
G1 X-2.862 Y-2.116 E0.01792
G1 X-2.463 Y-2.570 E0.01792
G1 X-1.993 Y-2.949 E0.01792
G1 X-1.466 Y-3.243 E0.01792
G1 X-0.897 Y-3.444 E0.01792
G1 X-0.302 Y-3.546 E0.01792
G1 X0.302 Y-3.546 E0.01792 F3000.000
G1 X0.897 Y-3.444 E0.01792
G1 X1.466 Y-3.243 E0.01792
G1 X1.993 Y-2.949 E0.01792
G1 X2.463 Y-2.570 E0.01792
G1 X2.862 Y-2.116 E0.01792
G1 X3.178 Y-1.602 E0.01792
G1 X3.403 Y-1.042 E0.01792
G1 X3.530 Y-0.452 E0.01792
G1 X3.556 Y0.151 E0.01792
G1 X3.479 Y0.750 E0.01792
G1 X3.302 Y1.327 E0.01792
G1 X3.031 Y1.866 E0.01792
G1 X2.672 Y2.351 E0.01792
G1 X2.236 Y2.769 E0.01792
G1 X1.736 Y3.107 E0.01792
G1 X1.186 Y3.356 E0.01792
G1 X0.601 Y3.508 E0.01792
G1 X0.000 Y3.559 E0.01792
G1 X-0.601 Y3.508 E0.01792
G1 X-1.186 Y3.356 E0.01792
G1 X-1.736 Y3.107 E0.01792
G1 X-2.236 Y2.769 E0.01792
G1 X-2.672 Y2.351 E0.01792
G1 X-3.031 Y1.866 E0.01792
G1 X-3.302 Y1.327 E0.01792
G1 X-3.479 Y0.750 E0.01792
G1 X-3.556 Y0.151 E0.01792
G1 X-3.533 Y-0.392 E0.01614
G1 X-3.175 Y-0.407 F15000.000
G1 X-3.060 Y-0.937 E0.01612 F3000.000
G1 X-2.858 Y-1.441 E0.01612
G1 X-2.573 Y-1.903 E0.01612
G1 X-2.215 Y-2.311 E0.01612
G1 X-1.792 Y-2.652 E0.01612
G1 X-1.318 Y-2.917 E0.01612
G1 X-0.807 Y-3.097 E0.01612
G1 X-0.271 Y-3.189 E0.01612
G1 X0.271 Y-3.189 E0.01612 F3000.000
G1 X0.807 Y-3.097 E0.01612
G1 X1.318 Y-2.917 E0.01612
G1 X1.792 Y-2.652 E0.01612
G1 X2.215 Y-2.311 E0.01612
G1 X2.573 Y-1.903 E0.01612
G1 X2.858 Y-1.441 E0.01612
G1 X3.060 Y-0.937 E0.01612
G1 X3.175 Y-0.407 E0.01612
G1 X3.198 Y0.136 E0.01612
G1 X3.129 Y0.674 E0.01612
G1 X2.970 Y1.193 E0.01612
G1 X2.726 Y1.678 E0.01612
G1 X2.403 Y2.115 E0.01612
G1 X2.011 Y2.490 E0.01612
G1 X1.561 Y2.794 E0.01612
G1 X1.066 Y3.018 E0.01612
G1 X0.541 Y3.155 E0.01612
G1 X0.000 Y3.201 E0.01612
G1 X-0.541 Y3.155 E0.01612
G1 X-1.066 Y3.018 E0.01612
G1 X-1.561 Y2.794 E0.01612
G1 X-2.011 Y2.490 E0.01612
G1 X-2.403 Y2.115 E0.01612
G1 X-2.726 Y1.678 E0.01612
G1 X-2.970 Y1.193 E0.01612
G1 X-3.129 Y0.674 E0.01612
G1 X-3.198 Y0.136 E0.01612
G1 X-3.177 Y-0.347 E0.01434
G1 X-3.486 Y-0.658 F15000.000
G1 X-43.841 Y-8.086 F15000.000
G1 X43.841 Y-8.086 E2.60340 F4800.000
G1 X43.841 Y8.086 E0.48016
G1 X-43.841 Y8.086 E2.60340
G1 X-43.841 Y-8.026 E0.47838
G1 X-44.198 Y-8.443 F15000.000
G1 X44.198 Y-8.443 E2.62460 F4800.000
G1 X44.198 Y8.443 E0.50136
G1 X-44.198 Y8.443 E2.62460
G1 X-44.198 Y-8.383 E0.49958
G1 E-3.20000 F3000.00000
G1 Z0.950 F15000.000
G1 X44.504 Y8.800 F15000.000
G1 Z0.550 F15000.000
G1 E3.20000 F3000.00000
