; generated by Slic3r 1.2.9 on 2018-06-23 at 16:49:43

; external perimeters extrusion width = 0.40mm
; perimeters extrusion width = 0.40mm
; infill extrusion width = 0.40mm
; solid infill extrusion width = 0.40mm
; top infill extrusion width = 0.40mm
; support material extrusion width = 0.40mm

M107
M83
T0
M116


G21 ; set units to millimeters
G90 ; use absolute coordinates
M83 ; use relative distances for extrusion
G1 E-3.20000 F3000.00000
G1 Z0.400 F15000.000
G1 X-9.000 Y0.000 F15000.000
G1 Z0.350 F15000.000
G1 E3.20000 F3000.00000
G1 X-9.000 Y-13.500 E1.22755 F960.000
G1 X-8.903 Y-17.652 E0.37767
G1 X-8.626 Y-18.767 E0.10444
G1 X-7.675 Y-20.664 E0.19293
G1 X-6.706 Y-21.722 E0.13051
G1 X-5.328 Y-22.112 E0.13017
G1 X7.253 Y-22.112 E1.14405
G1 X8.634 Y-21.720 E0.13051
G1 X9.766 Y-20.246 E0.16899 F960.000
G1 X10.292 Y-18.506 E0.16533
G1 X10.404 Y-17.747 E0.06974
G1 X10.404 Y18.513 E3.29710
G1 X10.126 Y19.689 E0.10990
G1 X9.637 Y20.664 E0.09913
G1 X8.668 Y21.722 E0.13051
G1 X7.290 Y22.112 E0.13017
G1 X-5.291 Y22.112 E1.14405
G1 X-6.966 Y21.509 E0.16186
G1 X-7.954 Y20.691 E0.11664
G1 X-8.766 Y19.508 E0.13051
G1 X-8.903 Y18.718 E0.07288
G1 X-9.000 Y13.500 E0.47455
G1 X-9.000 Y0.060 E1.22209
G1 E-3.20000 F3000.00000
G1 Z0.750 F15000.000
G1 X-4.775 Y-13.400 F15000.000
G1 Z0.350 F15000.000
G1 E3.20000 F3000.00000
G1 X-4.276 Y-13.400 E0.04541 F960.000
G1 X-4.080 Y-12.895 E0.04930
G1 X-3.561 Y-12.181 E0.08028
G1 X-2.848 Y-11.611 E0.08298
G1 X-2.034 Y-11.262 E0.08051
G1 X-1.186 Y-11.138 E0.07788
G1 X-0.286 Y-11.242 E0.08242
G1 X0.538 Y-11.576 E0.08090
G1 X1.241 Y-12.110 E0.08022
G1 X1.765 Y-12.785 E0.07773
G1 X2.029 Y-13.400 E0.06086
G1 X3.025 Y-13.400 E0.09058
G1 X3.025 Y13.400 E2.43695
G1 X2.029 Y13.400 E0.09058
G1 X1.765 Y12.785 E0.06086
G1 X1.241 Y12.110 E0.07773
G1 X0.538 Y11.576 E0.08022
G1 X-0.280 Y11.244 E0.08032
G1 X-1.157 Y11.137 E0.08032
G1 X-2.031 Y11.261 E0.08032
G1 X-2.848 Y11.611 E0.08078
G1 X-3.561 Y12.181 E0.08298
G1 X-4.082 Y12.898 E0.08067
G1 X-4.274 Y13.400 E0.04886
G1 X-4.775 Y13.400 E0.04558
G1 X-4.775 Y-13.340 E2.43150
G1 X-5.009 Y-13.999 F15000.000
G1 X-4.811 Y-14.025 E0.01812 F960.000
G1 X-3.796 Y-14.025 E0.09228
G1 X-3.781 Y-13.853 E0.01570
G1 X-3.526 Y-13.196 E0.06405
G1 X-3.105 Y-12.616 E0.06524
G1 X-2.524 Y-12.152 E0.06761
G1 X-1.863 Y-11.869 E0.06538
G1 X-1.177 Y-11.769 E0.06306
G1 X-0.442 Y-11.853 E0.06726
G1 X0.227 Y-12.124 E0.06562
G1 X0.798 Y-12.558 E0.06521
G1 X1.223 Y-13.105 E0.06296
G1 X1.514 Y-13.784 E0.06715
G1 X1.545 Y-14.025 E0.02216
G1 X3.061 Y-14.025 E0.13781
G1 X3.259 Y-13.999 E0.01813
G1 X3.383 Y-13.947 E0.01227
G1 X3.490 Y-13.865 E0.01227
G1 X3.572 Y-13.758 E0.01226
G1 X3.624 Y-13.634 E0.01227
G1 X3.650 Y-13.436 E0.01813
G1 X3.650 Y13.436 E2.44348
G1 X3.624 Y13.634 E0.01813
G1 X3.572 Y13.758 E0.01226
G1 X3.507 Y13.844 E0.00977
G1 X3.373 Y13.952 E0.01571
G1 X3.259 Y13.999 E0.01120
G1 X3.061 Y14.025 E0.01812
G1 X1.545 Y14.025 E0.13781
G1 X1.514 Y13.784 E0.02216
G1 X1.223 Y13.105 E0.06715
G1 X0.798 Y12.558 E0.06296
G1 X0.227 Y12.124 E0.06521
G1 X-0.438 Y11.854 E0.06527
G1 X-1.151 Y11.767 E0.06527
G1 X-1.861 Y11.868 E0.06527
G1 X-2.524 Y12.152 E0.06555
G1 X-3.105 Y12.616 E0.06761
G1 X-3.528 Y13.199 E0.06547
G1 X-3.784 Y13.869 E0.06526
G1 X-3.800 Y14.025 E0.01427
G1 X-4.811 Y14.025 E0.09194
G1 X-5.009 Y13.999 E0.01813
G1 X-5.133 Y13.947 E0.01227
G1 X-5.240 Y13.865 E0.01226
G1 X-5.322 Y13.758 E0.01227
G1 X-5.374 Y13.634 E0.01226
G1 X-5.400 Y13.436 E0.01813
G1 X-5.400 Y-13.436 E2.44348
G1 X-5.374 Y-13.634 E0.01813
G1 X-5.322 Y-13.758 E0.01227
G1 X-5.257 Y-13.844 E0.00977
G1 X-5.123 Y-13.952 E0.01571
G1 X-5.064 Y-13.976 E0.00574
G1 X-3.224 Y-14.650 F15000.000
G1 X-3.167 Y-13.996 E0.05967 F960.000
G1 X-2.973 Y-13.498 E0.04859
G1 X-2.649 Y-13.051 E0.05020
G1 X-2.200 Y-12.693 E0.05223
G1 X-1.692 Y-12.475 E0.05025
G1 X-1.167 Y-12.399 E0.04823
G1 X-0.598 Y-12.464 E0.05210
G1 X-0.085 Y-12.672 E0.05034
G1 X0.355 Y-13.006 E0.05019
G1 X0.680 Y-13.425 E0.04820
G1 X0.905 Y-13.951 E0.05205
G1 X0.998 Y-14.650 E0.06414
G1 X3.102 Y-14.650 E0.19133
G1 X3.422 Y-14.608 E0.02933
G1 X3.699 Y-14.493 E0.02723
G1 X3.936 Y-14.311 E0.02723
G1 X4.118 Y-14.073 E0.02723
G1 X4.233 Y-13.797 E0.02723
G1 X4.275 Y-13.477 E0.02933
G1 X4.275 Y13.477 E2.45092
G1 X4.233 Y13.797 E0.02933
G1 X4.118 Y14.073 E0.02723
G1 X3.957 Y14.283 E0.02405
G1 X3.695 Y14.495 E0.03068
G1 X3.422 Y14.608 E0.02684
G1 X3.102 Y14.650 E0.02933
G1 X0.998 Y14.650 E0.19133
G1 X0.905 Y13.951 E0.06414
G1 X0.680 Y13.425 E0.05205
G1 X0.355 Y13.006 E0.04820
G1 X-0.085 Y12.672 E0.05019
G1 X-0.597 Y12.465 E0.05021
G1 X-1.145 Y12.397 E0.05021
G1 X-1.691 Y12.475 E0.05021
G1 X-2.200 Y12.693 E0.05031
G1 X-2.649 Y13.051 E0.05223
G1 X-2.974 Y13.499 E0.05028
G1 X-3.171 Y14.015 E0.05021
G1 X-3.235 Y14.650 E0.05807
G1 X-4.852 Y14.650 E0.14700
G1 X-5.172 Y14.608 E0.02933
G1 X-5.449 Y14.493 E0.02723
G1 X-5.686 Y14.311 E0.02723
G1 X-5.868 Y14.073 E0.02723
G1 X-5.983 Y13.797 E0.02723
G1 X-6.025 Y13.477 E0.02933
G1 X-6.025 Y-13.477 E2.45092
G1 X-5.983 Y-13.797 E0.02933
G1 X-5.868 Y-14.073 E0.02723
G1 X-5.707 Y-14.283 E0.02405
G1 X-5.445 Y-14.495 E0.03068
G1 X-5.172 Y-14.608 E0.02684
G1 X-4.852 Y-14.650 E0.02933
G1 X-3.284 Y-14.650 E0.14261
G1 X-3.403 Y-14.293 F15000.000
G1 X-4.397 Y-11.804 F15000.000
G1 X2.647 Y-4.760 E0.90602 F960.000
G1 X2.647 Y-12.717 F15000.000
G1 X2.342 Y-13.022 E0.03925 F960.000
G1 X1.966 Y-12.513 E0.05750
G1 X2.647 Y-11.833 E0.08756
G1 X2.647 Y-10.948 E0.08041
G1 X1.580 Y-12.015 E0.13724
G1 X1.110 Y-11.601 E0.05697
G1 X2.647 Y-10.064 E0.19770
G1 X2.647 Y-9.180 E0.08041
G1 X0.594 Y-11.234 E0.26410
G1 X-0.035 Y-10.978 E0.06173
G1 X2.647 Y-8.296 E0.34499
G1 X2.647 Y-7.412 E0.08041
G1 X-0.761 Y-10.821 E0.43841
G1 X-1.624 Y-10.799 E0.07847
G1 X2.647 Y-6.528 E0.54935
G1 X2.647 Y-5.644 E0.08041
G1 X-2.833 Y-11.124 E0.70488
G1 X-4.397 Y-10.920 F15000.000
G1 X2.647 Y-3.876 E0.90602 F960.000
G1 X2.647 Y-2.992 E0.08041
G1 X-4.397 Y-10.036 E0.90602
G1 X-4.397 Y-9.152 E0.08041
G1 X2.647 Y-2.108 E0.90602
G1 X2.647 Y-1.224 E0.08041
G1 X-4.397 Y-8.268 E0.90602
G1 X-4.397 Y-7.384 E0.08041
G1 X2.647 Y-0.340 E0.90602
G1 X2.647 Y0.544 E0.08041
G1 X-4.397 Y-6.500 E0.90602
G1 X-4.397 Y-5.616 E0.08041
G1 X2.647 Y1.428 E0.90602
G1 X2.647 Y2.312 E0.08041
G1 X-4.397 Y-4.732 E0.90602
G1 X-4.397 Y-3.848 E0.08041
G1 X2.647 Y3.196 E0.90602
G1 X2.647 Y4.080 E0.08041
G1 X-4.397 Y-2.963 E0.90602
G1 X-4.397 Y-2.079 E0.08041
G1 X2.647 Y4.964 E0.90602
G1 X2.647 Y5.848 E0.08041
G1 X-4.397 Y-1.195 E0.90602
G1 X-4.397 Y-0.311 E0.08041
G1 X2.647 Y6.732 E0.90602
G1 X2.647 Y7.616 E0.08041
G1 X-4.397 Y0.573 E0.90602
G1 X-4.397 Y1.457 E0.08041
G1 X2.647 Y8.500 E0.90602
G1 X2.647 Y9.384 E0.08041
G1 X-4.397 Y2.341 E0.90602
G1 X-4.397 Y3.225 E0.08041
G1 X2.647 Y10.268 E0.90602
G1 X2.647 Y11.152 E0.08041
G1 X-4.397 Y4.109 E0.90602
G1 X-4.397 Y4.993 E0.08041
G1 X2.647 Y12.036 E0.90602
G1 X1.936 Y12.209 E0.06655
G1 X2.647 Y12.920 E0.09145
G1 X1.181 Y11.454 F15000.000
G1 X-4.397 Y5.877 E0.71748 F960.000
G1 X-4.397 Y6.761 E0.08041
G1 X-0.316 Y10.841 E0.52489
G1 X-1.256 Y10.786 E0.08559
G1 X-4.397 Y7.645 E0.40406
G1 X-4.397 Y8.529 E0.08041
G1 X-2.030 Y10.896 E0.30449
G1 X-2.650 Y11.159 E0.06132
G1 X-4.397 Y9.413 E0.22466
G1 X-4.397 Y10.297 E0.08041
G1 X-3.210 Y11.484 E0.15270
G1 X-3.701 Y11.877 E0.05721
G1 X-4.397 Y11.181 E0.08950
G1 X-4.397 Y12.065 E0.08041
G1 X-4.097 Y12.364 E0.03852
G1 E-3.20000 F3000.00000
G1 Z0.750 F15000.000
G1 X-5.887 Y15.097 F15000.000
G1 Z0.350 F15000.000
G1 E3.20000 F3000.00000
G1 X-6.279 Y15.880 E0.07961 F960.000
G1 X-6.279 Y18.669 E0.25362
G1 X-4.647 Y15.412 E0.33125
G1 X-3.249 Y15.412 E0.12712
G1 X-5.291 Y19.488 E0.41449
G1 X-3.893 Y19.488 E0.12712
G1 X-1.409 Y14.530 E0.50421
G1 X0.117 Y14.277 F15000.000
G1 X-2.495 Y19.488 E0.53003 F960.000
G1 X-1.097 Y19.488 E0.12712
G1 X0.945 Y15.412 E0.41449
G1 X2.343 Y15.412 E0.12712
G1 X0.301 Y19.488 E0.41449
G1 X1.699 Y19.488 E0.12712
G1 X3.781 Y15.333 E0.42257
G1 E-3.20000 F3000.00000
G1 Z0.750 F15000.000
G1 X5.121 Y12.659 F15000.000
G1 Z0.350 F15000.000
G1 E3.20000 F3000.00000
G1 X7.779 Y7.356 E0.53940 F960.000
G1 X5.121 Y7.081 E0.24298
G1 X7.779 Y1.778 E0.53940
G1 X5.121 Y1.502 F15000.000
G1 X7.779 Y-3.801 E0.53940 F960.000
G1 X5.121 Y-4.076 E0.24298
G1 X7.779 Y-9.379 E0.53940
G1 X5.121 Y-9.655 F15000.000
G1 X7.779 Y-14.958 E0.53940 F960.000
G1 X7.779 Y-6.590 F15000.000
G1 X5.121 Y-1.287 E0.53940 F960.000
G1 X7.779 Y-1.012 E0.24298
G1 X5.121 Y4.292 E0.53940
G1 X7.779 Y4.567 F15000.000
G1 X5.121 Y9.870 E0.53940 F960.000
G1 X7.779 Y10.145 E0.24298
G1 X3.097 Y19.488 E0.95022
G1 X4.495 Y19.488 E0.12712
G1 X7.779 Y12.934 E0.66653
G1 X7.779 Y15.724 E0.25362
G1 X5.893 Y19.488 E0.38283
G1 X7.779 Y18.513 E0.19308
G1 X7.290 Y19.488 E0.09913
G1 X5.121 Y-6.865 F15000.000
G1 X7.779 Y-12.169 E0.53940 F960.000
G1 X5.121 Y-12.444 E0.24298
G1 X7.779 Y-17.747 E0.53940
G1 X7.253 Y-19.488 E0.16533
G1 X4.752 Y-14.498 E0.50753
G1 X3.746 Y-15.278 E0.11583
G1 X5.855 Y-19.488 E0.42816
G1 X4.457 Y-19.488 E0.12712
G1 X2.415 Y-15.412 E0.41449
G1 X1.017 Y-15.412 E0.12712
G1 X3.060 Y-19.488 E0.41449
G1 X1.662 Y-19.488 E0.12712
G1 X-0.833 Y-14.511 E0.50621
G1 X-2.355 Y-14.263 F15000.000
G1 X0.264 Y-19.488 E0.53139 F960.000
G1 X-1.134 Y-19.488 E0.12712
G1 X-3.177 Y-15.412 E0.41449
G1 X-4.575 Y-15.412 E0.12712
G1 X-2.532 Y-19.488 E0.41449
G1 X-3.930 Y-19.488 E0.12712
G1 X-6.182 Y-14.995 E0.45692
G1 X-6.279 Y-17.591 E0.23617
G1 X-5.328 Y-19.488 E0.19293
G1 E-3.20000 F3000.00000
G1 Z0.750 F15000.000
G1 X-3.741 Y-14.086 F15000.000
G1 Z0.550 F15000.000
G1 E3.20000 F3000.00000
G1 X-3.710 Y-13.835 E0.00751 F2400.000
G1 X-3.481 Y-13.244 E0.01880
G1 X-3.076 Y-12.675 E0.02074
G1 X-2.480 Y-12.197 E0.02270
G1 X-1.832 Y-11.925 E0.02085
G1 X-1.201 Y-11.833 E0.01893
G1 X-0.450 Y-11.914 E0.02243
G1 X0.205 Y-12.183 E0.02103
G1 X0.759 Y-12.606 E0.02071
G1 X1.149 Y-13.108 E0.01887
G1 X1.454 Y-13.796 E0.02234
G1 X1.492 Y-14.086 E0.00869
G1 X3.065 Y-14.086 E0.04669
G1 X3.275 Y-14.058 E0.00627
G1 X3.414 Y-14.001 E0.00448
G1 X3.534 Y-13.909 E0.00448
G1 X3.626 Y-13.789 E0.00448
G1 X3.683 Y-13.650 E0.00448
G1 X3.711 Y-13.440 E0.00627
G1 X3.711 Y13.440 E0.79811
G1 X3.683 Y13.650 E0.00627
G1 X3.626 Y13.789 E0.00448
G1 X3.534 Y13.909 E0.00448
G1 X3.414 Y14.001 E0.00448
G1 X3.275 Y14.058 E0.00448
G1 X3.065 Y14.086 E0.00627
G1 X1.492 Y14.086 E0.04669
G1 X1.454 Y13.796 E0.00869
G1 X1.149 Y13.108 E0.02234
G1 X0.759 Y12.606 E0.01887
G1 X0.205 Y12.183 E0.02071
G1 X-0.442 Y11.917 E0.02076
G1 X-1.136 Y11.828 E0.02076
G1 X-1.828 Y11.923 E0.02076
G1 X-2.480 Y12.197 E0.02098
G1 X-3.076 Y12.675 E0.02270
G1 X-3.485 Y13.249 E0.02093
G1 X-3.729 Y13.904 E0.02075
G1 X-3.746 Y14.086 E0.00541
G1 X-4.815 Y14.086 E0.03175
G1 X-5.025 Y14.058 E0.00627
G1 X-5.164 Y14.001 E0.00448
G1 X-5.284 Y13.909 E0.00448
G1 X-5.376 Y13.789 E0.00448
G1 X-5.433 Y13.650 E0.00448
G1 X-5.461 Y13.440 E0.00627
G1 X-5.461 Y-13.440 E0.79811
G1 X-5.433 Y-13.650 E0.00627
G1 X-5.376 Y-13.789 E0.00448
G1 X-5.284 Y-13.909 E0.00448
G1 X-5.164 Y-14.001 E0.00448
G1 X-5.025 Y-14.058 E0.00448
G1 X-4.815 Y-14.086 E0.00627
G1 X-3.801 Y-14.086 E0.03011
G1 X-3.425 Y-14.443 F15000.000
G1 X-3.361 Y-13.922 E0.01557 F2400.000
G1 X-3.164 Y-13.415 E0.01616
G1 X-2.814 Y-12.923 E0.01794
G1 X-2.295 Y-12.506 E0.01974
G1 X-1.736 Y-12.271 E0.01801
G1 X-1.195 Y-12.192 E0.01624
G1 X-0.539 Y-12.263 E0.01958
G1 X0.026 Y-12.495 E0.01813
G1 X0.506 Y-12.862 E0.01793
G1 X0.840 Y-13.293 E0.01620
G1 X1.107 Y-13.893 E0.01952
G1 X1.179 Y-14.443 E0.01646
G1 X3.088 Y-14.443 E0.05668
G1 X3.368 Y-14.406 E0.00836
G1 X3.594 Y-14.312 E0.00727
G1 X3.788 Y-14.163 E0.00727
G1 X3.937 Y-13.969 E0.00727
G1 X4.031 Y-13.743 E0.00727
G1 X4.068 Y-13.463 E0.00836
G1 X4.068 Y13.463 E0.79950
G1 X4.031 Y13.743 E0.00836
G1 X3.937 Y13.969 E0.00727
G1 X3.788 Y14.163 E0.00727
G1 X3.594 Y14.312 E0.00727
G1 X3.368 Y14.406 E0.00727
G1 X3.088 Y14.443 E0.00836
G1 X1.179 Y14.443 E0.05668
G1 X1.107 Y13.893 E0.01646
G1 X0.840 Y13.293 E0.01952
G1 X0.506 Y12.862 E0.01620
G1 X0.026 Y12.495 E0.01793
G1 X-0.534 Y12.265 E0.01796
G1 X-1.134 Y12.189 E0.01796
G1 X-1.733 Y12.270 E0.01796
G1 X-2.295 Y12.506 E0.01809
G1 X-2.814 Y12.923 E0.01974
G1 X-3.167 Y13.418 E0.01806
G1 X-3.378 Y13.985 E0.01795
G1 X-3.421 Y14.443 E0.01366
G1 X-4.839 Y14.443 E0.04209
G1 X-5.118 Y14.406 E0.00836
G1 X-5.344 Y14.312 E0.00727
G1 X-5.538 Y14.163 E0.00727
G1 X-5.687 Y13.969 E0.00727
G1 X-5.781 Y13.743 E0.00727
G1 X-5.818 Y13.463 E0.00836
G1 X-5.818 Y-13.463 E0.79950
G1 X-5.781 Y-13.743 E0.00836
G1 X-5.687 Y-13.969 E0.00727
G1 X-5.538 Y-14.163 E0.00727
G1 X-5.344 Y-14.312 E0.00727
G1 X-5.118 Y-14.406 E0.00727
G1 X-4.839 Y-14.443 E0.00836
G1 X-3.485 Y-14.443 E0.04017
G1 X-3.041 Y-14.800 F15000.000
G1 X-3.074 Y-14.513 E0.00859 F2400.000
G1 X-3.012 Y-14.010 E0.01503
G1 X-2.848 Y-13.586 E0.01351
G1 X-2.552 Y-13.170 E0.01515
G1 X-2.111 Y-12.816 E0.01679
G1 X-1.639 Y-12.618 E0.01518
G1 X-1.188 Y-12.552 E0.01354
G1 X-0.628 Y-12.613 E0.01673
G1 X-0.154 Y-12.807 E0.01522
G1 X0.252 Y-13.117 E0.01515
G1 X0.531 Y-13.477 E0.01353
G1 X0.760 Y-13.991 E0.01670
G1 X0.826 Y-14.492 E0.01499
G1 X0.793 Y-14.800 E0.00921
G1 X3.112 Y-14.800 E0.06885
G1 X3.461 Y-14.754 E0.01046
G1 X3.774 Y-14.624 E0.01006
G1 X4.043 Y-14.418 E0.01006
G1 X4.249 Y-14.149 E0.01006
G1 X4.379 Y-13.836 E0.01006
G1 X4.425 Y-13.487 E0.01046
G1 X4.425 Y13.487 E0.80089
G1 X4.379 Y13.836 E0.01046
G1 X4.249 Y14.149 E0.01006
G1 X4.043 Y14.418 E0.01006
G1 X3.774 Y14.624 E0.01006
G1 X3.461 Y14.754 E0.01006
G1 X3.112 Y14.800 E0.01046
G1 X0.793 Y14.800 E0.06885
G1 X0.826 Y14.492 E0.00921
G1 X0.760 Y13.991 E0.01499
G1 X0.531 Y13.477 E0.01670
G1 X0.252 Y13.117 E0.01353
G1 X-0.154 Y12.807 E0.01515
G1 X-0.626 Y12.614 E0.01516
G1 X-1.133 Y12.549 E0.01516
G1 X-1.638 Y12.618 E0.01516
G1 X-2.111 Y12.816 E0.01521
G1 X-2.552 Y13.170 E0.01679
G1 X-2.848 Y13.587 E0.01519
G1 X-3.027 Y14.065 E0.01515
G1 X-3.074 Y14.573 E0.01514
G1 X-3.037 Y14.800 E0.00683
G1 X-4.862 Y14.800 E0.05417
G1 X-5.211 Y14.754 E0.01046
G1 X-5.524 Y14.624 E0.01006
G1 X-5.793 Y14.418 E0.01006
G1 X-5.999 Y14.149 E0.01006
G1 X-6.129 Y13.836 E0.01006
G1 X-6.175 Y13.487 E0.01046
G1 X-6.175 Y-13.487 E0.80089
G1 X-6.129 Y-13.836 E0.01046
G1 X-5.999 Y-14.149 E0.01006
G1 X-5.793 Y-14.418 E0.01006
G1 X-5.524 Y-14.624 E0.01006
G1 X-5.211 Y-14.754 E0.01006
G1 X-4.862 Y-14.800 E0.01046
G1 X-3.101 Y-14.800 E0.05227
G1 X-3.205 Y-14.561 F15000.000
G1 X-4.921 Y-13.839 F15000.000
G1 X-5.214 Y-13.546 E0.01245 F2400.000
G1 X-5.253 Y-12.995 E0.01657
G1 X-4.370 Y-13.878 E0.03750
G1 X-3.907 Y-13.830 E0.01399
G1 X-5.253 Y-12.484 E0.05718
G1 X-5.253 Y-11.973 E0.01535
G1 X-3.765 Y-13.462 E0.06325
G1 X-3.605 Y-13.111 E0.01159
G1 X-5.253 Y-11.462 E0.07005
G1 X-5.253 Y-10.951 E0.01535
G1 X-3.392 Y-12.813 E0.07908
G1 X-3.170 Y-12.524 E0.01095
G1 X-5.253 Y-10.441 E0.08852
G1 X-5.253 Y-9.930 E0.01535
G1 X-2.886 Y-12.296 E0.10056
G1 X-2.603 Y-12.069 E0.01092
G1 X-5.253 Y-9.419 E0.11260
G1 X-5.253 Y-8.908 E0.01535
G1 X-2.257 Y-11.903 E0.12729
G1 X-1.898 Y-11.752 E0.01172
G1 X-5.253 Y-8.397 E0.14257
G1 X-5.253 Y-7.886 E0.01535
G1 X-1.467 Y-11.672 E0.16086
G1 X-0.990 Y-11.638 E0.01437
G1 X-5.253 Y-7.375 E0.18114
G1 X-5.253 Y-6.864 E0.01535
G1 X-0.417 Y-11.700 E0.20548
G1 X0.392 Y-11.998 F15000.000
G1 X-5.253 Y-6.353 E0.23985 F2400.000
G1 X-5.253 Y-5.842 E0.01535
G1 X2.783 Y-13.878 E0.34146
G1 X3.274 Y-13.858 E0.01476
G1 X-5.253 Y-5.331 E0.36232
G1 X-5.253 Y-4.820 E0.01535
G1 X3.494 Y-13.567 E0.37165
G1 X3.503 Y-13.065 E0.01508
G1 X-5.253 Y-4.309 E0.37204
G1 X-5.253 Y-3.798 E0.01535
G1 X3.503 Y-12.554 E0.37204
G1 X3.503 Y-12.043 E0.01535
G1 X-5.253 Y-3.287 E0.37204
G1 X-5.253 Y-2.776 E0.01535
G1 X3.503 Y-11.532 E0.37204
G1 X3.503 Y-11.021 E0.01535
G1 X-5.253 Y-2.265 E0.37204
G1 X-5.253 Y-1.754 E0.01535
G1 X3.503 Y-10.510 E0.37204
G1 X3.503 Y-9.999 E0.01535
G1 X-5.253 Y-1.243 E0.37204
G1 X-5.253 Y-0.732 E0.01535
G1 X3.503 Y-9.488 E0.37204
G1 X3.503 Y-8.977 E0.01535
G1 X-5.253 Y-0.221 E0.37204
G1 X-5.253 Y0.290 E0.01535
G1 X3.503 Y-8.466 E0.37204
G1 X3.503 Y-7.955 E0.01535
G1 X-5.253 Y0.801 E0.37204
G1 X-5.253 Y1.312 E0.01535
