; generated by Slic3r 1.2.9 on 2018-06-23 at 16:13:33

; external perimeters extrusion width = 0.40mm
; perimeters extrusion width = 0.40mm
; infill extrusion width = 0.40mm
; solid infill extrusion width = 0.40mm
; top infill extrusion width = 0.40mm
; support material extrusion width = 0.40mm

M107
M83
T0
M116


G21 ; set units to millimeters
G90 ; use absolute coordinates
M83 ; use relative distances for extrusion
G1 E-3.20000 F3000.00000
G1 Z0.400 F15000.000
G1 X7.596 Y-0.514 F15000.000
G1 Z0.350 F15000.000
G1 E3.20000 F3000.00000
G1 X7.619 Y0.177 E0.06292 F960.000
G1 X6.319 Y19.377 E1.74985
G1 X6.111 Y20.754 E0.12659
G1 X5.858 Y21.535 E0.07468
G1 X5.332 Y22.567 E0.10526
G1 X4.849 Y23.231 E0.07467
G1 X4.031 Y24.049 E0.10526
G1 X3.366 Y24.532 E0.07469
G1 X2.335 Y25.058 E0.10526
G1 X1.554 Y25.311 E0.07467
G1 X0.411 Y25.493 E0.10526
G1 X-0.411 Y25.493 E0.07468
G1 X-1.554 Y25.311 E0.10526
G1 X-2.335 Y25.058 E0.07467
G1 X-3.366 Y24.532 E0.10526
G1 X-4.031 Y24.049 E0.07469
G1 X-4.849 Y23.231 E0.10526
G1 X-5.332 Y22.567 E0.07467
G1 X-5.858 Y21.535 E0.10526
G1 X-6.111 Y20.754 E0.07468
G1 X-6.319 Y19.377 E0.12659
G1 X-7.619 Y0.177 E1.74985
G1 X-7.619 Y-0.177 E0.03225
G1 X-6.319 Y-19.377 E1.74985
G1 X-6.111 Y-20.754 E0.12659
G1 X-5.858 Y-21.535 E0.07468
G1 X-5.332 Y-22.567 E0.10526
G1 X-4.849 Y-23.231 E0.07467
G1 X-4.031 Y-24.049 E0.10526
G1 X-3.366 Y-24.532 E0.07469
G1 X-2.335 Y-25.058 E0.10526
G1 X-1.554 Y-25.311 E0.07467
G1 X-0.411 Y-25.493 E0.10526
G1 X0.491 Y-25.480 E0.08196
G1 X1.554 Y-25.311 E0.09790 F960.000
G1 X2.335 Y-25.058 E0.07467
G1 X3.366 Y-24.532 E0.10526
G1 X4.031 Y-24.049 E0.07469
G1 X4.849 Y-23.231 E0.10526
G1 X5.332 Y-22.567 E0.07467
G1 X5.858 Y-21.535 E0.10526
G1 X6.111 Y-20.754 E0.07468
G1 X6.319 Y-19.377 E0.12659
G1 X7.592 Y-0.574 E1.71368
G1 E-3.20000 F3000.00000
G1 Z0.750 F15000.000
G1 X-0.037 Y16.969 F15000.000
G1 Z0.350 F15000.000
G1 E3.20000 F3000.00000
G1 X0.682 Y17.068 E0.06602 F600.000
G1 X1.315 Y17.390 E0.06457
G1 X1.810 Y17.885 E0.06365
G1 X2.128 Y18.509 E0.06363
G1 X2.237 Y19.200 E0.06365
G1 X2.128 Y19.891 E0.06365
G1 X1.810 Y20.515 E0.06363
G1 X1.315 Y21.010 E0.06365
G1 X0.691 Y21.328 E0.06364
G1 X0.000 Y21.437 E0.06364
G1 X-0.691 Y21.328 E0.06364
G1 X-1.315 Y21.010 E0.06364
G1 X-1.810 Y20.515 E0.06365
G1 X-2.128 Y19.891 E0.06363
G1 X-2.237 Y19.200 E0.06365
G1 X-2.128 Y18.509 E0.06365
G1 X-1.810 Y17.885 E0.06363
G1 X-1.315 Y17.390 E0.06365
G1 X-0.691 Y17.072 E0.06364
G1 X-0.096 Y16.978 E0.05477 F600.000
G1 X-0.031 Y17.600 F15000.000
G1 X0.493 Y17.673 E0.04802 F600.000
G1 X0.943 Y17.902 E0.04597
G1 X1.298 Y18.257 E0.04565
G1 X1.526 Y18.704 E0.04564
G1 X1.604 Y19.200 E0.04565
G1 X1.526 Y19.696 E0.04565
G1 X1.298 Y20.143 E0.04564
G1 X0.943 Y20.498 E0.04565
G1 X0.496 Y20.726 E0.04564
G1 X0.000 Y20.804 E0.04564
G1 X-0.496 Y20.726 E0.04564
G1 X-0.943 Y20.498 E0.04564
G1 X-1.298 Y20.143 E0.04565
G1 X-1.526 Y19.696 E0.04564
G1 X-1.604 Y19.200 E0.04565
G1 X-1.526 Y18.704 E0.04565
G1 X-1.298 Y18.257 E0.04564
G1 X-0.943 Y17.902 E0.04565
G1 X-0.496 Y17.674 E0.04564
G1 X-0.090 Y17.610 E0.03737 F600.000
G1 X0.183 Y17.262 F15000.000
G1 X-2.100 Y17.292 F15000.000
G1 X-2.100 Y2.621 E1.33398 F960.000
G1 X-2.735 Y1.987 E0.08159
G1 X-3.215 Y1.045 E0.09617
G1 X-3.380 Y-0.000 E0.09617
G1 X-3.215 Y-1.045 E0.09617
G1 X-2.735 Y-1.987 E0.09617
G1 X-2.100 Y-2.621 E0.08159
G1 X-2.100 Y-17.292 E1.33398
G1 X-1.687 Y-16.878 E0.05317
G1 X-0.887 Y-16.471 E0.08164
G1 X0.000 Y-16.330 E0.08164
G1 X0.887 Y-16.471 E0.08164
G1 X1.687 Y-16.878 E0.08164
G1 X2.100 Y-17.292 E0.05317
G1 X2.100 Y-2.621 E1.33398
G1 X2.735 Y-1.987 E0.08159
G1 X3.215 Y-1.045 E0.09617
G1 X3.380 Y0.000 E0.09617
G1 X3.215 Y1.045 E0.09617
G1 X2.735 Y1.987 E0.09617
G1 X2.100 Y2.621 E0.08159
G1 X2.100 Y17.292 E1.33398
G1 X1.687 Y16.878 E0.05317
G1 X0.872 Y16.463 E0.08316
G1 X-0.043 Y16.337 E0.08402
G1 X-0.887 Y16.471 E0.07764
G1 X-1.687 Y16.878 E0.08164
G1 X-2.058 Y17.249 E0.04771
G1 X0.000 Y-16.963 F15000.000
G1 X-0.691 Y-17.072 E0.06364 F600.000
G1 X-1.315 Y-17.390 E0.06364
G1 X-1.810 Y-17.885 E0.06365
G1 X-2.128 Y-18.509 E0.06363
G1 X-2.237 Y-19.200 E0.06365
G1 X-2.128 Y-19.891 E0.06365
G1 X-1.810 Y-20.515 E0.06363
G1 X-1.292 Y-21.032 E0.06655
G1 X-0.682 Y-21.329 E0.06170
G1 X-0.037 Y-21.431 E0.05938 F600.000
G1 X0.682 Y-21.332 E0.06602
G1 X1.315 Y-21.010 E0.06457
G1 X1.810 Y-20.515 E0.06365
G1 X2.128 Y-19.891 E0.06363
G1 X2.237 Y-19.200 E0.06365
G1 X2.128 Y-18.509 E0.06365
G1 X1.810 Y-17.885 E0.06363
G1 X1.315 Y-17.390 E0.06365
G1 X0.691 Y-17.072 E0.06364
G1 X0.059 Y-16.972 E0.05818
G1 X0.000 Y-17.596 F15000.000
G1 X-0.496 Y-17.674 E0.04564 F600.000
G1 X-0.943 Y-17.902 E0.04564
G1 X-1.298 Y-18.257 E0.04565
G1 X-1.526 Y-18.704 E0.04564
G1 X-1.604 Y-19.200 E0.04565
G1 X-1.526 Y-19.696 E0.04565
G1 X-1.298 Y-20.143 E0.04564
G1 X-0.925 Y-20.516 E0.04800
G1 X-0.492 Y-20.726 E0.04370
G1 X-0.031 Y-20.800 E0.04252 F600.000
G1 X0.493 Y-20.727 E0.04802
G1 X0.943 Y-20.498 E0.04597
G1 X1.298 Y-20.143 E0.04565
G1 X1.526 Y-19.696 E0.04564
G1 X1.604 Y-19.200 E0.04565
G1 X1.526 Y-18.704 E0.04565
G1 X1.298 Y-18.257 E0.04564
G1 X0.943 Y-17.902 E0.04565
G1 X0.496 Y-17.674 E0.04564
G1 X0.059 Y-17.605 E0.04019
G1 X-0.218 Y-17.260 F15000.000
G1 X2.725 Y-17.596 F15000.000
G1 X2.725 Y-2.880 E1.33807 F960.000
G1 X3.247 Y-2.359 E0.06705
G1 X3.817 Y-1.240 E0.11417
G1 X4.013 Y0.000 E0.11416
G1 X3.817 Y1.240 E0.11416
G1 X3.247 Y2.359 E0.11417
G1 X2.725 Y2.880 E0.06705
G1 X2.725 Y19.123 E1.47698
G1 X2.580 Y20.038 E0.08425
G1 X2.195 Y20.795 E0.07718
G1 X1.595 Y21.395 E0.07718
G1 X0.838 Y21.780 E0.07718
G1 X-0.000 Y21.913 E0.07718
G1 X-0.838 Y21.780 E0.07718
G1 X-1.595 Y21.395 E0.07718
G1 X-2.195 Y20.795 E0.07718
G1 X-2.580 Y20.038 E0.07718
G1 X-2.725 Y19.123 E0.08425
G1 X-2.725 Y2.880 E1.47698
G1 X-3.247 Y2.359 E0.06705
G1 X-3.817 Y1.240 E0.11417
G1 X-4.013 Y-0.000 E0.11416
G1 X-3.817 Y-1.240 E0.11416
G1 X-3.247 Y-2.359 E0.11417
G1 X-2.725 Y-2.880 E0.06705
G1 X-2.725 Y-19.123 E1.47698
G1 X-2.580 Y-20.038 E0.08425
G1 X-2.195 Y-20.795 E0.07718
G1 X-1.595 Y-21.395 E0.07718
G1 X-0.838 Y-21.780 E0.07718
G1 X0.000 Y-21.913 E0.07718
G1 X0.838 Y-21.780 E0.07718
G1 X1.595 Y-21.395 E0.07718 F960.000
G1 X2.195 Y-20.795 E0.07718
G1 X2.580 Y-20.038 E0.07718
G1 X2.725 Y-19.123 E0.08425
G1 X2.725 Y-17.656 E0.13345
G1 X3.350 Y-17.596 F15000.000
G1 X3.350 Y-3.139 E1.31453 F960.000
G1 X3.758 Y-2.731 E0.05252
G1 X4.418 Y-1.436 E0.13216
G1 X4.646 Y0.000 E0.13216
G1 X4.418 Y1.436 E0.13216
G1 X3.758 Y2.731 E0.13216
G1 X3.350 Y3.139 E0.05252
G1 X3.350 Y19.172 E1.45791
G1 X3.182 Y20.234 E0.09772
G1 X2.707 Y21.167 E0.09518
G1 X1.967 Y21.907 E0.09518
G1 X1.034 Y22.382 E0.09518
G1 X-0.000 Y22.546 E0.09518
G1 X-1.034 Y22.382 E0.09518
G1 X-1.967 Y21.907 E0.09518
G1 X-2.707 Y21.167 E0.09518
G1 X-3.182 Y20.234 E0.09518
G1 X-3.350 Y19.172 E0.09772
G1 X-3.350 Y3.139 E1.45791
G1 X-3.758 Y2.731 E0.05252
G1 X-4.418 Y1.436 E0.13216
G1 X-4.646 Y-0.000 E0.13216
G1 X-4.418 Y-1.436 E0.13216
G1 X-3.758 Y-2.731 E0.13216
G1 X-3.350 Y-3.139 E0.05252
G1 X-3.350 Y-19.172 E1.45791
G1 X-3.182 Y-20.234 E0.09772
G1 X-2.707 Y-21.167 E0.09518
G1 X-1.967 Y-21.907 E0.09518
G1 X-1.034 Y-22.382 E0.09518
G1 X0.000 Y-22.546 E0.09518
G1 X1.034 Y-22.382 E0.09518
G1 X1.967 Y-21.907 E0.09518 F960.000
G1 X2.707 Y-21.167 E0.09518
G1 X3.182 Y-20.234 E0.09518
G1 X3.350 Y-19.172 E0.09772
G1 X3.350 Y-17.656 E0.13792
G1 X3.004 Y-17.396 F15000.000
G1 X1.722 Y-16.070 F15000.000
G1 X1.422 Y-16.370 E0.03883 F960.000
G1 X0.808 Y-16.094 E0.06161
G1 X1.722 Y-15.180 E0.11833
G1 X1.722 Y-14.291 E0.08142
G1 X0.040 Y-15.973 E0.21773
G1 X-0.953 Y-16.075 E0.09130
G1 X1.722 Y-13.401 E0.34616
G1 X1.722 Y-12.511 E0.08142
G1 X-1.722 Y-15.955 E0.44571
G1 X-1.722 Y-15.065 E0.08142
G1 X1.722 Y-11.622 E0.44571
G1 X1.722 Y-10.732 E0.08142
G1 X-1.722 Y-14.176 E0.44571
G1 X-1.722 Y-13.286 E0.08142
G1 X1.722 Y-9.843 E0.44571
G1 X1.722 Y-8.953 E0.08142
G1 X-1.722 Y-12.396 E0.44571
G1 X-1.722 Y-11.507 E0.08142
G1 X1.722 Y-8.064 E0.44571
G1 X1.722 Y-7.174 E0.08142
G1 X-1.722 Y-10.617 E0.44571
G1 X-1.722 Y-9.728 E0.08142
G1 X1.722 Y-6.284 E0.44571
G1 X1.722 Y-5.395 E0.08142
G1 X-1.722 Y-8.838 E0.44571
G1 X-1.722 Y-7.949 E0.08142
G1 X1.722 Y-4.505 E0.44571
G1 X1.722 Y-3.616 E0.08142
G1 X-1.722 Y-7.059 E0.44571
G1 X-1.722 Y-6.169 E0.08142
G1 X1.722 Y-2.726 E0.44571
G1 X2.864 Y-0.694 F15000.000
G1 X-1.722 Y-5.280 E0.59364 F960.000
G1 X-1.722 Y-4.390 E0.08142
G1 X2.969 Y0.300 E0.60715
G1 X2.835 Y1.056 E0.07028
G1 X-1.722 Y-3.501 E0.58987
G1 X-1.722 Y-2.611 E0.08142
G1 X2.535 Y1.646 E0.55101
G1 X2.132 Y2.132 E0.05783
G1 X-2.132 Y-2.132 E0.55193
G1 X-2.535 Y-1.646 E0.05783
G1 X1.722 Y2.611 E0.55101
G1 X1.722 Y3.501 E0.08142
G1 X-2.835 Y-1.056 E0.58987
G1 X-2.969 Y-0.300 E0.07028
G1 X1.722 Y4.390 E0.60715
G1 X1.722 Y5.280 E0.08142
G1 X-2.864 Y0.694 E0.59364
G1 X-1.722 Y2.726 F15000.000
G1 X1.722 Y6.169 E0.44571 F960.000
G1 X1.722 Y7.059 E0.08142
G1 X-1.722 Y3.616 E0.44571
G1 X-1.722 Y4.505 E0.08142
G1 X1.722 Y7.949 E0.44571
G1 X1.722 Y8.838 E0.08142
G1 X-1.722 Y5.395 E0.44571
G1 X-1.722 Y6.284 E0.08142
G1 X1.722 Y9.728 E0.44571
G1 X1.722 Y10.617 E0.08142
G1 X-1.722 Y7.174 E0.44571
G1 X-1.722 Y8.064 E0.08142
G1 X1.722 Y11.507 E0.44571
G1 X1.722 Y12.396 E0.08142
G1 X-1.722 Y8.953 E0.44571
G1 X-1.722 Y9.843 E0.08142
G1 X1.722 Y13.286 E0.44571
G1 X1.722 Y14.176 E0.08142
G1 X-1.722 Y10.732 E0.44571
G1 X-1.722 Y11.622 E0.08142
G1 X1.722 Y15.065 E0.44571
G1 X1.722 Y15.955 E0.08142
G1 X-1.722 Y12.511 E0.44571
G1 X-1.722 Y13.401 E0.08142
G1 X0.950 Y16.072 E0.34577
G1 X-0.040 Y15.973 E0.09100
G1 X-1.722 Y14.291 E0.21773
G1 X-1.722 Y15.180 E0.08142
G1 X-0.808 Y16.094 E0.11833
G1 X-1.422 Y16.370 E0.06161
G1 X-1.722 Y16.070 E0.03883
G1 E-3.20000 F3000.00000
G1 Z0.750 F15000.000
G1 X0.000 Y17.024 F15000.000
G1 Z0.550 F15000.000
G1 E3.20000 F3000.00000
G1 X0.672 Y17.131 E0.02021 F2400.000
G1 X1.279 Y17.440 E0.02021
G1 X1.760 Y17.921 E0.02021
G1 X2.069 Y18.528 E0.02021
G1 X2.176 Y19.200 E0.02021
G1 X2.069 Y19.872 E0.02021
G1 X1.760 Y20.479 E0.02021
G1 X1.279 Y20.960 E0.02021
G1 X0.672 Y21.269 E0.02021
G1 X0.000 Y21.376 E0.02021
G1 X-0.672 Y21.269 E0.02021
G1 X-1.279 Y20.960 E0.02021
G1 X-1.760 Y20.479 E0.02021
G1 X-2.069 Y19.872 E0.02021
G1 X-2.176 Y19.200 E0.02021
G1 X-2.069 Y18.528 E0.02021
G1 X-1.760 Y17.921 E0.02021
G1 X-1.279 Y17.440 E0.02021
G1 X-0.672 Y17.131 E0.02021
G1 X-0.255 Y17.065 E0.01255
G1 X-0.059 Y17.034 E0.00587 F2400.000
G1 X0.000 Y17.386 F15000.000
G1 X0.561 Y17.475 E0.01685 F2400.000
G1 X1.066 Y17.732 E0.01685
G1 X1.468 Y18.134 E0.01685
G1 X1.725 Y18.639 E0.01685
G1 X1.814 Y19.200 E0.01685
G1 X1.725 Y19.761 E0.01685
G1 X1.468 Y20.266 E0.01685
G1 X1.066 Y20.668 E0.01685
G1 X0.561 Y20.925 E0.01685
G1 X0.000 Y21.014 E0.01685
G1 X-0.561 Y20.925 E0.01685
G1 X-1.066 Y20.668 E0.01685
G1 X-1.468 Y20.266 E0.01685
G1 X-1.725 Y19.761 E0.01685
G1 X-1.814 Y19.200 E0.01685
G1 X-1.725 Y18.639 E0.01685
G1 X-1.468 Y18.134 E0.01685
G1 X-1.066 Y17.732 E0.01685
G1 X-0.561 Y17.475 E0.01685
G1 X-0.199 Y17.417 E0.01087
G1 X-0.059 Y17.395 E0.00419 F2400.000
G1 X-0.000 Y17.748 F15000.000
G1 X0.449 Y17.819 E0.01349 F2400.000
G1 X0.854 Y18.025 E0.01349
G1 X1.175 Y18.346 E0.01349
G1 X1.381 Y18.751 E0.01349
G1 X1.452 Y19.200 E0.01349
G1 X1.381 Y19.649 E0.01349
G1 X1.175 Y20.054 E0.01349
G1 X0.854 Y20.375 E0.01349
G1 X0.449 Y20.581 E0.01349
G1 X0.000 Y20.652 E0.01349
G1 X-0.449 Y20.581 E0.01349
G1 X-0.854 Y20.375 E0.01349
G1 X-1.175 Y20.054 E0.01349
G1 X-1.381 Y19.649 E0.01349
G1 X-1.452 Y19.200 E0.01349
G1 X-1.381 Y18.751 E0.01349
G1 X-1.175 Y18.346 E0.01349
G1 X-0.854 Y18.025 E0.01349
G1 X-0.449 Y17.819 E0.01349
G1 X-0.143 Y17.770 E0.00920
G1 X-0.059 Y17.757 E0.00251 F2400.000
G1 X0.218 Y17.412 F15000.000
G1 X0.000 Y-17.024 F15000.000
G1 X-0.672 Y-17.131 E0.02021 F2400.000
G1 X-1.279 Y-17.440 E0.02021
G1 X-1.760 Y-17.921 E0.02021
G1 X-2.069 Y-18.528 E0.02021
G1 X-2.176 Y-19.200 E0.02021
G1 X-2.069 Y-19.872 E0.02021
G1 X-1.760 Y-20.479 E0.02021
G1 X-1.279 Y-20.960 E0.02021
G1 X-0.672 Y-21.269 E0.02021 F2400.000
G1 X-0.000 Y-21.376 E0.02021
G1 X0.672 Y-21.269 E0.02021
G1 X1.279 Y-20.960 E0.02021
G1 X1.760 Y-20.479 E0.02021
G1 X2.069 Y-19.872 E0.02021
G1 X2.176 Y-19.200 E0.02021
G1 X2.069 Y-18.528 E0.02021
G1 X1.760 Y-17.921 E0.02021
G1 X1.279 Y-17.440 E0.02021
G1 X0.672 Y-17.131 E0.02021
G1 X0.059 Y-17.034 E0.01843
G1 X0.000 Y-17.386 F15000.000
G1 X-0.561 Y-17.475 E0.01685 F2400.000
G1 X-1.066 Y-17.732 E0.01685
G1 X-1.468 Y-18.134 E0.01685
G1 X-1.725 Y-18.639 E0.01685
G1 X-1.814 Y-19.200 E0.01685
G1 X-1.725 Y-19.761 E0.01685
G1 X-1.468 Y-20.266 E0.01685
G1 X-1.066 Y-20.668 E0.01685
G1 X-0.561 Y-20.925 E0.01685
G1 X-0.157 Y-20.989 E0.01214
G1 X-0.000 Y-21.014 E0.00471 F2400.000
G1 X0.561 Y-20.925 E0.01685
G1 X1.066 Y-20.668 E0.01685
G1 X1.468 Y-20.266 E0.01685
G1 X1.725 Y-19.761 E0.01685
G1 X1.814 Y-19.200 E0.01685
G1 X1.725 Y-18.639 E0.01685
G1 X1.468 Y-18.134 E0.01685
G1 X1.066 Y-17.732 E0.01685
G1 X0.561 Y-17.475 E0.01685
G1 X0.059 Y-17.395 E0.01507
G1 X0.000 Y-17.748 F15000.000
G1 X-0.449 Y-17.819 E0.01349 F2400.000
G1 X-0.854 Y-18.025 E0.01349
G1 X-1.175 Y-18.346 E0.01349
G1 X-1.381 Y-18.751 E0.01349
G1 X-1.452 Y-19.200 E0.01349
G1 X-1.381 Y-19.649 E0.01349
G1 X-1.175 Y-20.054 E0.01349
G1 X-0.854 Y-20.375 E0.01349
G1 X-0.449 Y-20.581 E0.01349
G1 X-0.101 Y-20.637 E0.01046
G1 X-0.000 Y-20.652 E0.00303 F2400.000
G1 X0.449 Y-20.581 E0.01349
G1 X0.854 Y-20.375 E0.01349
G1 X1.175 Y-20.054 E0.01349
G1 X1.381 Y-19.649 E0.01349
G1 X1.452 Y-19.200 E0.01349
G1 X1.381 Y-18.751 E0.01349
G1 X1.175 Y-18.346 E0.01349
G1 X0.854 Y-18.025 E0.01349
G1 X0.449 Y-17.819 E0.01349
G1 X0.059 Y-17.757 E0.01171
G1 X-0.218 Y-17.412 F15000.000
G1 X2.786 Y-17.748 F15000.000
G1 X2.786 Y-2.905 E0.44068 F2400.000
G1 X3.296 Y-2.395 E0.02143
G1 X3.875 Y-1.259 E0.03785
G1 X4.074 Y-0.000 E0.03785
G1 X3.875 Y1.259 E0.03785
G1 X3.296 Y2.395 E0.03785
G1 X2.786 Y2.905 E0.02143
G1 X2.786 Y19.128 E0.48167
G1 X2.639 Y20.057 E0.02794
G1 X2.245 Y20.831 E0.02577
G1 X1.631 Y21.445 E0.02577
G1 X0.857 Y21.839 E0.02577
G1 X-0.000 Y21.974 E0.02577
G1 X-0.857 Y21.839 E0.02577
G1 X-1.631 Y21.445 E0.02577
G1 X-2.245 Y20.831 E0.02577
G1 X-2.639 Y20.057 E0.02577
G1 X-2.786 Y19.128 E0.02794
G1 X-2.786 Y2.905 E0.48167
G1 X-3.296 Y2.395 E0.02143
G1 X-3.875 Y1.259 E0.03785
G1 X-4.074 Y-0.000 E0.03785
G1 X-3.875 Y-1.259 E0.03785
G1 X-3.296 Y-2.395 E0.03785
G1 X-2.786 Y-2.905 E0.02143
G1 X-2.786 Y-19.128 E0.48167
G1 X-2.639 Y-20.057 E0.02794
G1 X-2.245 Y-20.831 E0.02577
G1 X-1.631 Y-21.445 E0.02577
G1 X-0.857 Y-21.839 E0.02577
G1 X0.000 Y-21.974 E0.02577
G1 X0.063 Y-21.965 E0.00189
G1 X0.857 Y-21.839 E0.02389 F2400.000
G1 X1.631 Y-21.445 E0.02577
G1 X2.245 Y-20.831 E0.02577
G1 X2.639 Y-20.057 E0.02577
G1 X2.786 Y-19.128 E0.02794
G1 X2.786 Y-17.808 E0.03921
G1 X3.143 Y-17.748 F15000.000
G1 X3.143 Y-3.053 E0.43629 F2400.000
G1 X3.589 Y-2.607 E0.01872
G1 X4.219 Y-1.371 E0.04121
G1 X4.436 Y-0.000 E0.04121
G1 X4.219 Y1.371 E0.04121
G1 X3.589 Y2.607 E0.04121
G1 X3.143 Y3.053 E0.01872
G1 X3.143 Y19.156 E0.47812
G1 X2.982 Y20.169 E0.03045
G1 X2.537 Y21.043 E0.02913
G1 X1.843 Y21.737 E0.02913
G1 X0.969 Y22.182 E0.02913
G1 X-0.000 Y22.336 E0.02913
G1 X-0.969 Y22.182 E0.02913
G1 X-1.843 Y21.737 E0.02913
G1 X-2.537 Y21.043 E0.02913
G1 X-2.982 Y20.169 E0.02913
G1 X-3.143 Y19.156 E0.03045
G1 X-3.143 Y3.053 E0.47812
G1 X-3.589 Y2.607 E0.01872
G1 X-4.219 Y1.371 E0.04121
G1 X-4.436 Y-0.000 E0.04121
G1 X-4.219 Y-1.371 E0.04121
G1 X-3.589 Y-2.607 E0.04121
G1 X-3.143 Y-3.053 E0.01872
G1 X-3.143 Y-19.156 E0.47812
G1 X-2.982 Y-20.169 E0.03045
G1 X-2.537 Y-21.043 E0.02913
G1 X-1.843 Y-21.737 E0.02913
G1 X-0.969 Y-22.182 E0.02913
G1 X0.000 Y-22.336 E0.02913
G1 X0.119 Y-22.317 E0.00357
G1 X0.969 Y-22.182 E0.02556 F2400.000
G1 X1.843 Y-21.737 E0.02913
G1 X2.537 Y-21.043 E0.02913
G1 X2.982 Y-20.169 E0.02913
G1 X3.143 Y-19.156 E0.03045
G1 X3.143 Y-17.808 E0.04004
G1 X3.500 Y-17.748 F15000.000
G1 X3.500 Y-3.201 E0.43190 F2400.000
G1 X3.881 Y-2.820 E0.01601
G1 X4.563 Y-1.483 E0.04457
G1 X4.798 Y-0.000 E0.04457
G1 X4.563 Y1.483 E0.04457
G1 X3.881 Y2.820 E0.04457
